; Generated by RP3 on 2021-02-3
; Job 0 - LMD

; General Config.--------------------
N100 $ac_timer[1]=0
N110 G91   ; relative positioning
N120 G641  ;
N130 G603  ;


N140 R0 = 39     ; Laser Power 
N150 R3 = 3      ; Powder feed rate

N160 M55   ; home mirror
N170 G4F4  ; necessary delay for positioning of the mirror
N180 M0    ; wait for user-input

; Process Start-up--------------------
N190 M56   ; set canal 1 as laser-source
N200 G4F4  ; necessary delay for positioning of the mirror
N210 M78           	    ;GAS 1 ON
N220 M0    ; wait for user-input
; START POWDER!!!

N230 M64		;CARRIER ON
N240 H2 = R3	;SET POWDER FLOW
N250 M62		;POWDER MIXER ON
N260 M66		;POWDER FEED ON



N270 G4F4
N280 M0
N290 G54   ; set process starting point (machine zero)

; Laser On and Path------------------
N300 H1 = R0
N310 G90   ; use absolute coordinates

; Layer 4
N4310 G1 Z5.760 F1000
N4320 X99.06 Y141.85 F1000
N4330 ID=1 WHEN $AC_TIMER[1]>=0 DO M50
N4340 X5.528 Y141.850 F300
N4350 X5.131 Y141.835
N4360 X4.761 Y141.771
N4370 X4.395 Y141.677
N4380 X4.064 Y141.546
N4390 X3.716 Y141.368
N4400 X3.401 Y141.168
N4410 X3.113 Y140.937
N4420 X2.853 Y140.677
N4430 X2.622 Y140.389
N4440 X2.418 Y140.069
N4450 X2.244 Y139.735
N4460 X2.114 Y139.400
N4470 X2.022 Y139.040
N4480 X1.964 Y138.667
N4490 X1.940 Y138.249
N4500 X1.940 Y44.730
N4510 X4.820 Y44.730
N4520 X4.822 Y126.883
N4530 X4.871 Y127.566
N4540 X4.986 Y128.202
N4550 X5.167 Y128.861
N4560 X5.418 Y129.485
N4570 X5.746 Y130.105
N4580 X6.108 Y130.633
N4590 X6.542 Y131.158
N4600 X7.017 Y131.620
N4610 X7.567 Y132.045
N4620 X8.125 Y132.392
N4630 X8.725 Y132.691
N4640 X9.349 Y132.924
N4650 X10.027 Y133.093
N4660 X10.702 Y133.189
N4670 X11.260 Y133.210
N4680 X99.060 Y133.210
N4690 X99.060 Y141.750
N4700 ID=1 WHEN $AC_TIMER[1]>=0 DO M51
N4710 X121.41 Y121.85 F1000
N4720 ID=1 WHEN $AC_TIMER[1]>=0 DO M50
N4730 X118.530 Y121.850 F300
N4740 X118.526 Y36.829
N4750 X118.467 Y36.102
N4760 X118.347 Y35.461
N4770 X118.243 Y35.076
N4780 X118.053 Y34.556
N4790 X117.977 Y34.385
N4800 X117.665 Y33.797
N4810 X117.445 Y33.464
N4820 X117.125 Y33.054
N4830 X116.996 Y32.910
N4840 X116.498 Y32.429
N4850 X116.044 Y32.071
N4860 X115.323 Y31.652
N4870 X114.921 Y31.469
N4880 X114.237 Y31.243
N4890 X113.607 Y31.108
N4900 X113.206 Y31.052
N4910 X112.560 Y31.020
N4920 X21.940 Y31.020
N4930 X21.940 Y22.380
N4940 X118.280 Y22.380
N4950 X118.741 Y22.407
N4960 X119.179 Y22.492
N4970 X119.499 Y22.581
N4980 X119.850 Y22.733
N4990 X120.142 Y22.908
N5000 X120.416 Y23.124
N5010 X120.698 Y23.413
N5020 X120.922 Y23.707
N5030 X120.981 Y23.802
N5040 X121.150 Y24.140
N5050 X121.271 Y24.490
N5060 X121.386 Y25.052
N5070 X121.410 Y25.508
N5080 X121.410 Y121.750
N5090 ID=1 WHEN $AC_TIMER[1]>=0 DO M51
N5100 X96.18 Y138.97 F1000
N5110 ID=1 WHEN $AC_TIMER[1]>=0 DO M50
N5120 X5.433 Y138.964 F300
N5130 X5.251 Y138.919
N5140 X5.040 Y138.791
N5150 X4.966 Y138.708
N5160 X4.862 Y138.521
N5170 X4.831 Y138.362
N5180 X4.820 Y138.168
N5190 X4.820 Y133.501
N5200 X5.011 Y133.686
N5210 X5.255 Y133.898
N5220 X5.805 Y134.323
N5230 X6.045 Y134.490
N5240 X6.603 Y134.837
N5250 X6.842 Y134.971
N5260 X7.443 Y135.270
N5270 X7.717 Y135.389
N5280 X8.341 Y135.622
N5290 X8.653 Y135.719
N5300 X9.332 Y135.887
N5310 X9.621 Y135.944
N5320 X10.296 Y136.040
N5330 X10.593 Y136.067
N5340 X11.260 Y136.090
N5350 X96.180 Y136.090
N5360 X96.180 Y138.870
N5370 ID=1 WHEN $AC_TIMER[1]>=0 DO M51
N5380 X118.53 Y30.3876 F1000
N5390 ID=1 WHEN $AC_TIMER[1]>=0 DO M50
N5400 X118.282 Y30.168 F300
N5410 X117.828 Y29.810
N5420 X117.491 Y29.580
N5430 X116.770 Y29.162
N5440 X116.514 Y29.029
N5450 X116.112 Y28.847
N5460 X115.825 Y28.735
N5470 X115.141 Y28.509
N5480 X114.841 Y28.427
N5490 X114.006 Y28.256
N5500 X113.348 Y28.176
N5510 X112.560 Y28.140
N5520 X24.820 Y28.140
N5530 X24.820 Y25.260
N5540 X118.197 Y25.260
N5550 X118.380 Y25.270
N5560 X118.496 Y25.293
N5570 X118.521 Y25.418
N5580 X118.530 Y25.584
N5590 X118.530 Y30.288
N5600 ID=1 WHEN $AC_TIMER[1]>=0 DO M51

; Inicio do trecho do raster
; Final do trecho do raster


N5610 M63		;POWDER MIXER OFF
N5620 M67		;POWDER FEED OFF
N5630 M65		;CARRIER OFF
N5640 G4F5
N5650 M79     ;GAS 1 OFF

N5660 M0

N5670 M78     ; GAS 1 ON
N5680 M64		;CARRIER ON
N5690 H2 = R3	;SET POWDER FLOW
N5700 M62		;POWDER MIXER ON
N5710 M66		;POWDER FEED ON
N5720 G4F4

; Layer 5
N5730 G1 Z7.200 F1000
N5740 X99.06 Y141.85 F1000
N5750 ID=1 WHEN $AC_TIMER[1]>=0 DO M50
N5760 X5.528 Y141.850 F300
N5770 X5.131 Y141.835
N5780 X4.761 Y141.771
N5790 X4.395 Y141.677
N5800 X4.064 Y141.546
N5810 X3.716 Y141.368
N5820 X3.401 Y141.168
N5830 X3.113 Y140.937
N5840 X2.853 Y140.677
N5850 X2.622 Y140.389
N5860 X2.418 Y140.069
N5870 X2.244 Y139.735
N5880 X2.114 Y139.400
N5890 X2.022 Y139.040
N5900 X1.964 Y138.667
N5910 X1.940 Y138.249
N5920 X1.940 Y44.730
N5930 X4.820 Y44.730
N5940 X4.822 Y126.893
N5950 X4.871 Y127.576
N5960 X4.993 Y128.238
N5970 X5.177 Y128.871
N5980 X5.433 Y129.506
N5990 X5.734 Y130.071
N6000 X6.088 Y130.613
N6010 X6.535 Y131.151
N6020 X7.037 Y131.632
N6030 X7.577 Y132.055
N6040 X8.157 Y132.413
N6050 X8.739 Y132.693
N6060 X9.388 Y132.934
N6070 X10.031 Y133.093
N6080 X10.711 Y133.189
N6090 X11.260 Y133.210
N6100 X99.060 Y133.210
N6110 X99.060 Y141.750
N6120 ID=1 WHEN $AC_TIMER[1]>=0 DO M51
N6130 X122.08 Y121.85 F1000
N6140 ID=1 WHEN $AC_TIMER[1]>=0 DO M50
N6150 X119.200 Y121.850 F300
N6160 X119.197 Y36.151
N6170 X119.140 Y35.433
N6180 X119.022 Y34.785
N6190 X118.801 Y34.087
N6200 X118.526 Y33.462
N6210 X118.416 Y33.252
N6220 X118.125 Y32.807
N6230 X117.805 Y32.387
N6240 X117.654 Y32.218
N6250 X117.107 Y31.708
N6260 X116.677 Y31.378
N6270 X116.502 Y31.263
N6280 X116.072 Y31.023
N6290 X115.908 Y30.944
N6300 X115.188 Y30.654
N6310 X114.999 Y30.593
N6320 X114.522 Y30.479
N6330 X113.876 Y30.382
N6340 X113.230 Y30.350
N6350 X21.940 Y30.350
N6360 X21.940 Y21.710
N6370 X118.952 Y21.710
N6380 X119.387 Y21.733
N6390 X119.846 Y21.820
N6400 X120.223 Y21.934
N6410 X120.526 Y22.066
N6420 X120.845 Y22.253
N6430 X120.963 Y22.340
N6440 X121.195 Y22.546
N6450 X121.470 Y22.863
N6460 X121.664 Y23.156
N6470 X121.826 Y23.472
N6480 X121.886 Y23.627
N6490 X121.998 Y24.007
N6500 X122.032 Y24.187
N6510 X122.080 Y24.829
N6520 X122.080 Y121.750
N6530 ID=1 WHEN $AC_TIMER[1]>=0 DO M51
N6540 X96.18 Y138.97 F1000
N6550 ID=1 WHEN $AC_TIMER[1]>=0 DO M50
N6560 X5.433 Y138.964 F300
N6570 X5.251 Y138.919
N6580 X5.040 Y138.791
N6590 X4.966 Y138.708
N6600 X4.862 Y138.521
N6610 X4.831 Y138.362
N6620 X4.820 Y138.168
N6630 X4.820 Y133.496
N6640 X5.260 Y133.898
N6650 X5.800 Y134.322
N6660 X6.063 Y134.505
N6670 X6.643 Y134.863
N6680 X6.912 Y135.010
N6690 X7.494 Y135.290
N6700 X7.736 Y135.392
N6710 X8.384 Y135.633
N6720 X8.694 Y135.729
N6730 X9.338 Y135.889
N6740 X9.630 Y135.945
N6750 X10.311 Y136.041
N6760 X10.600 Y136.067
N6770 X11.260 Y136.090
N6780 X96.180 Y136.090
N6790 X96.180 Y138.870
N6800 ID=1 WHEN $AC_TIMER[1]>=0 DO M51
N6810 X119.2 Y29.7218 F1000
N6820 ID=1 WHEN $AC_TIMER[1]>=0 DO M50
N6830 X118.860 Y29.423 F300
N6840 X118.259 Y28.972
N6850 X117.905 Y28.748
N6860 X117.150 Y28.346
N6870 X116.077 Y27.915
N6880 X115.669 Y27.792
N6890 X114.949 Y27.631
N6900 X114.302 Y27.534
N6910 X114.018 Y27.506
N6920 X113.230 Y27.470
N6930 X24.820 Y27.470
N6940 X24.820 Y24.590
N6950 X118.876 Y24.590
N6960 X119.040 Y24.599
N6970 X119.177 Y24.627
N6980 X119.200 Y24.937
N6990 X119.200 Y29.622
N7000 ID=1 WHEN $AC_TIMER[1]>=0 DO M51

; Inicio do trecho do raster
; Final do trecho do raster


N7010 M63		;POWDER MIXER OFF
N7020 M67		;POWDER FEED OFF
N7030 M65		;CARRIER OFF
N7040 G4F5
N7050 M79     ;GAS 1 OFF

N7060 M0

N7070 M78     ; GAS 1 ON
N7080 M64		;CARRIER ON
N7090 H2 = R3	;SET POWDER FLOW
N7100 M62		;POWDER MIXER ON
N7110 M66		;POWDER FEED ON
N7120 G4F10

; Layer 6
N7130 G1 Z8.640 F1000
N7140 X99.06 Y141.85 F1000
N7150 ID=1 WHEN $AC_TIMER[1]>=0 DO M50
N7160 X5.528 Y141.850 F300
N7170 X5.131 Y141.835
N7180 X4.761 Y141.771
N7190 X4.395 Y141.677
N7200 X4.064 Y141.546
N7210 X3.716 Y141.368
N7220 X3.401 Y141.168
N7230 X3.113 Y140.937
N7240 X2.853 Y140.677
N7250 X2.622 Y140.389
N7260 X2.418 Y140.069
N7270 X2.244 Y139.735
N7280 X2.114 Y139.400
N7290 X2.022 Y139.040
N7300 X1.964 Y138.667
N7310 X1.940 Y138.249
N7320 X1.940 Y44.730
N7330 X4.820 Y44.730
N7340 X4.822 Y126.885
N7350 X4.872 Y127.590
N7360 X4.991 Y128.231
N7370 X5.181 Y128.890
N7380 X5.428 Y129.495
N7390 X5.743 Y130.095
N7400 X6.096 Y130.622
N7410 X6.565 Y131.182
N7420 X7.043 Y131.639
N7430 X7.557 Y132.041
N7440 X8.134 Y132.397
N7450 X8.594 Y132.637
N7460 X8.763 Y132.712
N7470 X9.394 Y132.935
N7480 X10.041 Y133.093
N7490 X10.720 Y133.189
N7500 X11.260 Y133.210
N7510 X99.060 Y133.210
N7520 X99.060 Y141.750
N7530 ID=1 WHEN $AC_TIMER[1]>=0 DO M51
N7540 X122.75 Y121.85 F1000
N7550 ID=1 WHEN $AC_TIMER[1]>=0 DO M50
N7560 X119.870 Y121.850 F300
N7570 X119.867 Y35.461
N7580 X119.827 Y34.881
N7590 X119.802 Y34.698
N7600 X119.659 Y34.014
N7610 X119.499 Y33.484
N7620 X119.436 Y33.315
N7630 X119.236 Y32.865
N7640 X119.155 Y32.709
N7650 X118.808 Y32.144
N7660 X118.550 Y31.807
N7670 X118.091 Y31.307
N7680 X117.754 Y31.008
N7690 X117.354 Y30.708
N7700 X116.767 Y30.363
N7710 X116.597 Y30.276
N7720 X115.981 Y30.019
N7730 X115.567 Y29.893
N7740 X115.017 Y29.773
N7750 X114.816 Y29.744
N7760 X113.900 Y29.680
N7770 X21.940 Y29.680
N7780 X21.940 Y21.040
N7790 X119.658 Y21.040
N7800 X120.047 Y21.059
N7810 X120.539 Y21.151
N7820 X120.864 Y21.249
N7830 X121.362 Y21.483
N7840 X121.542 Y21.607
N7850 X122.750 Y24.426
N7860 X122.750 Y121.750
N7870 ID=1 WHEN $AC_TIMER[1]>=0 DO M51
N7880 X96.18 Y138.97 F1000
N7890 ID=1 WHEN $AC_TIMER[1]>=0 DO M50
N7900 X5.433 Y138.964 F300
N7910 X5.251 Y138.919
N7920 X5.040 Y138.791
N7930 X4.966 Y138.708
N7940 X4.862 Y138.521
N7950 X4.831 Y138.362
N7960 X4.820 Y138.168
N7970 X4.820 Y133.498
N7980 X5.267 Y133.905
N7990 X5.780 Y134.308
N8000 X6.046 Y134.493
N8010 X6.802 Y134.950
N8020 X7.429 Y135.271
N8030 X7.801 Y135.426
N8040 X8.432 Y135.650
N8050 X8.711 Y135.733
N8060 X9.358 Y135.891
N8070 X9.640 Y135.945
N8080 X10.319 Y136.041
N8090 X10.607 Y136.067
N8100 X11.260 Y136.090
N8110 X96.180 Y136.090
N8120 X96.180 Y138.870
N8130 ID=1 WHEN $AC_TIMER[1]>=0 DO M51
N8140 X119.87 Y29.0382 F1000
N8150 ID=1 WHEN $AC_TIMER[1]>=0 DO M50
N8160 X119.482 Y28.704 F300
N8170 X119.082 Y28.404
N8180 X118.814 Y28.225
N8190 X118.073 Y27.796
N8200 X117.707 Y27.619
N8210 X117.090 Y27.361
N8220 X116.820 Y27.264
N8230 X116.181 Y27.079
N8240 X115.431 Y26.923
N8250 X115.017 Y26.871
N8260 X113.900 Y26.800
N8270 X24.820 Y26.800
N8280 X24.820 Y23.920
N8290 X119.400 Y23.920
N8300 X119.870 Y25.017
N8310 X119.870 Y28.938
N8320 ID=1 WHEN $AC_TIMER[1]>=0 DO M51

; Inicio do trecho do raster
; Final do trecho do raster


N8330 M63		;POWDER MIXER OFF
N8340 M67		;POWDER FEED OFF
N8350 M65		;CARRIER OFF
N8360 G4F5
N8370 M79     ;GAS 1 OFF

N8380 M0

N8390 M78     ; GAS 1 ON
N8400 M64		;CARRIER ON
N8410 H2 = R3	;SET POWDER FLOW
N8420 M62		;POWDER MIXER ON
N8430 M66		;POWDER FEED ON
N8440 G4F10

; Layer 7
N8450 G1 Z10.080 F1000
N8460 X99.06 Y141.85 F1000
N8470 ID=1 WHEN $AC_TIMER[1]>=0 DO M50
N8480 X5.528 Y141.850 F300
N8490 X5.131 Y141.835
N8500 X4.761 Y141.771
N8510 X4.395 Y141.677
N8520 X4.052 Y141.542
N8530 X3.749 Y141.394
N8540 X3.404 Y141.171
N8550 X3.113 Y140.937
N8560 X2.853 Y140.677
N8570 X2.622 Y140.389
N8580 X2.418 Y140.069
N8590 X2.244 Y139.735
N8600 X2.114 Y139.400
N8610 X2.022 Y139.040
N8620 X1.964 Y138.667
N8630 X1.940 Y138.249
N8640 X1.940 Y44.730
N8650 X4.820 Y44.730
N8660 X4.822 Y126.903
N8670 X4.871 Y127.586
N8680 X4.993 Y128.248
N8690 X5.177 Y128.881
N8700 X5.367 Y129.371
N8710 X5.445 Y129.538
N8720 X5.739 Y130.073
N8730 X6.088 Y130.613
N8740 X6.522 Y131.138
N8750 X7.007 Y131.612
N8760 X7.539 Y132.030
N8770 X8.167 Y132.423
N8780 X8.751 Y132.703
N8790 X9.191 Y132.873
N8800 X9.361 Y132.927
N8810 X10.051 Y133.093
N8820 X10.729 Y133.189
N8830 X11.260 Y133.210
N8840 X99.060 Y133.210
N8850 X99.060 Y141.750
N8860 ID=1 WHEN $AC_TIMER[1]>=0 DO M51
N8870 X123.42 Y121.85 F1000
N8880 ID=1 WHEN $AC_TIMER[1]>=0 DO M50
N8890 X120.540 Y121.850 F300
N8900 X120.537 Y34.776
N8910 X120.487 Y34.156
N8920 X120.367 Y33.486
N8930 X120.312 Y33.273
N8940 X120.062 Y32.543
N8950 X119.977 Y32.345
N8960 X119.727 Y31.865
N8970 X119.627 Y31.701
N8980 X119.210 Y31.127
N8990 X118.850 Y30.727
N9000 X118.713 Y30.593
N9010 X118.179 Y30.152
N9020 X117.586 Y29.768
N9030 X117.156 Y29.548
N9040 X116.969 Y29.469
N9050 X116.299 Y29.241
N9060 X116.079 Y29.181
N9070 X115.523 Y29.078
N9080 X114.810 Y29.010
N9090 X21.940 Y29.010
N9100 X21.940 Y20.370
N9110 X120.403 Y20.370
N9120 X120.746 Y20.392
N9130 X121.124 Y20.454
N9140 X121.562 Y20.582
N9150 X121.689 Y20.636
N9160 X122.029 Y20.813
N9170 X122.320 Y21.018
N9180 X122.670 Y21.343
N9190 X122.930 Y21.681
N9200 X123.099 Y21.973
N9210 X123.291 Y22.500
N9220 X123.376 Y22.890
N9230 X123.420 Y23.306
N9240 X123.420 Y121.750
N9250 ID=1 WHEN $AC_TIMER[1]>=0 DO M51
N9260 X96.18 Y138.97 F1000
N9270 ID=1 WHEN $AC_TIMER[1]>=0 DO M50
N9280 X5.433 Y138.964 F300
N9290 X5.216 Y138.905
N9300 X5.040 Y138.791
N9310 X4.966 Y138.708
N9320 X4.862 Y138.521
N9330 X4.831 Y138.362
N9340 X4.820 Y138.168
N9350 X4.820 Y133.502
N9360 X5.227 Y133.876
N9370 X5.759 Y134.294
N9380 X6.009 Y134.470
N9390 X6.638 Y134.864
N9400 X6.923 Y135.021
N9410 X7.713 Y135.390
N9420 X8.491 Y135.673
N9430 X9.377 Y135.893
N9440 X9.649 Y135.945
N9450 X10.327 Y136.041
N9460 X10.613 Y136.066
N9470 X11.260 Y136.090
N9480 X96.180 Y136.090
N9490 X96.180 Y138.870
N9500 ID=1 WHEN $AC_TIMER[1]>=0 DO M51
N9510 X120.54 Y28.3668 F1000
N9520 ID=1 WHEN $AC_TIMER[1]>=0 DO M50
N9530 X120.013 Y27.931 F300
N9540 X119.744 Y27.734
N9550 X119.151 Y27.350
N9560 X118.898 Y27.204
N9570 X118.284 Y26.898
N9580 X117.896 Y26.742
N9590 X117.057 Y26.462
N9600 X116.602 Y26.349
N9610 X115.797 Y26.211
N9620 X115.084 Y26.143
N9630 X114.810 Y26.130
N9640 X24.820 Y26.130
N9650 X24.820 Y23.250
N9660 X120.419 Y23.257
N9670 X120.508 Y23.275
N9680 X120.540 Y23.457
N9690 X120.540 Y28.267
N9700 ID=1 WHEN $AC_TIMER[1]>=0 DO M51

; Inicio do trecho do raster
; Final do trecho do raster


N9710 M63		;POWDER MIXER OFF
N9720 M67		;POWDER FEED OFF
N9730 M65		;CARRIER OFF
N9740 G4F5
N9750 M79     ;GAS 1 OFF

N9760 M0

N9770 M78     ; GAS 1 ON
N9780 M64		;CARRIER ON
N9790 H2 = R3	;SET POWDER FLOW
N9800 M62		;POWDER MIXER ON
N9810 M66		;POWDER FEED ON
N9820 G4F10

; Layer 8
N9830 G1 Z11.520 F1000
N9840 X99.06 Y141.85 F1000
N9850 ID=1 WHEN $AC_TIMER[1]>=0 DO M50
N9860 X5.528 Y141.850 F300
N9870 X5.131 Y141.835
N9880 X4.761 Y141.771
N9890 X4.395 Y141.677
N9900 X4.064 Y141.546
N9910 X3.716 Y141.368
N9920 X3.401 Y141.168
N9930 X3.113 Y140.937
N9940 X2.853 Y140.677
N9950 X2.622 Y140.389
N9960 X2.418 Y140.069
N9970 X2.251 Y139.748
N9980 X2.103 Y139.357
N9990 X2.022 Y139.040
N10000 X1.964 Y138.667
N10010 X1.940 Y138.249
N10020 X1.940 Y44.730
N10030 X4.820 Y44.730
N10040 X4.824 Y126.940
N10050 X4.877 Y127.569
N10060 X4.957 Y128.089
N10070 X5.001 Y128.284
N10080 X5.177 Y128.862
N10090 X5.337 Y129.302
N10100 X5.417 Y129.484
N10110 X5.758 Y130.112
N10120 X6.139 Y130.676
N10130 X6.562 Y131.178
N10140 X7.023 Y131.624
N10150 X7.597 Y132.065
N10160 X8.177 Y132.423
N10170 X8.751 Y132.699
N10180 X9.181 Y132.869
N10190 X9.367 Y132.928
N10200 X10.057 Y133.093
N10210 X10.729 Y133.189
N10220 X11.260 Y133.210
N10230 X99.060 Y133.210
N10240 X99.060 Y141.750
N10250 ID=1 WHEN $AC_TIMER[1]>=0 DO M51
N10260 X124.1 Y121.85 F1000
N10270 ID=1 WHEN $AC_TIMER[1]>=0 DO M50
N10280 X121.220 Y121.850 F300
N10290 X121.217 Y34.211
N10300 X121.159 Y33.486
N10310 X121.049 Y32.846
N10320 X120.926 Y32.395
N10330 X120.778 Y31.978
N10340 X120.647 Y31.665
N10350 X120.327 Y31.065
N10360 X120.103 Y30.736
N10370 X119.643 Y30.176
N10380 X119.467 Y29.997
N10390 X118.887 Y29.505
N10400 X118.516 Y29.250
N10410 X118.234 Y29.082
N10420 X117.658 Y28.805
N10430 X117.053 Y28.592
N10440 X116.605 Y28.478
N10450 X115.937 Y28.376
N10460 X115.470 Y28.340
N10470 X21.940 Y28.340
N10480 X21.940 Y19.700
N10490 X121.082 Y19.700
N10500 X121.418 Y19.722
N10510 X121.799 Y19.784
N10520 X122.282 Y19.942
N10530 X122.517 Y20.038
N10540 X122.999 Y20.347
N10550 X123.340 Y20.662
N10560 X123.567 Y20.958
N10570 X123.778 Y21.329
N10580 X123.843 Y21.469
N10590 X123.967 Y21.828
N10600 X124.079 Y22.435
N10610 X124.100 Y22.828
N10620 X124.100 Y121.750
N10630 ID=1 WHEN $AC_TIMER[1]>=0 DO M51
N10640 X96.18 Y138.97 F1000
N10650 ID=1 WHEN $AC_TIMER[1]>=0 DO M50
N10660 X5.433 Y138.964 F300
N10670 X5.251 Y138.919
N10680 X5.040 Y138.791
N10690 X4.966 Y138.708
N10700 X4.884 Y138.569
N10710 X4.846 Y138.460
N10720 X4.820 Y138.168
N10730 X4.820 Y133.500
N10740 X5.020 Y133.694
N10750 X5.269 Y133.909
N10760 X5.843 Y134.349
N10770 X6.083 Y134.515
N10780 X6.663 Y134.873
N10790 X6.929 Y135.019
N10800 X7.692 Y135.377
N10810 X8.306 Y135.613
N10820 X8.700 Y135.730
N10830 X9.391 Y135.894
N10840 X9.649 Y135.944
N10850 X10.321 Y136.040
N10860 X10.613 Y136.066
N10870 X11.260 Y136.090
N10880 X96.180 Y136.090
N10890 X96.180 Y138.870
N10900 ID=1 WHEN $AC_TIMER[1]>=0 DO M51
N10910 X121.22 Y27.7071 F1000
N10920 ID=1 WHEN $AC_TIMER[1]>=0 DO M50
N10930 X120.748 Y27.307 F300
N10940 X120.523 Y27.135
N10950 X119.986 Y26.773
N10960 X119.481 Y26.486
N10970 X118.905 Y26.209
N10980 X118.616 Y26.089
N10990 X118.011 Y25.876
N11000 X117.316 Y25.687
N11010 X117.039 Y25.631
N11020 X116.156 Y25.504
N11030 X115.470 Y25.460
N11040 X24.820 Y25.460
N11050 X24.820 Y22.580
N11060 X121.117 Y22.591
N11070 X121.183 Y22.613
N11080 X121.213 Y22.774
N11090 X121.220 Y27.607
N11100 ID=1 WHEN $AC_TIMER[1]>=0 DO M51

; Inicio do trecho do raster
; Final do trecho do raster


N11110 M63		;POWDER MIXER OFF
N11120 M67		;POWDER FEED OFF
N11130 M65		;CARRIER OFF
N11140 G4F5
N11150 M79     ;GAS 1 OFF

N11160 M0

N11170 M78     ; GAS 1 ON
N11180 M64		;CARRIER ON
N11190 H2 = R3	;SET POWDER FLOW
N11200 M62		;POWDER MIXER ON
N11210 M66		;POWDER FEED ON
N11220 G4F10

; Layer 9
N11230 G1 Z12.960 F1000
N11240 X99.06 Y141.85 F1000
N11250 ID=1 WHEN $AC_TIMER[1]>=0 DO M50
N11260 X5.528 Y141.850 F300
N11270 X5.131 Y141.835
N11280 X4.761 Y141.771
N11290 X4.395 Y141.677
N11300 X4.064 Y141.546
N11310 X3.716 Y141.368
N11320 X3.401 Y141.168
N11330 X3.113 Y140.937
N11340 X2.853 Y140.677
N11350 X2.622 Y140.389
N11360 X2.418 Y140.069
N11370 X2.244 Y139.735
N11380 X2.114 Y139.400
N11390 X2.022 Y139.040
N11400 X1.964 Y138.667
N11410 X1.940 Y138.249
N11420 X1.940 Y44.730
N11430 X4.820 Y44.730
N11440 X4.824 Y126.950
N11450 X4.877 Y127.581
N11460 X4.984 Y128.199
N11470 X5.180 Y128.882
N11480 X5.412 Y129.474
N11490 X5.757 Y130.121
N11500 X6.088 Y130.613
N11510 X6.534 Y131.150
N11520 X7.074 Y131.665
N11530 X7.609 Y132.073
N11540 X8.164 Y132.412
N11550 X8.700 Y132.679
N11560 X9.180 Y132.869
N11570 X9.367 Y132.928
N11580 X10.033 Y133.089
N11590 X10.493 Y133.169
N11600 X10.685 Y133.189
N11610 X11.260 Y133.210
N11620 X99.060 Y133.210
N11630 X99.060 Y141.750
N11640 ID=1 WHEN $AC_TIMER[1]>=0 DO M51
N11650 X124.77 Y121.85 F1000
N11660 ID=1 WHEN $AC_TIMER[1]>=0 DO M50
N11670 X121.890 Y121.850 F300
N11680 X121.888 Y33.566
N11690 X121.858 Y32.986
N11700 X121.837 Y32.802
N11710 X121.707 Y32.125
N11720 X121.557 Y31.585
N11730 X121.499 Y31.416
N11740 X121.452 Y31.325
N11750 X121.300 Y30.962
N11760 X120.940 Y30.312
N11770 X120.819 Y30.130
N11780 X120.479 Y29.690
N11790 X120.358 Y29.552
N11800 X119.875 Y29.080
N11810 X119.490 Y28.780
N11820 X118.893 Y28.407
N11830 X118.403 Y28.167
N11840 X118.241 Y28.099
N11850 X117.599 Y27.883
N11860 X117.275 Y27.808
N11870 X116.603 Y27.705
N11880 X116.130 Y27.670
N11890 X21.940 Y27.670
N11900 X21.940 Y19.030
N11910 X121.757 Y19.030
N11920 X122.208 Y19.070
N11930 X122.501 Y19.118
N11940 X122.889 Y19.239
N11950 X123.222 Y19.385
N11960 X123.650 Y19.656
N11970 X123.768 Y19.754
N11980 X124.021 Y20.008
N11990 X124.270 Y20.337
N12000 X124.435 Y20.635
N12010 X124.575 Y20.961
N12020 X124.701 Y21.434
N12030 X124.746 Y21.707
N12040 X124.770 Y22.158
N12050 X124.770 Y121.750
N12060 ID=1 WHEN $AC_TIMER[1]>=0 DO M51
N12070 X96.18 Y138.97 F1000
N12080 ID=1 WHEN $AC_TIMER[1]>=0 DO M50
N12090 X5.433 Y138.964 F300
N12100 X5.251 Y138.919
N12110 X5.040 Y138.791
N12120 X4.966 Y138.708
N12130 X4.862 Y138.521
N12140 X4.831 Y138.362
N12150 X4.820 Y138.168
N12160 X4.820 Y133.495
N12170 X5.087 Y133.750
N12180 X5.329 Y133.957
N12190 X5.865 Y134.364
N12200 X6.107 Y134.530
N12210 X6.879 Y134.990
N12220 X7.640 Y135.357
N12230 X8.304 Y135.613
N12240 X8.693 Y135.729
N12250 X9.540 Y135.926
N12260 X10.190 Y136.033
N12270 X10.579 Y136.067
N12280 X11.260 Y136.090
N12290 X96.180 Y136.090
N12300 X96.180 Y138.870
N12310 ID=1 WHEN $AC_TIMER[1]>=0 DO M51
N12320 X121.887 Y27.0191 F1000
N12330 ID=1 WHEN $AC_TIMER[1]>=0 DO M50
N12340 X121.646 Y26.809 F300
N12350 X121.262 Y26.509
N12360 X121.016 Y26.337
N12370 X120.419 Y25.964
N12380 X120.160 Y25.820
N12390 X119.348 Y25.440
N12400 X118.519 Y25.154
N12410 X117.926 Y25.002
N12420 X117.037 Y24.858
N12430 X116.344 Y24.798
N12440 X24.820 Y24.790
N12450 X24.820 Y21.910
N12460 X121.631 Y21.910
N12470 X121.854 Y21.933
N12480 X121.879 Y22.030
N12490 X121.890 Y22.234
N12500 X121.887 Y26.919
N12510 ID=1 WHEN $AC_TIMER[1]>=0 DO M51

; Inicio do trecho do raster
; Final do trecho do raster


N12520 M63		;POWDER MIXER OFF
N12530 M67		;POWDER FEED OFF
N12540 M65		;CARRIER OFF
N12550 G4F5
N12560 M79     ;GAS 1 OFF

N12570 M0

N12580 M78     ; GAS 1 ON
N12590 M64		;CARRIER ON
N12600 H2 = R3	;SET POWDER FLOW
N12610 M62		;POWDER MIXER ON
N12620 M66		;POWDER FEED ON
N12630 G4F10

; Layer 10
N12640 G1 Z14.400 F1000
N12650 X99.06 Y141.85 F1000
N12660 ID=1 WHEN $AC_TIMER[1]>=0 DO M50
N12670 X5.528 Y141.850 F300
N12680 X5.131 Y141.835
N12690 X4.761 Y141.771
N12700 X4.395 Y141.677
N12710 X4.052 Y141.542
N12720 X3.766 Y141.402
N12730 X3.402 Y141.169
N12740 X3.113 Y140.937
N12750 X2.853 Y140.677
N12760 X2.622 Y140.389
N12770 X2.418 Y140.069
N12780 X2.244 Y139.735
N12790 X2.114 Y139.400
N12800 X2.022 Y139.040
N12810 X1.964 Y138.667
N12820 X1.940 Y138.249
N12830 X1.940 Y44.730
N12840 X4.820 Y44.730
N12850 X4.824 Y126.948
N12860 X4.882 Y127.620
N12870 X5.003 Y128.268
N12880 X5.187 Y128.901
N12890 X5.377 Y129.391
N12900 X5.455 Y129.558
N12910 X5.752 Y130.099
N12920 X5.992 Y130.479
N12930 X6.100 Y130.627
N12940 X6.572 Y131.188
N12950 X7.019 Y131.621
N12960 X7.607 Y132.075
N12970 X8.187 Y132.433
N12980 X8.793 Y132.722
N12990 X9.424 Y132.945
N13000 X10.069 Y133.103
N13010 X10.685 Y133.189
N13020 X11.260 Y133.210
N13030 X99.060 Y133.210
N13040 X99.060 Y141.750
N13050 ID=1 WHEN $AC_TIMER[1]>=0 DO M51
N13060 X125.44 Y121.85 F1000
N13070 ID=1 WHEN $AC_TIMER[1]>=0 DO M50
N13080 X122.560 Y121.850 F300
N13090 X122.558 Y32.896
N13100 X122.528 Y32.316
N13110 X122.508 Y32.137
N13120 X122.376 Y31.438
N13130 X122.226 Y30.908
N13140 X121.863 Y30.066
N13150 X121.721 Y29.807
N13160 X121.480 Y29.437
N13170 X121.028 Y28.882
N13180 X120.530 Y28.398
N13190 X120.110 Y28.068
N13200 X119.610 Y27.756
N13210 X119.244 Y27.567
N13220 X118.606 Y27.315
N13230 X117.995 Y27.146
N13240 X117.227 Y27.022
N13250 X116.590 Y26.990
N13260 X21.940 Y26.990
N13270 X21.940 Y18.350
N13280 X122.291 Y18.350
N13290 X122.897 Y18.400
N13300 X123.171 Y18.448
N13310 X123.376 Y18.502
N13320 X123.894 Y18.713
N13330 X124.166 Y18.872
N13340 X124.451 Y19.098
N13350 X124.701 Y19.347
N13360 X124.910 Y19.614
N13370 X125.114 Y19.974
N13380 X125.248 Y20.296
N13390 X125.345 Y20.633
N13400 X125.432 Y21.171
N13410 X125.440 Y21.469
N13420 X125.440 Y121.750
N13430 ID=1 WHEN $AC_TIMER[1]>=0 DO M51
N13440 X96.18 Y138.97 F1000
N13450 ID=1 WHEN $AC_TIMER[1]>=0 DO M50
N13460 X5.433 Y138.964 F300
N13470 X5.284 Y138.932
N13480 X5.178 Y138.887
N13490 X4.999 Y138.750
N13500 X4.862 Y138.521
N13510 X4.831 Y138.362
N13520 X4.820 Y138.168
N13530 X4.820 Y133.501
N13540 X5.016 Y133.691
N13550 X5.260 Y133.902
N13560 X5.848 Y134.355
N13570 X6.093 Y134.525
N13580 X6.673 Y134.883
N13590 X6.951 Y135.035
N13600 X7.557 Y135.323
N13610 X7.831 Y135.436
N13620 X8.462 Y135.660
N13630 X8.741 Y135.743
N13640 X9.385 Y135.901
N13650 X9.670 Y135.955
N13660 X10.286 Y136.041
N13670 X10.579 Y136.067
N13680 X11.260 Y136.090
N13690 X96.180 Y136.090
N13700 X96.180 Y138.870
N13710 ID=1 WHEN $AC_TIMER[1]>=0 DO M51
N13720 X122.56 Y26.3548 F1000
N13730 ID=1 WHEN $AC_TIMER[1]>=0 DO M50
N13740 X122.309 Y26.133 F300
N13750 X121.889 Y25.803
N13760 X121.634 Y25.624
N13770 X120.933 Y25.198
N13780 X120.568 Y25.009
N13790 X120.299 Y24.887
N13800 X119.661 Y24.636
N13810 X119.373 Y24.540
N13820 X118.763 Y24.371
N13830 X118.455 Y24.304
N13840 X117.688 Y24.179
N13850 X117.372 Y24.146
N13860 X116.590 Y24.110
N13870 X24.820 Y24.110
N13880 X24.820 Y21.230
N13890 X122.173 Y21.230
N13900 X122.530 Y21.267
N13910 X122.560 Y21.509
N13920 X122.560 Y26.255
N13930 ID=1 WHEN $AC_TIMER[1]>=0 DO M51

; Inicio do trecho do raster
; Final do trecho do raster


N13940 M63		;POWDER MIXER OFF
N13950 M67		;POWDER FEED OFF
N13960 M65		;CARRIER OFF
N13970 G4F5
N13980 M79     ;GAS 1 OFF

N13990 M0

N14000 M78     ; GAS 1 ON
N14010 M64		;CARRIER ON
N14020 H2 = R3	;SET POWDER FLOW
N14030 M62		;POWDER MIXER ON
N14040 M66		;POWDER FEED ON
N14050 G4F10

; Layer 11
N14060 G1 Z15.840 F1000
N14070 X99.06 Y141.85 F1000
N14080 ID=1 WHEN $AC_TIMER[1]>=0 DO M50
N14090 X5.528 Y141.850 F300
N14100 X5.131 Y141.835
N14110 X4.761 Y141.771
N14120 X4.395 Y141.677
N14130 X4.064 Y141.546
N14140 X3.716 Y141.368
N14150 X3.401 Y141.168
N14160 X3.113 Y140.937
N14170 X2.853 Y140.677
N14180 X2.622 Y140.389
N14190 X2.418 Y140.069
N14200 X2.244 Y139.735
N14210 X2.114 Y139.400
N14220 X2.022 Y139.040
N14230 X1.964 Y138.667
N14240 X1.940 Y138.249
N14250 X1.940 Y44.730
N14260 X4.820 Y44.730
N14270 X4.824 Y126.960
N14280 X4.881 Y127.616
N14290 X5.003 Y128.278
N14300 X5.184 Y128.903
N14310 X5.417 Y129.483
N14320 X5.776 Y130.145
N14330 X6.136 Y130.670
N14340 X6.522 Y131.138
N14350 X7.007 Y131.612
N14360 X7.555 Y132.040
N14370 X8.197 Y132.433
N14380 X8.776 Y132.711
N14390 X9.354 Y132.925
N14400 X9.974 Y133.079
N14410 X10.494 Y133.169
N14420 X10.685 Y133.189
N14430 X11.260 Y133.210
N14440 X99.060 Y133.210
N14450 X99.060 Y141.750
N14460 ID=1 WHEN $AC_TIMER[1]>=0 DO M51
N14470 X126.11 Y121.85 F1000
N14480 ID=1 WHEN $AC_TIMER[1]>=0 DO M50
N14490 X123.230 Y121.850 F300
N14500 X123.229 Y32.251
N14510 X123.206 Y31.720
N14520 X123.100 Y31.013
N14530 X122.970 Y30.473
N14540 X122.911 Y30.284
N14550 X122.679 Y29.700
N14560 X122.495 Y29.319
N14570 X122.255 Y28.919
N14580 X122.141 Y28.756
N14590 X121.681 Y28.186
N14600 X121.530 Y28.026
N14610 X121.190 Y27.716
N14620 X120.785 Y27.402
N14630 X120.223 Y27.057
N14640 X119.576 Y26.751
N14650 X119.060 Y26.576
N14660 X118.639 Y26.472
N14670 X117.897 Y26.352
N14680 X117.260 Y26.320
N14690 X21.940 Y26.320
N14700 X21.940 Y17.680
N14710 X122.982 Y17.680
N14720 X123.418 Y17.703
N14730 X123.926 Y17.799
N14740 X124.249 Y17.902
N14750 X124.685 Y18.110
N14760 X124.876 Y18.231
N14770 X125.128 Y18.426
N14780 X125.365 Y18.670
N14790 X125.580 Y18.944
N14800 X125.784 Y19.304
N14810 X125.928 Y19.649
N14820 X125.981 Y19.815
N14830 X126.091 Y20.401
N14840 X126.110 Y20.638
N14850 X126.110 Y121.750
N14860 ID=1 WHEN $AC_TIMER[1]>=0 DO M51
N14870 X96.18 Y138.97 F1000
N14880 ID=1 WHEN $AC_TIMER[1]>=0 DO M50
N14890 X5.433 Y138.964 F300
N14900 X5.251 Y138.919
N14910 X5.040 Y138.791
N14920 X4.966 Y138.708
N14930 X4.862 Y138.521
N14940 X4.831 Y138.362
N14950 X4.820 Y138.168
N14960 X4.820 Y133.502
N14970 X5.233 Y133.881
N14980 X5.781 Y134.309
N14990 X6.050 Y134.495
N15000 X6.692 Y134.889
N15010 X6.951 Y135.030
N15020 X7.531 Y135.308
N15030 X7.777 Y135.412
N15040 X8.354 Y135.626
N15050 X8.662 Y135.721
N15060 X9.483 Y135.917
N15070 X10.193 Y136.033
N15080 X10.579 Y136.067
N15090 X11.260 Y136.090
N15100 X96.180 Y136.090
N15110 X96.180 Y138.870
N15120 ID=1 WHEN $AC_TIMER[1]>=0 DO M51
N15130 X123.23 Y25.6841 F1000
N15140 ID=1 WHEN $AC_TIMER[1]>=0 DO M50
N15150 X122.954 Y25.439 F300
N15160 X122.549 Y25.125
N15170 X122.293 Y24.948
N15180 X121.731 Y24.603
N15190 X121.453 Y24.453
N15200 X120.806 Y24.147
N15210 X120.502 Y24.024
N15220 X119.751 Y23.780
N15230 X119.097 Y23.628
N15240 X118.355 Y23.509
N15250 X118.042 Y23.476
N15260 X117.260 Y23.440
N15270 X24.820 Y23.440
N15280 X24.820 Y20.560
N15290 X122.906 Y20.560
N15300 X123.074 Y20.569
N15310 X123.197 Y20.592
N15320 X123.230 Y20.771
N15330 X123.230 Y25.584
N15340 ID=1 WHEN $AC_TIMER[1]>=0 DO M51

; Inicio do trecho do raster
; Final do trecho do raster


N15350 M63		;POWDER MIXER OFF
N15360 M67		;POWDER FEED OFF
N15370 M65		;CARRIER OFF
N15380 G4F5
N15390 M79     ;GAS 1 OFF

N15400 M0

N15410 M78     ; GAS 1 ON
N15420 M64		;CARRIER ON
N15430 H2 = R3	;SET POWDER FLOW
N15440 M62		;POWDER MIXER ON
N15450 M66		;POWDER FEED ON
N15460 G4F10

; Layer 12
N15470 G1 Z17.280 F1000
N15480 X99.06 Y141.85 F1000
N15490 ID=1 WHEN $AC_TIMER[1]>=0 DO M50
N15500 X5.528 Y141.850 F300
N15510 X5.131 Y141.835
N15520 X4.761 Y141.771
N15530 X4.395 Y141.677
N15540 X4.064 Y141.546
N15550 X3.716 Y141.368
N15560 X3.401 Y141.168
N15570 X3.113 Y140.937
N15580 X2.853 Y140.677
N15590 X2.622 Y140.389
N15600 X2.418 Y140.069
N15610 X2.238 Y139.724
N15620 X2.122 Y139.433
N15630 X2.022 Y139.040
N15640 X1.964 Y138.667
N15650 X1.940 Y138.249
N15660 X1.940 Y44.730
N15670 X4.820 Y44.730
N15680 X4.824 Y126.970
N15690 X4.881 Y127.626
N15700 X5.011 Y128.314
N15710 X5.188 Y128.895
N15720 X5.338 Y129.305
N15730 X5.421 Y129.491
N15740 X5.767 Y130.125
N15750 X6.088 Y130.613
N15760 X6.522 Y131.138
N15770 X7.016 Y131.619
N15780 X7.496 Y131.999
N15790 X7.649 Y132.105
N15800 X8.183 Y132.421
N15810 X8.700 Y132.679
N15820 X9.180 Y132.869
N15830 X9.361 Y132.927
N15840 X10.079 Y133.101
N15850 X10.685 Y133.189
N15860 X11.260 Y133.210
N15870 X99.060 Y133.210
N15880 X99.060 Y141.750
N15890 ID=1 WHEN $AC_TIMER[1]>=0 DO M51
N15900 X126.78 Y121.85 F1000
N15910 ID=1 WHEN $AC_TIMER[1]>=0 DO M50
N15920 X123.900 Y121.850 F300
N15930 X123.900 Y31.583
N15940 X123.874 Y31.018
N15950 X123.764 Y30.278
N15960 X123.596 Y29.646
N15970 X123.496 Y29.366
N15980 X123.321 Y28.963
N15990 X123.038 Y28.431
N16000 X122.680 Y27.905
N16010 X122.368 Y27.532
N16020 X121.902 Y27.076
N16030 X121.312 Y26.632
N16040 X120.894 Y26.382
N16050 X120.514 Y26.192
N16060 X120.345 Y26.121
N16070 X119.715 Y25.901
N16080 X119.504 Y25.844
N16090 X118.754 Y25.704
N16100 X118.567 Y25.682
N16110 X117.930 Y25.650
N16120 X21.940 Y25.650
N16130 X21.940 Y17.010
N16140 X123.652 Y17.010
N16150 X124.093 Y17.033
N16160 X124.373 Y17.079
N16170 X124.888 Y17.217
N16180 X125.086 Y17.299
N16190 X125.350 Y17.434
N16200 X125.646 Y17.632
N16210 X125.784 Y17.742
N16220 X126.104 Y18.077
N16230 X126.295 Y18.338
N16240 X126.534 Y18.790
N16250 X126.691 Y19.291
N16260 X126.773 Y19.853
N16270 X126.780 Y121.750
N16280 ID=1 WHEN $AC_TIMER[1]>=0 DO M51
N16290 X96.18 Y138.97 F1000
N16300 ID=1 WHEN $AC_TIMER[1]>=0 DO M50
N16310 X5.433 Y138.964 F300
N16320 X5.251 Y138.919
N16330 X5.040 Y138.791
N16340 X4.966 Y138.708
N16350 X4.865 Y138.533
N16360 X4.831 Y138.362
N16370 X4.820 Y138.168
N16380 X4.820 Y133.501
N16390 X5.229 Y133.877
N16400 X5.858 Y134.368
N16410 X6.180 Y134.582
N16420 X6.899 Y134.999
N16430 X7.640 Y135.357
N16440 X8.299 Y135.611
N16450 X8.681 Y135.726
N16460 X9.399 Y135.900
N16470 X9.666 Y135.952
N16480 X10.272 Y136.039
N16490 X10.579 Y136.067
N16500 X11.260 Y136.090
N16510 X96.180 Y136.090
N16520 X96.180 Y138.870
N16530 ID=1 WHEN $AC_TIMER[1]>=0 DO M51
N16540 X123.893 Y24.9973 F1000
N16550 ID=1 WHEN $AC_TIMER[1]>=0 DO M50
N16560 X123.633 Y24.774 F300
N16570 X123.044 Y24.331
N16580 X122.790 Y24.160
N16590 X122.182 Y23.806
N16600 X121.466 Y23.468
N16610 X120.456 Y23.117
N16620 X120.033 Y23.013
N16630 X119.096 Y22.845
N16640 X118.712 Y22.806
N16650 X117.930 Y22.770
N16660 X24.820 Y22.770
N16670 X24.820 Y19.890
N16680 X123.576 Y19.890
N16690 X123.775 Y19.900
N16700 X123.874 Y19.933
N16710 X123.893 Y20.060
N16720 X123.893 Y24.897
N16730 ID=1 WHEN $AC_TIMER[1]>=0 DO M51

; Inicio do trecho do raster
; Final do trecho do raster


N16740 M63		;POWDER MIXER OFF
N16750 M67		;POWDER FEED OFF
N16760 M65		;CARRIER OFF
N16770 G4F5
N16780 M79     ;GAS 1 OFF

N16790 M0

N16800 M78     ; GAS 1 ON
N16810 M64		;CARRIER ON
N16820 H2 = R3	;SET POWDER FLOW
N16830 M62		;POWDER MIXER ON
N16840 M66		;POWDER FEED ON
N16850 G4F10

; Layer 13
N16860 G1 Z18.720 F1000
N16870 X99.06 Y141.85 F1000
N16880 ID=1 WHEN $AC_TIMER[1]>=0 DO M50
N16890 X5.528 Y141.850 F300
N16900 X5.131 Y141.835
N16910 X4.761 Y141.771
N16920 X4.395 Y141.677
N16930 X4.051 Y141.541
N16940 X3.783 Y141.411
N16950 X3.400 Y141.168
N16960 X3.113 Y140.937
N16970 X2.853 Y140.677
N16980 X2.622 Y140.389
N16990 X2.418 Y140.069
N17000 X2.244 Y139.735
N17010 X2.114 Y139.400
N17020 X2.022 Y139.040
N17030 X1.964 Y138.667
N17040 X1.940 Y138.249
N17050 X1.940 Y44.730
N17060 X4.820 Y44.730
N17070 X4.824 Y126.980
N17080 X4.882 Y127.640
N17090 X5.009 Y128.306
N17100 X5.201 Y128.940
N17110 X5.465 Y129.578
N17120 X5.778 Y130.142
N17130 X6.155 Y130.702
N17140 X6.522 Y131.138
N17150 X7.007 Y131.612
N17160 X7.548 Y132.036
N17170 X8.068 Y132.366
N17180 X8.230 Y132.454
N17190 X8.775 Y132.707
N17200 X9.175 Y132.867
N17210 X9.361 Y132.927
N17220 X10.079 Y133.101
N17230 X10.685 Y133.189
N17240 X11.260 Y133.210
N17250 X99.060 Y133.210
N17260 X99.060 Y141.750
N17270 ID=1 WHEN $AC_TIMER[1]>=0 DO M51
N17280 X124.166 Y28.6856 F1000
N17290 ID=1 WHEN $AC_TIMER[1]>=0 DO M50
N17300 X123.968 Y28.233 F300
N17310 X123.871 Y28.042
N17320 X123.493 Y27.430
N17330 X123.198 Y27.043
N17340 X122.838 Y26.653
N17350 X122.699 Y26.522
N17360 X122.192 Y26.108
N17370 X121.839 Y25.871
N17380 X121.244 Y25.551
N17390 X120.764 Y25.351
N17400 X120.586 Y25.290
N17410 X119.961 Y25.129
N17420 X119.220 Y25.009
N17430 X119.027 Y24.990
N17440 X118.600 Y24.980
N17450 X21.940 Y24.980
N17460 X21.940 Y16.340
N17470 X124.323 Y16.340
N17480 X124.790 Y16.364
N17490 X125.018 Y16.400
N17500 X125.538 Y16.541
N17510 X125.944 Y16.720
N17520 X126.216 Y16.885
N17530 X126.458 Y17.077
N17540 X126.788 Y17.421
N17550 X126.929 Y17.612
N17560 X127.053 Y17.810
N17570 X127.216 Y18.156
N17580 X127.362 Y18.611
N17590 X127.415 Y18.909
N17600 X127.450 Y19.313
N17610 X127.450 Y121.850
N17620 X124.570 Y121.850
N17630 X124.570 Y30.914
N17640 X124.544 Y30.335
N17650 X124.400 Y29.444
N17660 X124.266 Y28.966
N17670 X124.200 Y28.780
N17680 ID=1 WHEN $AC_TIMER[1]>=0 DO M51
N17690 X96.18 Y138.97 F1000
N17700 ID=1 WHEN $AC_TIMER[1]>=0 DO M50
N17710 X5.433 Y138.964 F300
N17720 X5.284 Y138.932
N17730 X5.190 Y138.893
N17740 X5.040 Y138.791
N17750 X4.966 Y138.708
N17760 X4.862 Y138.521
N17770 X4.831 Y138.362
N17780 X4.820 Y138.168
N17790 X4.820 Y133.502
N17800 X5.231 Y133.879
N17810 X5.772 Y134.303
N17820 X6.005 Y134.468
N17830 X6.684 Y134.891
N17840 X7.019 Y135.067
N17850 X7.706 Y135.381
N17860 X8.289 Y135.607
N17870 X8.681 Y135.726
N17880 X9.399 Y135.900
N17890 X9.666 Y135.952
N17900 X10.272 Y136.039
N17910 X10.579 Y136.067
N17920 X11.260 Y136.090
N17930 X96.180 Y136.090
N17940 X96.180 Y138.870
N17950 ID=1 WHEN $AC_TIMER[1]>=0 DO M51
N17960 X124.57 Y24.3357 F1000
N17970 ID=1 WHEN $AC_TIMER[1]>=0 DO M50
N17980 X124.013 Y23.877 F300
N17990 X123.443 Y23.479
N18000 X123.204 Y23.335
N18010 X122.609 Y23.015
N18020 X122.352 Y22.892
N18030 X121.696 Y22.626
N18040 X121.306 Y22.501
N18050 X120.680 Y22.340
N18060 X120.422 Y22.286
N18070 X119.489 Y22.141
N18080 X119.098 Y22.111
N18090 X118.600 Y22.100
N18100 X24.820 Y22.100
N18110 X24.820 Y19.220
N18120 X124.248 Y19.220
N18130 X124.451 Y19.230
N18140 X124.544 Y19.256
N18150 X124.570 Y19.439
N18160 X124.570 Y24.236
N18170 ID=1 WHEN $AC_TIMER[1]>=0 DO M51

; Inicio do trecho do raster
; Final do trecho do raster


N18180 M63		;POWDER MIXER OFF
N18190 M67		;POWDER FEED OFF
N18200 M65		;CARRIER OFF
N18210 G4F5
N18220 M79     ;GAS 1 OFF

N18230 M0

N18240 M78     ; GAS 1 ON
N18250 M64		;CARRIER ON
N18260 H2 = R3	;SET POWDER FLOW
N18270 M62		;POWDER MIXER ON
N18280 M66		;POWDER FEED ON
N18290 G4F10

; Layer 14
N18300 G1 Z20.160 F1000
N18310 X99.06 Y141.85 F1000
N18320 ID=1 WHEN $AC_TIMER[1]>=0 DO M50
N18330 X5.528 Y141.850 F300
N18340 X5.131 Y141.835
N18350 X4.761 Y141.771
N18360 X4.395 Y141.677
N18370 X4.064 Y141.546
N18380 X3.716 Y141.368
N18390 X3.401 Y141.168
N18400 X3.113 Y140.937
N18410 X2.853 Y140.677
N18420 X2.622 Y140.389
N18430 X2.418 Y140.069
N18440 X2.244 Y139.735
N18450 X2.114 Y139.400
N18460 X2.022 Y139.040
N18470 X1.964 Y138.667
N18480 X1.940 Y138.249
N18490 X1.940 Y44.730
N18500 X4.820 Y44.730
N18510 X4.823 Y126.861
N18520 X4.881 Y127.642
N18530 X4.985 Y128.203
N18540 X5.192 Y128.916
N18550 X5.413 Y129.476
N18560 X5.715 Y130.043
N18570 X6.088 Y130.613
N18580 X6.522 Y131.138
N18590 X7.007 Y131.612
N18600 X7.559 Y132.042
N18610 X8.217 Y132.443
N18620 X8.803 Y132.724
N18630 X9.366 Y132.928
N18640 X10.083 Y133.100
N18650 X10.503 Y133.170
N18660 X10.685 Y133.189
N18670 X11.260 Y133.210
N18680 X99.060 Y133.210
N18690 X99.060 Y141.750
N18700 ID=1 WHEN $AC_TIMER[1]>=0 DO M51
N18710 X128.13 Y121.85 F1000
N18720 ID=1 WHEN $AC_TIMER[1]>=0 DO M50
N18730 X125.250 Y121.850 F300
N18740 X125.245 Y30.155
N18750 X125.213 Y29.653
N18760 X125.103 Y28.933
N18770 X125.059 Y28.734
N18780 X124.844 Y28.053
N18790 X124.646 Y27.574
N18800 X124.312 Y26.972
N18810 X124.034 Y26.570
N18820 X123.834 Y26.320
N18830 X123.567 Y26.032
N18840 X123.197 Y25.701
N18850 X122.531 Y25.209
N18860 X122.163 Y25.003
N18870 X121.463 Y24.693
N18880 X121.283 Y24.628
N18890 X120.803 Y24.488
N18900 X120.178 Y24.370
N18910 X119.706 Y24.320
N18920 X119.270 Y24.310
N18930 X21.940 Y24.310
N18940 X21.940 Y15.670
N18950 X124.993 Y15.670
N18960 X125.456 Y15.694
N18970 X125.838 Y15.756
N18980 X126.199 Y15.863
N18990 X126.632 Y16.058
N19000 X126.741 Y16.119
N19010 X127.161 Y16.435
N19020 X127.381 Y16.649
N19030 X127.646 Y17.010
N19040 X127.808 Y17.302
N19050 X127.938 Y17.623
N19060 X128.030 Y17.939
N19070 X128.115 Y18.513
N19080 X128.130 Y18.797
N19090 X128.130 Y121.750
N19100 ID=1 WHEN $AC_TIMER[1]>=0 DO M51
N19110 X96.18 Y138.97 F1000
N19120 ID=1 WHEN $AC_TIMER[1]>=0 DO M50
N19130 X5.433 Y138.964 F300
N19140 X5.251 Y138.919
N19150 X5.040 Y138.791
N19160 X4.966 Y138.708
N19170 X4.862 Y138.521
N19180 X4.831 Y138.362
N19190 X4.820 Y138.168
N19200 X4.820 Y133.502
N19210 X5.235 Y133.882
N19220 X5.787 Y134.313
N19230 X6.060 Y134.502
N19240 X6.719 Y134.903
N19250 X6.973 Y135.041
N19260 X7.559 Y135.322
N19270 X7.821 Y135.431
N19280 X8.384 Y135.636
N19290 X8.694 Y135.729
N19300 X9.610 Y135.941
N19310 X10.392 Y136.054
N19320 X11.260 Y136.090
N19330 X96.180 Y136.090
N19340 X96.180 Y138.870
N19350 ID=1 WHEN $AC_TIMER[1]>=0 DO M51
N19360 X125.25 Y23.6729 F1000
N19370 ID=1 WHEN $AC_TIMER[1]>=0 DO M50
N19380 X124.906 Y23.382 F300
N19390 X124.240 Y22.891
N19400 X123.938 Y22.696
N19410 X123.329 Y22.370
N19420 X122.452 Y21.988
N19430 X122.090 Y21.863
N19440 X121.610 Y21.723
N19450 X121.336 Y21.657
N19460 X120.478 Y21.505
N19470 X119.775 Y21.441
N19480 X119.270 Y21.430
N19490 X24.820 Y21.430
N19500 X24.820 Y18.550
N19510 X124.918 Y18.550
N19520 X125.213 Y18.578
N19530 X125.250 Y18.871
N19540 X125.250 Y23.573
N19550 ID=1 WHEN $AC_TIMER[1]>=0 DO M51

; Inicio do trecho do raster
; Final do trecho do raster


N19560 M63		;POWDER MIXER OFF
N19570 M67		;POWDER FEED OFF
N19580 M65		;CARRIER OFF
N19590 G4F5
N19600 M79     ;GAS 1 OFF

N19610 M0

N19620 M78     ; GAS 1 ON
N19630 M64		;CARRIER ON
N19640 H2 = R3	;SET POWDER FLOW
N19650 M62		;POWDER MIXER ON
N19660 M66		;POWDER FEED ON
N19670 G4F10

; Layer 15
N19680 G1 Z21.600 F1000
N19690 X99.06 Y141.85 F1000
N19700 ID=1 WHEN $AC_TIMER[1]>=0 DO M50
N19710 X5.528 Y141.850 F300
N19720 X5.131 Y141.835
N19730 X4.761 Y141.771
N19740 X4.395 Y141.677
N19750 X4.064 Y141.546
N19760 X3.716 Y141.368
N19770 X3.401 Y141.168
N19780 X3.113 Y140.937
N19790 X2.853 Y140.677
N19800 X2.622 Y140.389
N19810 X2.418 Y140.069
N19820 X2.244 Y139.735
N19830 X2.114 Y139.400
N19840 X2.022 Y139.040
N19850 X1.964 Y138.667
N19860 X1.940 Y138.249
N19870 X1.940 Y44.730
N19880 X4.820 Y44.730
N19890 X4.823 Y126.861
N19900 X4.881 Y127.642
N19910 X4.983 Y128.197
N19920 X5.196 Y128.937
N19930 X5.413 Y129.476
N19940 X5.715 Y130.043
N19950 X6.088 Y130.613
N19960 X6.522 Y131.138
N19970 X7.007 Y131.612
N19980 X7.547 Y132.035
N19990 X8.105 Y132.382
N20000 X8.700 Y132.679
N20010 X9.180 Y132.869
N20020 X9.371 Y132.930
N20030 X10.088 Y133.099
N20040 X10.498 Y133.169
N20050 X10.685 Y133.189
N20060 X11.260 Y133.210
N20070 X99.060 Y133.210
N20080 X99.060 Y141.750
N20090 ID=1 WHEN $AC_TIMER[1]>=0 DO M51
N20100 X128.8 Y121.85 F1000
N20110 ID=1 WHEN $AC_TIMER[1]>=0 DO M50
N20120 X125.920 Y121.850 F300
N20130 X125.915 Y29.495
N20140 X125.883 Y28.970
N20150 X125.773 Y28.260
N20160 X125.724 Y28.049
N20170 X125.462 Y27.238
N20180 X125.237 Y26.738
N20190 X124.970 Y26.274
N20200 X124.704 Y25.900
N20210 X124.385 Y25.518
N20220 X123.890 Y25.048
N20230 X123.470 Y24.718
N20240 X123.317 Y24.613
N20250 X122.695 Y24.254
N20260 X122.181 Y24.036
N20270 X121.511 Y23.826
N20280 X121.292 Y23.776
N20290 X120.552 Y23.666
N20300 X119.940 Y23.640
N20310 X21.940 Y23.640
N20320 X21.940 Y15.000
N20330 X125.994 Y15.007
N20340 X126.522 Y15.088
N20350 X126.882 Y15.197
N20360 X127.219 Y15.339
N20370 X127.570 Y15.547
N20380 X127.820 Y15.746
N20390 X128.055 Y15.982
N20400 X128.266 Y16.256
N20410 X128.492 Y16.657
N20420 X128.625 Y16.986
N20430 X128.703 Y17.273
N20440 X128.777 Y17.693
N20450 X128.800 Y18.129
N20460 X128.800 Y121.750
N20470 ID=1 WHEN $AC_TIMER[1]>=0 DO M51
N20480 X96.18 Y138.97 F1000
N20490 ID=1 WHEN $AC_TIMER[1]>=0 DO M50
N20500 X5.433 Y138.964 F300
N20510 X5.251 Y138.919
N20520 X5.040 Y138.791
N20530 X4.966 Y138.708
N20540 X4.862 Y138.521
N20550 X4.831 Y138.362
N20560 X4.820 Y138.168
N20570 X4.820 Y133.502
N20580 X5.230 Y133.878
N20590 X5.770 Y134.302
N20600 X6.025 Y134.480
N20610 X6.583 Y134.827
N20620 X6.821 Y134.960
N20630 X7.640 Y135.357
N20640 X8.309 Y135.614
N20650 X8.707 Y135.732
N20660 X9.603 Y135.938
N20670 X10.386 Y136.053
N20680 X11.260 Y136.090
N20690 X96.180 Y136.090
N20700 X96.180 Y138.870
N20710 ID=1 WHEN $AC_TIMER[1]>=0 DO M51
N20720 X125.92 Y23.0042 F1000
N20730 ID=1 WHEN $AC_TIMER[1]>=0 DO M50
N20740 X125.669 Y22.783 F300
N20750 X125.100 Y22.343
N20760 X124.756 Y22.118
N20770 X124.134 Y21.759
N20780 X123.820 Y21.603
N20790 X123.306 Y21.385
N20800 X123.042 Y21.288
N20810 X122.155 Y21.019
N20820 X121.715 Y20.927
N20830 X120.975 Y20.817
N20840 X120.672 Y20.788
N20850 X119.940 Y20.760
N20860 X24.820 Y20.760
N20870 X24.820 Y17.880
N20880 X125.775 Y17.887
N20890 X125.890 Y17.907
N20900 X125.910 Y18.021
N20910 X125.920 Y18.206
N20920 X125.920 Y22.904
N20930 ID=1 WHEN $AC_TIMER[1]>=0 DO M51

; Inicio do trecho do raster
; Final do trecho do raster


N20940 M63		;POWDER MIXER OFF
N20950 M67		;POWDER FEED OFF
N20960 M65		;CARRIER OFF
N20970 G4F5
N20980 M79     ;GAS 1 OFF

N20990 M0

N21000 M78     ; GAS 1 ON
N21010 M64		;CARRIER ON
N21020 H2 = R3	;SET POWDER FLOW
N21030 M62		;POWDER MIXER ON
N21040 M66		;POWDER FEED ON
N21050 G4F10

; Layer 16
N21060 G1 Z23.040 F1000
N21070 X99.06 Y141.85 F1000
N21080 ID=1 WHEN $AC_TIMER[1]>=0 DO M50
N21090 X5.528 Y141.850 F300
N21100 X5.131 Y141.835
N21110 X4.761 Y141.771
N21120 X4.395 Y141.677
N21130 X4.064 Y141.546
N21140 X3.716 Y141.368
N21150 X3.401 Y141.168
N21160 X3.113 Y140.937
N21170 X2.853 Y140.677
N21180 X2.622 Y140.389
N21190 X2.418 Y140.069
N21200 X2.244 Y139.735
N21210 X2.114 Y139.400
N21220 X2.022 Y139.040
N21230 X1.964 Y138.667
N21240 X1.940 Y138.249
N21250 X1.940 Y44.730
N21260 X4.820 Y44.730
N21270 X4.822 Y126.851
N21280 X4.867 Y127.523
N21290 X4.947 Y128.033
N21300 X4.987 Y128.211
N21310 X5.199 Y128.928
N21320 X5.339 Y129.308
N21330 X5.421 Y129.490
N21340 X5.781 Y130.152
N21350 X6.088 Y130.613
N21360 X6.522 Y131.138
N21370 X7.007 Y131.612
N21380 X7.553 Y132.039
N21390 X8.230 Y132.455
N21400 X8.700 Y132.679
N21410 X9.180 Y132.869
N21420 X9.376 Y132.931
N21430 X10.092 Y133.098
N21440 X10.492 Y133.168
N21450 X10.685 Y133.189
N21460 X11.260 Y133.210
N21470 X99.060 Y133.210
N21480 X99.060 Y141.750
N21490 ID=1 WHEN $AC_TIMER[1]>=0 DO M51
N21500 X123.987 Y23.9429 F1000
N21510 ID=1 WHEN $AC_TIMER[1]>=0 DO M50
N21520 X123.347 Y23.576 F300
N21530 X122.787 Y23.336
N21540 X122.604 Y23.272
N21550 X121.965 Y23.106
N21560 X121.092 Y22.982
N21570 X120.620 Y22.960
N21580 X21.940 Y22.960
N21590 X21.940 Y14.320
N21600 X126.346 Y14.320
N21610 X126.655 Y14.335
N21620 X127.183 Y14.416
N21630 X127.671 Y14.569
N21640 X128.028 Y14.737
N21650 X128.318 Y14.935
N21660 X128.484 Y15.070
N21670 X128.725 Y15.312
N21680 X128.943 Y15.596
N21690 X129.200 Y16.050
N21700 X129.353 Y16.497
N21710 X129.430 Y16.881
N21720 X129.470 Y17.469
N21730 X129.470 Y121.850
N21740 X126.590 Y121.850
N21750 X126.588 Y28.866
N21760 X126.558 Y28.286
N21770 X126.537 Y28.102
N21780 X126.407 Y27.425
N21790 X126.257 Y26.885
N21800 X126.169 Y26.649
N21810 X125.922 Y26.098
N21820 X125.824 Y25.912
N21830 X125.564 Y25.492
N21840 X125.456 Y25.339
N21850 X124.939 Y24.723
N21860 X124.669 Y24.463
N21870 X124.527 Y24.343
N21880 X124.067 Y24.002
N21890 ID=1 WHEN $AC_TIMER[1]>=0 DO M51
N21900 X96.18 Y138.97 F1000
N21910 ID=1 WHEN $AC_TIMER[1]>=0 DO M50
N21920 X5.433 Y138.964 F300
N21930 X5.251 Y138.919
N21940 X5.040 Y138.791
N21950 X4.966 Y138.708
N21960 X4.862 Y138.521
N21970 X4.831 Y138.362
N21980 X4.820 Y138.168
N21990 X4.820 Y133.502
N22000 X5.233 Y133.880
N22010 X5.778 Y134.307
N22020 X6.045 Y134.492
N22030 X6.722 Y134.908
N22040 X6.991 Y135.055
N22050 X7.640 Y135.357
N22060 X8.314 Y135.616
N22070 X8.719 Y135.735
N22080 X9.595 Y135.935
N22090 X10.188 Y136.032
N22100 X10.579 Y136.067
N22110 X11.260 Y136.090
N22120 X96.180 Y136.090
N22130 X96.180 Y138.870
N22140 ID=1 WHEN $AC_TIMER[1]>=0 DO M51
N22150 X126.59 Y22.3302 F1000
N22160 ID=1 WHEN $AC_TIMER[1]>=0 DO M50
N22170 X126.387 Y22.144 F300
N22180 X125.701 Y21.629
N22190 X125.418 Y21.444
N22200 X124.778 Y21.077
N22210 X124.482 Y20.929
N22220 X123.741 Y20.619
N22230 X123.328 Y20.485
N22240 X122.688 Y20.319
N22250 X122.371 Y20.255
N22260 X121.498 Y20.131
N22270 X120.620 Y20.080
N22280 X24.820 Y20.080
N22290 X24.820 Y17.200
N22300 X126.365 Y17.204
N22310 X126.566 Y17.248
N22320 X126.590 Y17.568
N22330 X126.590 Y22.230
N22340 ID=1 WHEN $AC_TIMER[1]>=0 DO M51

; Inicio do trecho do raster
; Final do trecho do raster


N22350 M63		;POWDER MIXER OFF
N22360 M67		;POWDER FEED OFF
N22370 M65		;CARRIER OFF
N22380 G4F5
N22390 M79     ;GAS 1 OFF

N22400 M0

N22410 M78     ; GAS 1 ON
N22420 M64		;CARRIER ON
N22430 H2 = R3	;SET POWDER FLOW
N22440 M62		;POWDER MIXER ON
N22450 M66		;POWDER FEED ON
N22460 G4F10

; Layer 17
N22470 G1 Z24.480 F1000
N22480 X99.06 Y141.85 F1000
N22490 ID=1 WHEN $AC_TIMER[1]>=0 DO M50
N22500 X5.528 Y141.850 F300
N22510 X5.131 Y141.835
N22520 X4.761 Y141.771
N22530 X4.395 Y141.677
N22540 X4.064 Y141.546
N22550 X3.716 Y141.368
N22560 X3.401 Y141.168
N22570 X3.113 Y140.937
N22580 X2.853 Y140.677
N22590 X2.622 Y140.389
N22600 X2.418 Y140.069
N22610 X2.244 Y139.735
N22620 X2.114 Y139.400
N22630 X2.022 Y139.040
N22640 X1.964 Y138.667
N22650 X1.940 Y138.249
N22660 X1.940 Y44.730
N22670 X4.820 Y44.730
N22680 X4.822 Y126.851
N22690 X4.867 Y127.523
N22700 X4.947 Y128.033
N22710 X4.987 Y128.211
N22720 X5.199 Y128.928
N22730 X5.339 Y129.308
N22740 X5.413 Y129.476
N22750 X5.715 Y130.043
N22760 X6.088 Y130.613
N22770 X6.522 Y131.138
N22780 X7.007 Y131.612
N22790 X7.547 Y132.035
N22800 X8.116 Y132.388
N22810 X8.830 Y132.737
N22820 X9.354 Y132.925
N22830 X9.974 Y133.079
N22840 X10.494 Y133.169
N22850 X10.685 Y133.189
N22860 X11.260 Y133.210
N22870 X99.060 Y133.210
N22880 X99.060 Y141.750
N22890 ID=1 WHEN $AC_TIMER[1]>=0 DO M51
N22900 X130.14 Y121.85 F1000
N22910 ID=1 WHEN $AC_TIMER[1]>=0 DO M50
N22920 X127.260 Y121.850 F300
N22930 X127.259 Y28.217
N22940 X127.229 Y27.640
N22950 X127.208 Y27.437
N22960 X127.076 Y26.738
N22970 X126.926 Y26.208
N22980 X126.858 Y26.020
N22990 X126.563 Y25.373
N23000 X126.253 Y24.843
N23010 X126.116 Y24.648
N23020 X125.609 Y24.053
N23030 X125.230 Y23.698
N23040 X124.675 Y23.274
N23050 X124.069 Y22.932
N23060 X123.890 Y22.845
N23070 X123.272 Y22.604
N23080 X122.689 Y22.445
N23090 X121.927 Y22.322
N23100 X121.290 Y22.290
N23110 X21.940 Y22.290
N23120 X21.940 Y13.650
N23130 X127.017 Y13.650
N23140 X127.334 Y13.665
N23150 X127.893 Y13.753
N23160 X128.153 Y13.829
N23170 X128.496 Y13.964
N23180 X128.728 Y14.083
N23190 X128.962 Y14.236
N23200 X129.228 Y14.466
N23210 X129.393 Y14.637
N23220 X129.605 Y14.907
N23230 X129.867 Y15.383
N23240 X130.022 Y15.842
N23250 X130.117 Y16.359
N23260 X130.140 Y16.789
N23270 X130.140 Y121.750
N23280 ID=1 WHEN $AC_TIMER[1]>=0 DO M51
N23290 X96.18 Y138.97 F1000
N23300 ID=1 WHEN $AC_TIMER[1]>=0 DO M50
N23310 X5.433 Y138.964 F300
N23320 X5.251 Y138.919
N23330 X5.040 Y138.791
N23340 X4.966 Y138.708
N23350 X4.862 Y138.521
N23360 X4.831 Y138.362
N23370 X4.820 Y138.168
N23380 X4.820 Y133.502
N23390 X5.230 Y133.878
N23400 X5.770 Y134.302
N23410 X6.029 Y134.482
N23420 X6.598 Y134.835
N23430 X6.852 Y134.976
N23440 X7.567 Y135.325
N23450 X7.855 Y135.447
N23460 X8.379 Y135.635
N23470 X8.662 Y135.721
N23480 X9.483 Y135.917
N23490 X10.193 Y136.033
N23500 X10.579 Y136.067
N23510 X11.260 Y136.090
N23520 X96.180 Y136.090
N23530 X96.180 Y138.870
N23540 ID=1 WHEN $AC_TIMER[1]>=0 DO M51
N23550 X127.26 Y21.6534 F1000
N23560 ID=1 WHEN $AC_TIMER[1]>=0 DO M50
N23570 X126.978 Y21.409 F300
N23580 X126.423 Y20.985
N23590 X126.088 Y20.764
N23600 X125.330 Y20.343
N23610 X124.935 Y20.161
N23620 X124.317 Y19.921
N23630 X124.030 Y19.826
N23640 X123.448 Y19.667
N23650 X123.149 Y19.602
N23660 X122.387 Y19.479
N23670 X122.072 Y19.446
N23680 X121.290 Y19.410
N23690 X24.820 Y19.410
N23700 X24.820 Y16.530
N23710 X127.043 Y16.534
N23720 X127.227 Y16.567
N23730 X127.251 Y16.697
N23740 X127.260 Y16.866
N23750 X127.260 Y21.553
N23760 ID=1 WHEN $AC_TIMER[1]>=0 DO M51

; Inicio do trecho do raster
; Final do trecho do raster


N23770 M63		;POWDER MIXER OFF
N23780 M67		;POWDER FEED OFF
N23790 M65		;CARRIER OFF
N23800 G4F5
N23810 M79     ;GAS 1 OFF

N23820 M0

N23830 M78     ; GAS 1 ON
N23840 M64		;CARRIER ON
N23850 H2 = R3	;SET POWDER FLOW
N23860 M62		;POWDER MIXER ON
N23870 M66		;POWDER FEED ON
N23880 G4F10

; Layer 18
N23890 G1 Z25.920 F1000
N23900 X99.06 Y141.85 F1000
N23910 ID=1 WHEN $AC_TIMER[1]>=0 DO M50
N23920 X5.528 Y141.850 F300
N23930 X5.131 Y141.835
N23940 X4.761 Y141.771
N23950 X4.395 Y141.677
N23960 X4.064 Y141.546
N23970 X3.716 Y141.368
N23980 X3.401 Y141.168
N23990 X3.113 Y140.937
N24000 X2.853 Y140.677
N24010 X2.622 Y140.389
N24020 X2.418 Y140.069
N24030 X2.244 Y139.735
N24040 X2.114 Y139.400
N24050 X2.022 Y139.040
N24060 X1.964 Y138.667
N24070 X1.940 Y138.249
N24080 X1.940 Y44.730
N24090 X4.820 Y44.730
N24100 X4.822 Y126.851
N24110 X4.871 Y127.544
N24120 X4.981 Y128.184
N24130 X5.203 Y128.950
N24140 X5.413 Y129.476
N24150 X5.715 Y130.043
N24160 X6.088 Y130.613
N24170 X6.522 Y131.138
N24180 X7.007 Y131.612
N24190 X7.547 Y132.035
N24200 X8.105 Y132.382
N24210 X8.700 Y132.679
N24220 X9.180 Y132.869
N24230 X9.354 Y132.925
N24240 X9.974 Y133.079
N24250 X10.494 Y133.169
N24260 X10.685 Y133.189
N24270 X11.260 Y133.210
N24280 X99.060 Y133.210
N24290 X99.060 Y141.750
N24300 ID=1 WHEN $AC_TIMER[1]>=0 DO M51
N24310 X130.81 Y121.85 F1000
N24320 ID=1 WHEN $AC_TIMER[1]>=0 DO M50
N24330 X127.930 Y121.850 F300
N24340 X127.929 Y27.539
N24350 X127.919 Y27.259
N24360 X127.882 Y26.792
N24370 X127.792 Y26.232
N24380 X127.749 Y26.044
N24390 X127.589 Y25.514
N24400 X127.297 Y24.819
N24410 X126.927 Y24.179
N24420 X126.788 Y23.980
N24430 X126.308 Y23.412
N24440 X126.015 Y23.130
N24450 X125.495 Y22.710
N24460 X125.294 Y22.574
N24470 X124.833 Y22.308
N24480 X124.213 Y22.028
N24490 X124.012 Y21.954
N24500 X123.339 Y21.772
N24510 X122.597 Y21.652
N24520 X121.960 Y21.620
N24530 X21.940 Y21.620
N24540 X21.940 Y12.980
N24550 X127.682 Y12.980
N24560 X128.125 Y13.003
N24570 X128.527 Y13.075
N24580 X128.877 Y13.174
N24590 X129.422 Y13.428
N24600 X129.512 Y13.484
N24610 X129.904 Y13.803
N24620 X130.063 Y13.967
N24630 X130.275 Y14.237
N24640 X130.542 Y14.722
N24650 X130.723 Y15.263
N24660 X130.786 Y15.666
N24670 X130.810 Y16.109
N24680 X130.810 Y121.750
N24690 ID=1 WHEN $AC_TIMER[1]>=0 DO M51
N24700 X96.18 Y138.97 F1000
N24710 ID=1 WHEN $AC_TIMER[1]>=0 DO M50
N24720 X5.433 Y138.964 F300
N24730 X5.251 Y138.919
N24740 X5.040 Y138.791
N24750 X4.966 Y138.708
N24760 X4.862 Y138.521
N24770 X4.831 Y138.362
N24780 X4.820 Y138.168
N24790 X4.820 Y133.502
N24800 X5.230 Y133.878
N24810 X5.770 Y134.302
N24820 X6.025 Y134.480
N24830 X6.583 Y134.827
N24840 X6.821 Y134.960
N24850 X7.640 Y135.357
N24860 X8.467 Y135.665
N24870 X9.483 Y135.917
N24880 X10.193 Y136.033
N24890 X10.579 Y136.067
N24900 X11.260 Y136.090
N24910 X96.180 Y136.090
N24920 X96.180 Y138.870
N24930 ID=1 WHEN $AC_TIMER[1]>=0 DO M51
N24940 X127.93 Y20.9875 F1000
N24950 ID=1 WHEN $AC_TIMER[1]>=0 DO M50
N24960 X127.824 Y20.889 F300
N24970 X127.109 Y20.325
N24980 X126.733 Y20.079
N24990 X126.272 Y19.813
N25000 X126.018 Y19.683
N25010 X125.200 Y19.322
N25020 X124.767 Y19.175
N25030 X124.093 Y18.992
N25040 X123.797 Y18.928
N25050 X123.055 Y18.809
N25060 X122.742 Y18.776
N25070 X121.960 Y18.740
N25080 X24.820 Y18.740
N25090 X24.820 Y15.860
N25100 X127.606 Y15.860
N25110 X127.874 Y15.884
N25120 X127.898 Y15.895
N25130 X127.918 Y15.966
N25140 X127.930 Y16.188
N25150 X127.930 Y20.888
N25160 ID=1 WHEN $AC_TIMER[1]>=0 DO M51

; Inicio do trecho do raster
; Final do trecho do raster


N25170 M63		;POWDER MIXER OFF
N25180 M67		;POWDER FEED OFF
N25190 M65		;CARRIER OFF
N25200 G4F5
N25210 M79     ;GAS 1 OFF

N25220 M0

N25230 M78     ; GAS 1 ON
N25240 M64		;CARRIER ON
N25250 H2 = R3	;SET POWDER FLOW
N25260 M62		;POWDER MIXER ON
N25270 M66		;POWDER FEED ON
N25280 G4F10

; Layer 19
N25290 G1 Z27.360 F1000
N25300 X99.06 Y141.85 F1000
N25310 ID=1 WHEN $AC_TIMER[1]>=0 DO M50
N25320 X5.528 Y141.850 F300
N25330 X5.131 Y141.835
N25340 X4.761 Y141.771
N25350 X4.395 Y141.677
N25360 X4.064 Y141.546
N25370 X3.716 Y141.368
N25380 X3.401 Y141.168
N25390 X3.113 Y140.937
N25400 X2.853 Y140.677
N25410 X2.622 Y140.389
N25420 X2.418 Y140.069
N25430 X2.244 Y139.735
N25440 X2.114 Y139.400
N25450 X2.022 Y139.040
N25460 X1.964 Y138.667
N25470 X1.940 Y138.249
N25480 X1.940 Y44.730
N25490 X4.820 Y44.730
N25500 X4.822 Y126.845
N25510 X4.867 Y127.523
N25520 X4.984 Y128.200
N25530 X5.208 Y128.972
N25540 X5.413 Y129.476
N25550 X5.715 Y130.043
N25560 X6.088 Y130.613
N25570 X6.522 Y131.138
N25580 X7.007 Y131.612
N25590 X7.557 Y132.041
N25600 X8.251 Y132.465
N25610 X8.700 Y132.679
N25620 X9.180 Y132.869
N25630 X9.366 Y132.928
N25640 X10.135 Y133.112
N25650 X10.685 Y133.189
N25660 X11.260 Y133.210
N25670 X99.060 Y133.210
N25680 X99.060 Y141.750
N25690 ID=1 WHEN $AC_TIMER[1]>=0 DO M51
N25700 X131.48 Y121.85 F1000
N25710 ID=1 WHEN $AC_TIMER[1]>=0 DO M50
N25720 X128.600 Y121.850 F300
N25730 X128.599 Y26.872
N25740 X128.589 Y26.572
N25750 X128.552 Y26.122
N25760 X128.462 Y25.562
N25770 X128.419 Y25.374
N25780 X128.212 Y24.713
N25790 X127.993 Y24.196
N25800 X127.747 Y23.745
N25810 X127.384 Y23.205
N25820 X126.970 Y22.723
N25830 X126.567 Y22.348
N25840 X126.137 Y22.018
N25850 X125.989 Y21.918
N25860 X125.444 Y21.602
N25870 X125.061 Y21.423
N25880 X124.468 Y21.218
N25890 X124.009 Y21.102
N25900 X123.267 Y20.982
N25910 X122.630 Y20.950
N25920 X21.940 Y20.950
N25930 X21.940 Y12.310
N25940 X128.353 Y12.310
N25950 X128.810 Y12.334
N25960 X129.155 Y12.394
N25970 X129.479 Y12.478
N25980 X129.906 Y12.657
N25990 X130.268 Y12.876
N26000 X130.503 Y13.062
N26010 X130.735 Y13.299
N26020 X130.965 Y13.593
N26030 X131.097 Y13.809
N26040 X131.253 Y14.148
N26050 X131.391 Y14.589
N26060 X131.465 Y15.106
N26070 X131.480 Y15.433
N26080 X131.480 Y121.750
N26090 ID=1 WHEN $AC_TIMER[1]>=0 DO M51
N26100 X96.18 Y138.97 F1000
N26110 ID=1 WHEN $AC_TIMER[1]>=0 DO M50
N26120 X5.433 Y138.964 F300
N26130 X5.251 Y138.919
N26140 X5.040 Y138.791
N26150 X4.966 Y138.708
N26160 X4.862 Y138.521
N26170 X4.831 Y138.362
N26180 X4.820 Y138.168
N26190 X4.820 Y133.502
N26200 X5.234 Y133.882
N26210 X5.784 Y134.311
N26220 X6.055 Y134.499
N26230 X6.749 Y134.923
N26240 X7.014 Y135.066
N26250 X7.640 Y135.357
N26260 X8.304 Y135.612
N26270 X8.696 Y135.729
N26280 X9.465 Y135.913
N26290 X9.738 Y135.965
N26300 X10.287 Y136.041
N26310 X10.579 Y136.067
N26320 X11.260 Y136.090
N26330 X96.180 Y136.090
N26340 X96.180 Y138.870
N26350 ID=1 WHEN $AC_TIMER[1]>=0 DO M51
N26360 X128.6 Y20.3058 F1000
N26370 ID=1 WHEN $AC_TIMER[1]>=0 DO M50
N26380 X128.320 Y20.063 F300
N26390 X127.598 Y19.529
N26400 X126.889 Y19.111
N26410 X126.282 Y18.814
N26420 X126.001 Y18.701
N26430 X125.175 Y18.426
N26440 X124.467 Y18.258
N26450 X123.725 Y18.139
N26460 X123.412 Y18.106
N26470 X122.630 Y18.070
N26480 X24.820 Y18.070
N26490 X24.820 Y15.190
N26500 X128.278 Y15.190
N26510 X128.573 Y15.226
N26520 X128.600 Y15.500
N26530 X128.600 Y20.206
N26540 ID=1 WHEN $AC_TIMER[1]>=0 DO M51

; Inicio do trecho do raster
; Final do trecho do raster


N26550 M63		;POWDER MIXER OFF
N26560 M67		;POWDER FEED OFF
N26570 M65		;CARRIER OFF
N26580 G4F5
N26590 M79     ;GAS 1 OFF

N26600 M0

N26610 M78     ; GAS 1 ON
N26620 M64		;CARRIER ON
N26630 H2 = R3	;SET POWDER FLOW
N26640 M62		;POWDER MIXER ON
N26650 M66		;POWDER FEED ON
N26660 G4F10

; Layer 20
N26670 G1 Z28.800 F1000
N26680 X99.06 Y141.85 F1000
N26690 ID=1 WHEN $AC_TIMER[1]>=0 DO M50
N26700 X5.528 Y141.850 F300
N26710 X5.131 Y141.835
N26720 X4.761 Y141.771
N26730 X4.395 Y141.677
N26740 X4.064 Y141.546
N26750 X3.716 Y141.368
N26760 X3.401 Y141.168
N26770 X3.113 Y140.937
N26780 X2.853 Y140.677
N26790 X2.622 Y140.389
N26800 X2.418 Y140.069
N26810 X2.244 Y139.735
N26820 X2.114 Y139.400
N26830 X2.022 Y139.040
N26840 X1.964 Y138.667
N26850 X1.940 Y138.249
N26860 X1.940 Y44.730
N26870 X4.820 Y44.730
N26880 X4.822 Y126.851
N26890 X4.867 Y127.523
N26900 X4.981 Y128.191
N26910 X5.158 Y128.817
N26920 X5.338 Y129.307
N26930 X5.413 Y129.476
N26940 X5.715 Y130.043
N26950 X6.088 Y130.613
N26960 X6.522 Y131.138
N26970 X7.007 Y131.612
N26980 X7.547 Y132.035
N26990 X8.105 Y132.382
N27000 X8.700 Y132.679
N27010 X9.180 Y132.869
N27020 X9.371 Y132.929
N27030 X10.140 Y133.111
N27040 X10.685 Y133.189
N27050 X11.260 Y133.210
N27060 X99.060 Y133.210
N27070 X99.060 Y141.750
N27080 ID=1 WHEN $AC_TIMER[1]>=0 DO M51
N27090 X132.15 Y121.85 F1000
N27100 ID=1 WHEN $AC_TIMER[1]>=0 DO M50
N27110 X129.270 Y121.850 F300
N27120 X129.268 Y26.174
N27130 X129.222 Y25.451
N27140 X129.132 Y24.891
N27150 X129.089 Y24.704
N27160 X128.878 Y24.032
N27170 X128.617 Y23.424
N27180 X128.414 Y23.054
N27190 X128.078 Y22.565
N27200 X127.724 Y22.138
N27210 X127.237 Y21.678
N27220 X126.807 Y21.348
N27230 X126.632 Y21.233
N27240 X125.952 Y20.853
N27250 X125.740 Y20.756
N27260 X125.176 Y20.555
N27270 X124.826 Y20.455
N27280 X124.637 Y20.415
N27290 X123.805 Y20.301
N27300 X123.300 Y20.280
N27310 X21.940 Y20.280
N27320 X21.940 Y11.640
N27330 X129.023 Y11.640
N27340 X129.486 Y11.664
N27350 X129.868 Y11.726
N27360 X130.359 Y11.881
N27370 X130.645 Y12.018
N27380 X130.996 Y12.243
N27390 X131.237 Y12.445
N27400 X131.406 Y12.620
N27410 X131.625 Y12.908
N27420 X131.809 Y13.217
N27430 X131.979 Y13.627
N27440 X132.065 Y13.925
N27450 X132.119 Y14.242
N27460 X132.150 Y14.772
N27470 X132.150 Y121.750
N27480 ID=1 WHEN $AC_TIMER[1]>=0 DO M51
N27490 X96.18 Y138.97 F1000
N27500 ID=1 WHEN $AC_TIMER[1]>=0 DO M50
N27510 X5.433 Y138.964 F300
N27520 X5.251 Y138.919
N27530 X5.040 Y138.791
N27540 X4.966 Y138.708
N27550 X4.862 Y138.521
N27560 X4.831 Y138.362
N27570 X4.820 Y138.168
N27580 X4.820 Y133.502
N27590 X5.230 Y133.878
N27600 X5.770 Y134.302
N27610 X6.025 Y134.480
N27620 X6.583 Y134.827
N27630 X6.821 Y134.960
N27640 X7.640 Y135.357
N27650 X8.309 Y135.614
N27660 X8.707 Y135.732
N27670 X9.476 Y135.914
N27680 X9.734 Y135.963
N27690 X10.279 Y136.040
N27700 X10.579 Y136.067
N27710 X11.260 Y136.090
N27720 X96.180 Y136.090
N27730 X96.180 Y138.870
N27740 ID=1 WHEN $AC_TIMER[1]>=0 DO M51
N27750 X129.27 Y19.6365 F1000
N27760 ID=1 WHEN $AC_TIMER[1]>=0 DO M50
N27770 X128.990 Y19.393 F300
N27780 X128.390 Y18.942
N27790 X128.037 Y18.719
N27800 X127.149 Y18.233
N27810 X126.704 Y18.042
N27820 X125.967 Y17.786
N27830 X125.240 Y17.599
N27840 X124.195 Y17.448
N27850 X123.928 Y17.424
N27860 X123.300 Y17.400
N27870 X24.820 Y17.400
N27880 X24.820 Y14.520
N27890 X128.948 Y14.520
N27900 X129.200 Y14.536
N27910 X129.244 Y14.549
N27920 X129.270 Y14.855
N27930 X129.270 Y19.537
N27940 ID=1 WHEN $AC_TIMER[1]>=0 DO M51

; Inicio do trecho do raster
; Final do trecho do raster


N27950 M63		;POWDER MIXER OFF
N27960 M67		;POWDER FEED OFF
N27970 M65		;CARRIER OFF
N27980 G4F5
N27990 M79     ;GAS 1 OFF

N28000 M0

N28010 M78     ; GAS 1 ON
N28020 M64		;CARRIER ON
N28030 H2 = R3	;SET POWDER FLOW
N28040 M62		;POWDER MIXER ON
N28050 M66		;POWDER FEED ON
N28060 G4F10

; Layer 21
N28070 G1 Z30.240 F1000
N28080 X99.06 Y141.85 F1000
N28090 ID=1 WHEN $AC_TIMER[1]>=0 DO M50
N28100 X5.528 Y141.850 F300
N28110 X5.131 Y141.835
N28120 X4.761 Y141.771
N28130 X4.395 Y141.677
N28140 X4.064 Y141.546
N28150 X3.716 Y141.368
N28160 X3.401 Y141.168
N28170 X3.113 Y140.937
N28180 X2.853 Y140.677
N28190 X2.622 Y140.389
N28200 X2.418 Y140.069
N28210 X2.244 Y139.735
N28220 X2.114 Y139.400
N28230 X2.022 Y139.040
N28240 X1.964 Y138.667
N28250 X1.940 Y138.249
N28260 X1.940 Y44.730
N28270 X4.820 Y44.730
N28280 X4.822 Y126.851
N28290 X4.867 Y127.523
N28300 X4.981 Y128.191
N28310 X5.158 Y128.817
N28320 X5.338 Y129.307
N28330 X5.413 Y129.476
N28340 X5.715 Y130.043
N28350 X6.088 Y130.613
N28360 X6.522 Y131.138
N28370 X7.007 Y131.612
N28380 X7.547 Y132.035
N28390 X8.105 Y132.382
N28400 X8.700 Y132.679
N28410 X9.180 Y132.869
N28420 X9.371 Y132.929
N28430 X10.140 Y133.111
N28440 X10.685 Y133.189
N28450 X11.260 Y133.210
N28460 X99.060 Y133.210
N28470 X99.060 Y141.750
N28480 ID=1 WHEN $AC_TIMER[1]>=0 DO M51
N28490 X132.83 Y121.85 F1000
N28500 ID=1 WHEN $AC_TIMER[1]>=0 DO M50
N28510 X129.950 Y121.850 F300
N28520 X129.946 Y25.479
N28530 X129.892 Y24.782
N28540 X129.767 Y24.063
N28550 X129.592 Y23.474
N28560 X129.342 Y22.864
N28570 X129.256 Y22.689
N28580 X128.939 Y22.163
N28590 X128.539 Y21.633
N28600 X128.394 Y21.468
N28610 X127.958 Y21.049
N28620 X127.660 Y20.806
N28630 X127.270 Y20.536
N28640 X126.857 Y20.294
N28650 X126.410 Y20.086
N28660 X125.846 Y19.885
N28670 X125.496 Y19.785
N28680 X124.735 Y19.652
N28690 X123.970 Y19.610
N28700 X21.940 Y19.610
N28710 X21.940 Y10.970
N28720 X129.949 Y10.977
N28730 X130.161 Y10.995
N28740 X130.538 Y11.056
N28750 X130.918 Y11.169
N28760 X131.184 Y11.279
N28770 X131.486 Y11.447
N28780 X131.865 Y11.739
N28790 X132.084 Y11.952
N28800 X132.295 Y12.236
N28810 X132.490 Y12.557
N28820 X132.672 Y13.002
N28830 X132.729 Y13.225
N28840 X132.815 Y13.757
N28850 X132.830 Y14.092
N28860 X132.830 Y121.750
N28870 ID=1 WHEN $AC_TIMER[1]>=0 DO M51
N28880 X96.18 Y138.97 F1000
N28890 ID=1 WHEN $AC_TIMER[1]>=0 DO M50
N28900 X5.433 Y138.964 F300
N28910 X5.251 Y138.919
N28920 X5.040 Y138.791
N28930 X4.966 Y138.708
N28940 X4.862 Y138.521
N28950 X4.831 Y138.362
N28960 X4.820 Y138.168
N28970 X4.820 Y133.502
N28980 X5.230 Y133.878
N28990 X5.770 Y134.302
N29000 X6.025 Y134.480
N29010 X6.583 Y134.827
N29020 X6.821 Y134.960
N29030 X7.640 Y135.357
N29040 X8.309 Y135.614
N29050 X8.707 Y135.732
N29060 X9.476 Y135.914
N29070 X9.734 Y135.963
N29080 X10.279 Y136.040
N29090 X10.579 Y136.067
N29100 X11.260 Y136.090
N29110 X96.180 Y136.090
N29120 X96.180 Y138.870
N29130 ID=1 WHEN $AC_TIMER[1]>=0 DO M51
N29140 X129.95 Y18.9786 F1000
N29150 ID=1 WHEN $AC_TIMER[1]>=0 DO M50
N29160 X129.776 Y18.815 F300
N29170 X129.299 Y18.438
N29180 X128.728 Y18.053
N29190 X128.316 Y17.810
N29200 X128.071 Y17.682
N29210 X127.374 Y17.372
N29220 X126.637 Y17.116
N29230 X126.287 Y17.016
N29240 X125.991 Y16.948
N29250 X125.230 Y16.815
N29260 X124.894 Y16.777
N29270 X123.970 Y16.730
N29280 X24.820 Y16.730
N29290 X24.820 Y13.850
N29300 X129.819 Y13.857
N29310 X129.917 Y13.876
N29320 X129.950 Y14.156
N29330 X129.950 Y18.879
N29340 ID=1 WHEN $AC_TIMER[1]>=0 DO M51

; Inicio do trecho do raster
; Final do trecho do raster


N29350 M63		;POWDER MIXER OFF
N29360 M67		;POWDER FEED OFF
N29370 M65		;CARRIER OFF
N29380 G4F5
N29390 M79     ;GAS 1 OFF

N29400 M0

N29410 M78     ; GAS 1 ON
N29420 M64		;CARRIER ON
N29430 H2 = R3	;SET POWDER FLOW
N29440 M62		;POWDER MIXER ON
N29450 M66		;POWDER FEED ON
N29460 G4F10

; Layer 22
N29470 G1 Z31.680 F1000
N29480 X99.06 Y141.85 F1000
N29490 ID=1 WHEN $AC_TIMER[1]>=0 DO M50
N29500 X5.528 Y141.850 F300
N29510 X5.131 Y141.835
N29520 X4.761 Y141.771
N29530 X4.395 Y141.677
N29540 X4.064 Y141.546
N29550 X3.716 Y141.368
N29560 X3.401 Y141.168
N29570 X3.113 Y140.937
N29580 X2.853 Y140.677
N29590 X2.622 Y140.389
N29600 X2.418 Y140.069
N29610 X2.244 Y139.735
N29620 X2.114 Y139.400
N29630 X2.022 Y139.040
N29640 X1.964 Y138.667
N29650 X1.940 Y138.249
N29660 X1.940 Y44.730
N29670 X4.820 Y44.730
N29680 X4.822 Y126.851
N29690 X4.867 Y127.523
N29700 X4.947 Y128.033
N29710 X4.986 Y128.208
N29720 X5.215 Y128.984
N29730 X5.413 Y129.476
N29740 X5.715 Y130.043
N29750 X6.088 Y130.613
N29760 X6.522 Y131.138
N29770 X7.007 Y131.612
N29780 X7.417 Y131.942
N29790 X7.561 Y132.044
N29800 X8.141 Y132.403
N29810 X8.300 Y132.489
N29820 X8.852 Y132.740
N29830 X9.354 Y132.925
N29840 X9.974 Y133.079
N29850 X10.494 Y133.169
N29860 X10.685 Y133.189
N29870 X11.260 Y133.210
N29880 X99.060 Y133.210
N29890 X99.060 Y141.750
N29900 ID=1 WHEN $AC_TIMER[1]>=0 DO M51
N29910 X133.5 Y121.85 F1000
N29920 ID=1 WHEN $AC_TIMER[1]>=0 DO M50
N29930 X130.620 Y121.850 F300
N29940 X130.618 Y24.836
N29950 X130.588 Y24.256
N29960 X130.567 Y24.072
N29970 X130.437 Y23.395
N29980 X130.287 Y22.855
N29990 X130.022 Y22.218
N30000 X129.922 Y22.011
N30010 X129.597 Y21.464
N30020 X129.391 Y21.180
N30030 X129.008 Y20.742
N30040 X128.718 Y20.452
N30050 X128.573 Y20.325
N30060 X128.062 Y19.941
N30070 X127.784 Y19.767
N30080 X127.274 Y19.497
N30090 X127.090 Y19.416
N30100 X126.526 Y19.215
N30110 X126.176 Y19.115
N30120 X125.990 Y19.075
N30130 X125.163 Y18.961
N30140 X124.640 Y18.940
N30150 X21.940 Y18.940
N30160 X21.940 Y10.300
N30170 X130.636 Y10.307
N30180 X130.829 Y10.324
N30190 X131.216 Y10.386
N30200 X131.582 Y10.497
N30210 X131.945 Y10.649
N30220 X132.041 Y10.702
N30230 X132.344 Y10.906
N30240 X132.505 Y11.032
N30250 X132.755 Y11.282
N30260 X133.032 Y11.657
N30270 X133.143 Y11.852
N30280 X133.348 Y12.351
N30290 X133.399 Y12.552
N30300 X133.485 Y13.078
N30310 X133.500 Y13.421
N30320 X133.500 Y121.750
N30330 ID=1 WHEN $AC_TIMER[1]>=0 DO M51
N30340 X96.18 Y138.97 F1000
N30350 ID=1 WHEN $AC_TIMER[1]>=0 DO M50
N30360 X5.433 Y138.964 F300
N30370 X5.251 Y138.919
N30380 X5.040 Y138.791
N30390 X4.966 Y138.708
N30400 X4.862 Y138.521
N30410 X4.831 Y138.362
N30420 X4.820 Y138.168
N30430 X4.820 Y133.502
N30440 X5.201 Y133.855
N30450 X5.895 Y134.393
N30460 X6.779 Y134.941
N30470 X7.109 Y135.111
N30480 X7.854 Y135.441
N30490 X8.356 Y135.627
N30500 X8.662 Y135.721
N30510 X9.483 Y135.917
N30520 X10.193 Y136.033
N30530 X10.579 Y136.067
N30540 X11.260 Y136.090
N30550 X96.180 Y136.090
N30560 X96.180 Y138.870
N30570 ID=1 WHEN $AC_TIMER[1]>=0 DO M51
N30580 X130.613 Y18.2833 F1000
N30590 ID=1 WHEN $AC_TIMER[1]>=0 DO M50
N30600 X130.303 Y18.022 F300
N30610 X129.586 Y17.497
N30620 X129.131 Y17.222
N30630 X128.440 Y16.864
N30640 X128.054 Y16.702
N30650 X127.317 Y16.446
N30660 X126.596 Y16.260
N30670 X125.556 Y16.108
N30680 X125.280 Y16.084
N30690 X124.640 Y16.060
N30700 X24.820 Y16.060
N30710 X24.820 Y13.180
N30720 X130.493 Y13.187
N30730 X130.589 Y13.213
N30740 X130.615 Y13.375
N30750 X130.614 Y18.183
N30760 ID=1 WHEN $AC_TIMER[1]>=0 DO M51

; Inicio do trecho do raster
; Final do trecho do raster


N30770 M63		;POWDER MIXER OFF
N30780 M67		;POWDER FEED OFF
N30790 M65		;CARRIER OFF
N30800 G4F5
N30810 M79     ;GAS 1 OFF

N30820 M0

N30830 M78     ; GAS 1 ON
N30840 M64		;CARRIER ON
N30850 H2 = R3	;SET POWDER FLOW
N30860 M62		;POWDER MIXER ON
N30870 M66		;POWDER FEED ON
N30880 G4F10

; Layer 23
N30890 G1 Z33.120 F1000
N30900 X99.06 Y141.85 F1000
N30910 ID=1 WHEN $AC_TIMER[1]>=0 DO M50
N30920 X5.528 Y141.850 F300
N30930 X5.131 Y141.835
N30940 X4.761 Y141.771
N30950 X4.395 Y141.677
N30960 X4.064 Y141.546
N30970 X3.716 Y141.368
N30980 X3.401 Y141.168
N30990 X3.113 Y140.937
N31000 X2.853 Y140.677
N31010 X2.622 Y140.389
N31020 X2.418 Y140.069
N31030 X2.244 Y139.735
N31040 X2.114 Y139.400
N31050 X2.022 Y139.040
N31060 X1.964 Y138.667
N31070 X1.940 Y138.249
N31080 X1.940 Y44.730
N31090 X4.820 Y44.730
N31100 X4.822 Y126.845
N31110 X4.867 Y127.523
N31120 X4.981 Y128.191
N31130 X5.158 Y128.817
N31140 X5.338 Y129.307
N31150 X5.423 Y129.495
N31160 X5.815 Y130.209
N31170 X6.088 Y130.613
N31180 X6.522 Y131.138
N31190 X7.007 Y131.612
N31200 X7.547 Y132.035
N31210 X8.105 Y132.382
N31220 X8.700 Y132.679
N31230 X9.180 Y132.869
N31240 X9.354 Y132.925
N31250 X9.974 Y133.079
N31260 X10.494 Y133.169
N31270 X10.685 Y133.189
N31280 X11.260 Y133.210
N31290 X99.060 Y133.210
N31300 X99.060 Y141.750
N31310 ID=1 WHEN $AC_TIMER[1]>=0 DO M51
N31320 X134.17 Y121.85 F1000
N31330 ID=1 WHEN $AC_TIMER[1]>=0 DO M50
N31340 X131.290 Y121.850 F300
N31350 X131.288 Y24.166
N31360 X131.258 Y23.586
N31370 X131.237 Y23.402
N31380 X131.107 Y22.725
N31390 X130.957 Y22.185
N31400 X130.888 Y21.990
N31410 X130.614 Y21.380
N31420 X130.445 Y21.077
N31430 X130.137 Y20.611
N31440 X129.671 Y20.055
N31450 X129.243 Y19.655
N31460 X128.687 Y19.243
N31470 X128.099 Y18.900
N31480 X127.799 Y18.761
N31490 X127.269 Y18.561
N31500 X126.695 Y18.411
N31510 X125.948 Y18.292
N31520 X125.320 Y18.260
N31530 X21.940 Y18.260
N31540 X21.940 Y9.620
N31550 X131.041 Y9.620
N31560 X131.308 Y9.634
N31570 X131.897 Y9.720
N31580 X132.252 Y9.827
N31590 X132.581 Y9.965
N31600 X133.018 Y10.233
N31610 X133.239 Y10.417
N31620 X133.431 Y10.615
N31630 X133.527 Y10.734
N31640 X133.724 Y11.020
N31650 X133.886 Y11.328
N31660 X134.014 Y11.664
N31670 X134.069 Y11.882
N31680 X134.155 Y12.408
N31690 X134.170 Y12.751
N31700 X134.170 Y121.750
N31710 ID=1 WHEN $AC_TIMER[1]>=0 DO M51
N31720 X96.18 Y138.97 F1000
N31730 ID=1 WHEN $AC_TIMER[1]>=0 DO M50
N31740 X5.433 Y138.964 F300
N31750 X5.251 Y138.919
N31760 X5.040 Y138.791
N31770 X4.966 Y138.708
N31780 X4.862 Y138.521
N31790 X4.831 Y138.362
N31800 X4.820 Y138.168
N31810 X4.820 Y133.502
N31820 X5.230 Y133.878
N31830 X5.770 Y134.302
N31840 X6.025 Y134.480
N31850 X6.583 Y134.827
N31860 X6.821 Y134.960
N31870 X7.640 Y135.357
N31880 X8.467 Y135.665
N31890 X9.483 Y135.917
N31900 X10.193 Y136.033
N31910 X10.579 Y136.067
N31920 X11.260 Y136.090
N31930 X96.180 Y136.090
N31940 X96.180 Y138.870
N31950 ID=1 WHEN $AC_TIMER[1]>=0 DO M51
N31960 X131.29 Y17.626 F1000
N31970 ID=1 WHEN $AC_TIMER[1]>=0 DO M50
N31980 X130.957 Y17.340 F300
N31990 X130.401 Y16.929
N32000 X130.138 Y16.755
N32010 X129.550 Y16.412
N32020 X129.010 Y16.148
N32030 X128.285 Y15.866
N32040 X127.996 Y15.774
N32050 X127.422 Y15.624
N32060 X127.147 Y15.567
N32070 X126.401 Y15.448
N32080 X126.096 Y15.416
N32090 X125.320 Y15.380
N32100 X24.820 Y15.380
N32110 X24.820 Y12.500
N32120 X131.023 Y12.503
N32130 X131.258 Y12.537
N32140 X131.290 Y12.814
N32150 X131.290 Y17.526
N32160 ID=1 WHEN $AC_TIMER[1]>=0 DO M51

; Inicio do trecho do raster
; Final do trecho do raster


N32170 M63		;POWDER MIXER OFF
N32180 M67		;POWDER FEED OFF
N32190 M65		;CARRIER OFF
N32200 G4F5
N32210 M79     ;GAS 1 OFF

N32220 M0

N32230 M78     ; GAS 1 ON
N32240 M64		;CARRIER ON
N32250 H2 = R3	;SET POWDER FLOW
N32260 M62		;POWDER MIXER ON
N32270 M66		;POWDER FEED ON
N32280 G4F10

; Layer 24
N32290 G1 Z34.560 F1000
N32300 X99.06 Y141.85 F1000
N32310 ID=1 WHEN $AC_TIMER[1]>=0 DO M50
N32320 X5.528 Y141.850 F300
N32330 X5.131 Y141.835
N32340 X4.761 Y141.771
N32350 X4.395 Y141.677
N32360 X4.064 Y141.546
N32370 X3.716 Y141.368
N32380 X3.401 Y141.168
N32390 X3.113 Y140.937
N32400 X2.853 Y140.677
N32410 X2.622 Y140.389
N32420 X2.418 Y140.069
N32430 X2.244 Y139.735
N32440 X2.114 Y139.400
N32450 X2.022 Y139.040
N32460 X1.964 Y138.667
N32470 X1.940 Y138.249
N32480 X1.940 Y44.730
N32490 X4.820 Y44.730
N32500 X4.824 Y126.873
N32510 X4.892 Y127.720
N32520 X4.981 Y128.191
N32530 X5.158 Y128.817
N32540 X5.338 Y129.307
N32550 X5.413 Y129.476
N32560 X5.715 Y130.043
N32570 X6.088 Y130.613
N32580 X6.522 Y131.138
N32590 X7.007 Y131.612
N32600 X7.547 Y132.035
N32610 X8.105 Y132.382
N32620 X8.700 Y132.679
N32630 X9.180 Y132.869
N32640 X9.354 Y132.925
N32650 X9.974 Y133.079
N32660 X10.494 Y133.169
N32670 X10.685 Y133.189
N32680 X11.260 Y133.210
N32690 X99.060 Y133.210
N32700 X99.060 Y141.750
N32710 ID=1 WHEN $AC_TIMER[1]>=0 DO M51
N32720 X134.84 Y121.85 F1000
N32730 ID=1 WHEN $AC_TIMER[1]>=0 DO M50
N32740 X131.960 Y121.850 F300
N32750 X131.958 Y23.496
N32760 X131.928 Y22.916
N32770 X131.908 Y22.737
N32780 X131.787 Y22.081
N32790 X131.691 Y21.711
N32800 X131.556 Y21.315
N32810 X131.386 Y20.910
N32820 X131.309 Y20.753
N32830 X130.999 Y20.213
N32840 X130.874 Y20.030
N32850 X130.474 Y19.530
N32860 X130.351 Y19.395
N32870 X129.930 Y18.998
N32880 X129.510 Y18.668
N32890 X129.308 Y18.535
N32900 X128.628 Y18.165
N32910 X128.439 Y18.079
N32920 X127.865 Y17.873
N32930 X127.365 Y17.741
N32940 X126.618 Y17.622
N32950 X125.990 Y17.590
N32960 X21.940 Y17.590
N32970 X21.940 Y8.950
N32980 X131.712 Y8.950
N32990 X132.155 Y8.973
N33000 X132.557 Y9.045
N33010 X132.922 Y9.148
N33020 X133.259 Y9.297
N33030 X133.575 Y9.478
N33040 X133.867 Y9.705
N33050 X134.095 Y9.939
N33060 X134.308 Y10.211
N33070 X134.485 Y10.511
N33080 X134.679 Y10.965
N33090 X134.739 Y11.202
N33100 X134.825 Y11.728
N33110 X134.840 Y12.080
N33120 X134.840 Y121.750
N33130 ID=1 WHEN $AC_TIMER[1]>=0 DO M51
N33140 X96.18 Y138.97 F1000
N33150 ID=1 WHEN $AC_TIMER[1]>=0 DO M50
N33160 X5.433 Y138.964 F300
N33170 X5.251 Y138.919
N33180 X5.040 Y138.791
N33190 X4.966 Y138.708
N33200 X4.862 Y138.521
N33210 X4.831 Y138.362
N33220 X4.820 Y138.168
N33230 X4.820 Y133.502
N33240 X5.230 Y133.878
N33250 X5.770 Y134.302
N33260 X6.025 Y134.480
N33270 X6.583 Y134.827
N33280 X6.821 Y134.960
N33290 X7.640 Y135.357
N33300 X8.467 Y135.665
N33310 X9.483 Y135.917
N33320 X10.193 Y136.033
N33330 X10.579 Y136.067
N33340 X11.260 Y136.090
N33350 X96.180 Y136.090
N33360 X96.180 Y138.870
N33370 ID=1 WHEN $AC_TIMER[1]>=0 DO M51
N33380 X131.96 Y16.9632 F1000
N33390 ID=1 WHEN $AC_TIMER[1]>=0 DO M50
N33400 X131.709 Y16.733 F300
N33410 X131.093 Y16.262
N33420 X130.685 Y16.005
N33430 X129.819 Y15.543
N33440 X129.416 Y15.370
N33450 X128.842 Y15.163
N33460 X128.097 Y14.956
N33470 X127.817 Y14.897
N33480 X127.071 Y14.778
N33490 X126.766 Y14.746
N33500 X125.990 Y14.710
N33510 X24.820 Y14.710
N33520 X24.820 Y11.830
N33530 X131.636 Y11.830
N33540 X131.928 Y11.860
N33550 X131.955 Y12.023
N33560 X131.960 Y16.863
N33570 ID=1 WHEN $AC_TIMER[1]>=0 DO M51

; Inicio do trecho do raster
; Final do trecho do raster


N33580 M63		;POWDER MIXER OFF
N33590 M67		;POWDER FEED OFF
N33600 M65		;CARRIER OFF
N33610 G4F5
N33620 M79     ;GAS 1 OFF

N33630 M0

N33640 M78     ; GAS 1 ON
N33650 M64		;CARRIER ON
N33660 H2 = R3	;SET POWDER FLOW
N33670 M62		;POWDER MIXER ON
N33680 M66		;POWDER FEED ON
N33690 G4F10

; Layer 25
N33700 G1 Z36.000 F1000
N33710 X99.06 Y141.85 F1000
N33720 ID=1 WHEN $AC_TIMER[1]>=0 DO M50
N33730 X5.528 Y141.850 F300
N33740 X5.131 Y141.835
N33750 X4.761 Y141.771
N33760 X4.395 Y141.677
N33770 X4.064 Y141.546
N33780 X3.716 Y141.368
N33790 X3.401 Y141.168
N33800 X3.113 Y140.937
N33810 X2.853 Y140.677
N33820 X2.622 Y140.389
N33830 X2.418 Y140.069
N33840 X2.244 Y139.735
N33850 X2.114 Y139.400
N33860 X2.022 Y139.040
N33870 X1.964 Y138.667
N33880 X1.940 Y138.249
N33890 X1.940 Y44.730
N33900 X4.820 Y44.730
N33910 X4.822 Y126.851
N33920 X4.867 Y127.523
N33930 X4.981 Y128.191
N33940 X5.158 Y128.817
N33950 X5.338 Y129.307
N33960 X5.413 Y129.476
N33970 X5.715 Y130.043
N33980 X6.088 Y130.613
N33990 X6.522 Y131.138
N34000 X7.007 Y131.612
N34010 X7.417 Y131.942
N34020 X7.564 Y132.046
N34030 X8.164 Y132.416
N34040 X8.320 Y132.499
N34050 X8.880 Y132.753
N34060 X9.354 Y132.925
N34070 X9.974 Y133.079
N34080 X10.494 Y133.169
N34090 X10.685 Y133.189
N34100 X11.260 Y133.210
N34110 X99.060 Y133.210
N34120 X99.060 Y141.750
N34130 ID=1 WHEN $AC_TIMER[1]>=0 DO M51
N34140 X135.51 Y121.85 F1000
N34150 ID=1 WHEN $AC_TIMER[1]>=0 DO M50
N34160 X132.630 Y121.850 F300
N34170 X132.628 Y22.814
N34180 X132.582 Y22.092
N34190 X132.492 Y21.532
N34200 X132.449 Y21.344
N34210 X132.251 Y20.705
N34220 X132.113 Y20.367
N34230 X131.873 Y19.877
N34240 X131.778 Y19.711
N34250 X131.426 Y19.198
N34260 X131.021 Y18.725
N34270 X130.600 Y18.328
N34280 X130.059 Y17.913
N34290 X129.765 Y17.733
N34300 X129.285 Y17.483
N34310 X129.110 Y17.406
N34320 X128.535 Y17.203
N34330 X128.030 Y17.070
N34340 X127.380 Y16.960
N34350 X127.200 Y16.941
N34360 X126.660 Y16.920
N34370 X21.940 Y16.920
N34380 X21.940 Y8.280
N34390 X132.384 Y8.280
N34400 X132.818 Y8.302
N34410 X133.227 Y8.375
N34420 X133.583 Y8.476
N34430 X134.063 Y8.694
N34440 X134.221 Y8.791
N34450 X134.579 Y9.077
N34460 X134.764 Y9.268
N34470 X135.047 Y9.643
N34480 X135.241 Y10.023
N34490 X135.312 Y10.195
N34500 X135.422 Y10.558
N34510 X135.495 Y11.039
N34520 X135.510 Y11.400
N34530 X135.510 Y121.750
N34540 ID=1 WHEN $AC_TIMER[1]>=0 DO M51
N34550 X96.18 Y138.97 F1000
N34560 ID=1 WHEN $AC_TIMER[1]>=0 DO M50
N34570 X5.433 Y138.964 F300
N34580 X5.251 Y138.919
N34590 X5.040 Y138.791
N34600 X4.966 Y138.708
N34610 X4.862 Y138.521
N34620 X4.831 Y138.362
N34630 X4.820 Y138.168
N34640 X4.820 Y133.502
N34650 X5.201 Y133.855
N34660 X5.902 Y134.398
N34670 X6.806 Y134.955
N34680 X7.131 Y135.122
N34690 X7.896 Y135.459
N34700 X8.370 Y135.632
N34710 X8.662 Y135.721
N34720 X9.483 Y135.917
N34730 X10.193 Y136.033
N34740 X10.579 Y136.067
N34750 X11.260 Y136.090
N34760 X96.180 Y136.090
N34770 X96.180 Y138.870
N34780 ID=1 WHEN $AC_TIMER[1]>=0 DO M51
N34790 X132.63 Y16.2837 F1000
N34800 ID=1 WHEN $AC_TIMER[1]>=0 DO M50
N34810 X132.354 Y16.043 F300
N34820 X131.813 Y15.628
N34830 X131.562 Y15.456
N34840 X131.096 Y15.179
N34850 X130.443 Y14.846
N34860 X130.071 Y14.691
N34870 X129.265 Y14.417
N34880 X128.511 Y14.231
N34890 X127.681 Y14.096
N34900 X127.313 Y14.063
N34910 X126.660 Y14.040
N34920 X24.820 Y14.040
N34930 X24.820 Y11.160
N34940 X132.311 Y11.160
N34950 X132.605 Y11.195
N34960 X132.630 Y11.462
N34970 X132.630 Y16.184
N34980 ID=1 WHEN $AC_TIMER[1]>=0 DO M51

; Inicio do trecho do raster
; Final do trecho do raster


N34990 M63		;POWDER MIXER OFF
N35000 M67		;POWDER FEED OFF
N35010 M65		;CARRIER OFF
N35020 G4F5
N35030 M79     ;GAS 1 OFF

N35040 M0

N35050 M78     ; GAS 1 ON
N35060 M64		;CARRIER ON
N35070 H2 = R3	;SET POWDER FLOW
N35080 M62		;POWDER MIXER ON
N35090 M66		;POWDER FEED ON
N35100 G4F10

; Layer 26
N35110 G1 Z37.440 F1000
N35120 X99.06 Y141.85 F1000
N35130 ID=1 WHEN $AC_TIMER[1]>=0 DO M50
N35140 X5.528 Y141.850 F300
N35150 X5.131 Y141.835
N35160 X4.761 Y141.771
N35170 X4.395 Y141.677
N35180 X4.064 Y141.546
N35190 X3.716 Y141.368
N35200 X3.401 Y141.168
N35210 X3.113 Y140.937
N35220 X2.853 Y140.677
N35230 X2.622 Y140.389
N35240 X2.418 Y140.069
N35250 X2.244 Y139.735
N35260 X2.114 Y139.400
N35270 X2.022 Y139.040
N35280 X1.964 Y138.667
N35290 X1.940 Y138.249
N35300 X1.940 Y44.730
N35310 X4.820 Y44.730
N35320 X4.822 Y126.851
N35330 X4.867 Y127.523
N35340 X4.947 Y128.033
N35350 X4.987 Y128.211
N35360 X5.227 Y129.020
N35370 X5.413 Y129.476
N35380 X5.715 Y130.043
N35390 X6.088 Y130.613
N35400 X6.522 Y131.138
N35410 X7.007 Y131.612
N35420 X7.547 Y132.035
N35430 X8.105 Y132.382
N35440 X8.700 Y132.679
N35450 X9.180 Y132.869
N35460 X9.354 Y132.925
N35470 X9.974 Y133.079
N35480 X10.494 Y133.169
N35490 X10.685 Y133.189
N35500 X11.260 Y133.210
N35510 X99.060 Y133.210
N35520 X99.060 Y141.750
N35530 ID=1 WHEN $AC_TIMER[1]>=0 DO M51
N35540 X136.18 Y121.85 F1000
N35550 ID=1 WHEN $AC_TIMER[1]>=0 DO M50
N35560 X133.300 Y121.850 F300
N35570 X133.298 Y22.144
N35580 X133.252 Y21.422
N35590 X133.162 Y20.862
N35600 X133.119 Y20.674
N35610 X132.928 Y20.054
N35620 X132.778 Y19.676
N35630 X132.538 Y19.196
N35640 X132.111 Y18.547
N35650 X131.701 Y18.055
N35660 X131.267 Y17.648
N35670 X130.837 Y17.318
N35680 X130.689 Y17.218
N35690 X130.229 Y16.948
N35700 X130.070 Y16.868
N35710 X129.560 Y16.648
N35720 X129.382 Y16.584
N35730 X128.704 Y16.401
N35740 X128.064 Y16.291
N35750 X127.879 Y16.271
N35760 X127.330 Y16.250
N35770 X21.940 Y16.250
N35780 X21.940 Y7.610
N35790 X133.053 Y7.610
N35800 X133.516 Y7.634
N35810 X133.855 Y7.689
N35820 X134.215 Y7.787
N35830 X134.608 Y7.957
N35840 X134.909 Y8.134
N35850 X135.246 Y8.397
N35860 X135.426 Y8.589
N35870 X135.678 Y8.909
N35880 X135.823 Y9.148
N35890 X136.033 Y9.662
N35900 X136.089 Y9.868
N35910 X136.165 Y10.360
N35920 X136.180 Y10.730
N35930 X136.180 Y121.750
N35940 ID=1 WHEN $AC_TIMER[1]>=0 DO M51
N35950 X96.18 Y138.97 F1000
N35960 ID=1 WHEN $AC_TIMER[1]>=0 DO M50
N35970 X5.433 Y138.964 F300
N35980 X5.251 Y138.919
N35990 X5.040 Y138.791
N36000 X4.966 Y138.708
N36010 X4.862 Y138.521
N36020 X4.831 Y138.362
N36030 X4.820 Y138.168
N36040 X4.820 Y133.502
N36050 X5.230 Y133.878
N36060 X5.770 Y134.302
N36070 X6.025 Y134.480
N36080 X6.583 Y134.827
N36090 X6.821 Y134.960
N36100 X7.640 Y135.357
N36110 X8.467 Y135.665
N36120 X9.483 Y135.917
N36130 X10.193 Y136.033
N36140 X10.579 Y136.067
N36150 X11.260 Y136.090
N36160 X96.180 Y136.090
N36170 X96.180 Y138.870
N36180 ID=1 WHEN $AC_TIMER[1]>=0 DO M51
N36190 X133.3 Y15.6061 F1000
N36200 ID=1 WHEN $AC_TIMER[1]>=0 DO M50
N36210 X133.020 Y15.363 F300
N36220 X132.298 Y14.829
N36230 X131.531 Y14.379
N36240 X131.211 Y14.223
N36250 X130.525 Y13.934
N36260 X130.135 Y13.804
N36270 X129.457 Y13.621
N36280 X129.192 Y13.562
N36290 X128.367 Y13.427
N36300 X127.990 Y13.393
N36310 X127.330 Y13.370
N36320 X24.820 Y13.370
N36330 X24.820 Y10.490
N36340 X132.978 Y10.490
N36350 X133.271 Y10.517
N36360 X133.294 Y10.640
N36370 X133.300 Y15.506
N36380 ID=1 WHEN $AC_TIMER[1]>=0 DO M51

; Inicio do trecho do raster
; Final do trecho do raster


N36390 M63		;POWDER MIXER OFF
N36400 M67		;POWDER FEED OFF
N36410 M65		;CARRIER OFF
N36420 G4F5
N36430 M79     ;GAS 1 OFF

N36440 M0

N36450 M78     ; GAS 1 ON
N36460 M64		;CARRIER ON
N36470 H2 = R3	;SET POWDER FLOW
N36480 M62		;POWDER MIXER ON
N36490 M66		;POWDER FEED ON
N36500 G4F10

; Layer 27
N36510 G1 Z38.880 F1000
N36520 X99.06 Y141.85 F1000
N36530 ID=1 WHEN $AC_TIMER[1]>=0 DO M50
N36540 X5.528 Y141.850 F300
N36550 X5.131 Y141.835
N36560 X4.761 Y141.771
N36570 X4.395 Y141.677
N36580 X4.064 Y141.546
N36590 X3.716 Y141.368
N36600 X3.401 Y141.168
N36610 X3.113 Y140.937
N36620 X2.853 Y140.677
N36630 X2.622 Y140.389
N36640 X2.418 Y140.069
N36650 X2.250 Y139.747
N36660 X2.105 Y139.366
N36670 X2.022 Y139.040
N36680 X1.964 Y138.667
N36690 X1.940 Y138.249
N36700 X1.940 Y44.730
N36710 X4.820 Y44.730
N36720 X4.822 Y126.851
N36730 X4.867 Y127.523
N36740 X4.981 Y128.191
N36750 X5.158 Y128.817
N36760 X5.338 Y129.307
N36770 X5.413 Y129.476
N36780 X5.715 Y130.043
N36790 X6.088 Y130.613
N36800 X6.522 Y131.138
N36810 X7.007 Y131.612
N36820 X7.547 Y132.035
N36830 X8.105 Y132.382
N36840 X8.700 Y132.679
N36850 X9.180 Y132.869
N36860 X9.375 Y132.930
N36870 X10.198 Y133.123
N36880 X10.685 Y133.189
N36890 X11.260 Y133.210
N36900 X99.060 Y133.210
N36910 X99.060 Y141.750
N36920 ID=1 WHEN $AC_TIMER[1]>=0 DO M51
N36930 X136.85 Y121.85 F1000
N36940 ID=1 WHEN $AC_TIMER[1]>=0 DO M50
N36950 X133.970 Y121.850 F300
N36960 X133.968 Y21.474
N36970 X133.922 Y20.752
N36980 X133.832 Y20.192
N36990 X133.789 Y20.004
N37000 X133.578 Y19.332
N37010 X133.368 Y18.832
N37020 X133.271 Y18.643
N37030 X132.901 Y18.033
N37040 X132.763 Y17.843
N37050 X132.388 Y17.412
N37060 X132.078 Y17.102
N37070 X131.937 Y16.978
N37080 X131.415 Y16.583
N37090 X131.085 Y16.378
N37100 X130.469 Y16.073
N37110 X129.910 Y15.867
N37120 X129.352 Y15.717
N37130 X128.549 Y15.601
N37140 X128.000 Y15.580
N37150 X21.940 Y15.580
N37160 X21.940 Y6.940
N37170 X133.723 Y6.940
N37180 X134.193 Y6.964
N37190 X134.548 Y7.021
N37200 X134.933 Y7.135
N37210 X135.404 Y7.350
N37220 X135.686 Y7.538
N37230 X135.886 Y7.694
N37240 X136.107 Y7.922
N37250 X136.325 Y8.207
N37260 X136.508 Y8.515
N37270 X136.703 Y8.992
N37280 X136.762 Y9.211
N37290 X136.834 Y9.629
N37300 X136.850 Y10.056
N37310 X136.850 Y121.750
N37320 ID=1 WHEN $AC_TIMER[1]>=0 DO M51
N37330 X96.18 Y138.97 F1000
N37340 ID=1 WHEN $AC_TIMER[1]>=0 DO M50
N37350 X5.433 Y138.964 F300
N37360 X5.251 Y138.919
N37370 X5.040 Y138.791
N37380 X4.966 Y138.708
N37390 X4.882 Y138.565
N37400 X4.846 Y138.460
N37410 X4.820 Y138.168
N37420 X4.820 Y133.502
N37430 X5.230 Y133.878
N37440 X5.770 Y134.302
N37450 X6.025 Y134.480
N37460 X6.583 Y134.827
N37470 X6.821 Y134.960
N37480 X7.640 Y135.357
N37490 X8.312 Y135.615
N37500 X8.719 Y135.735
N37510 X9.542 Y135.927
N37520 X9.810 Y135.976
N37530 X10.297 Y136.043
N37540 X10.579 Y136.067
N37550 X11.260 Y136.090
N37560 X96.180 Y136.090
N37570 X96.180 Y138.870
N37580 ID=1 WHEN $AC_TIMER[1]>=0 DO M51
N37590 X133.97 Y14.9304 F1000
N37600 ID=1 WHEN $AC_TIMER[1]>=0 DO M50
N37610 X133.675 Y14.681 F300
N37620 X133.153 Y14.286
N37630 X132.605 Y13.932
N37640 X132.362 Y13.796
N37650 X131.746 Y13.491
N37660 X131.466 Y13.371
N37670 X130.908 Y13.165
N37680 X130.656 Y13.085
N37690 X130.098 Y12.935
N37700 X129.764 Y12.867
N37710 X128.960 Y12.751
N37720 X128.660 Y12.723
N37730 X128.000 Y12.700
N37740 X24.820 Y12.700
N37750 X24.820 Y9.820
N37760 X133.648 Y9.820
N37770 X133.942 Y9.848
N37780 X133.963 Y9.928
N37790 X133.970 Y14.830
N37800 ID=1 WHEN $AC_TIMER[1]>=0 DO M51

; Inicio do trecho do raster
; Final do trecho do raster


N37810 M63		;POWDER MIXER OFF
N37820 M67		;POWDER FEED OFF
N37830 M65		;CARRIER OFF
N37840 G4F5
N37850 M79     ;GAS 1 OFF

N37860 M0

N37870 M78     ; GAS 1 ON
N37880 M64		;CARRIER ON
N37890 H2 = R3	;SET POWDER FLOW
N37900 M62		;POWDER MIXER ON
N37910 M66		;POWDER FEED ON
N37920 G4F10

; Layer 28
N37930 G1 Z40.320 F1000
N37940 X99.06 Y141.85 F1000
N37950 ID=1 WHEN $AC_TIMER[1]>=0 DO M50
N37960 X5.528 Y141.850 F300
N37970 X5.131 Y141.835
N37980 X4.761 Y141.771
N37990 X4.395 Y141.677
N38000 X4.064 Y141.546
N38010 X3.716 Y141.368
N38020 X3.401 Y141.168
N38030 X3.113 Y140.937
N38040 X2.863 Y140.686
N38050 X2.606 Y140.364
N38060 X2.418 Y140.069
N38070 X2.244 Y139.735
N38080 X2.114 Y139.400
N38090 X2.022 Y139.040
N38100 X1.964 Y138.667
N38110 X1.940 Y138.249
N38120 X1.940 Y44.730
N38130 X4.820 Y44.730
N38140 X4.822 Y126.851
N38150 X4.867 Y127.523
N38160 X4.981 Y128.191
N38170 X5.158 Y128.817
N38180 X5.338 Y129.307
N38190 X5.413 Y129.476
N38200 X5.715 Y130.043
N38210 X5.995 Y130.483
N38220 X6.522 Y131.138
N38230 X7.007 Y131.612
N38240 X7.547 Y132.035
N38250 X8.105 Y132.382
N38260 X8.700 Y132.679
N38270 X9.180 Y132.869
N38280 X9.375 Y132.930
N38290 X10.198 Y133.123
N38300 X10.685 Y133.189
N38310 X11.260 Y133.210
N38320 X99.060 Y133.210
N38330 X99.060 Y141.750
N38340 ID=1 WHEN $AC_TIMER[1]>=0 DO M51
N38350 X137.53 Y121.85 F1000
N38360 ID=1 WHEN $AC_TIMER[1]>=0 DO M50
N38370 X134.650 Y121.850 F300
N38380 X134.647 Y20.781
N38390 X134.591 Y20.067
N38400 X134.501 Y19.517
N38410 X134.459 Y19.334
N38420 X134.264 Y18.703
N38430 X134.015 Y18.100
N38440 X133.566 Y17.354
N38450 X133.443 Y17.184
N38460 X133.052 Y16.726
N38470 X132.626 Y16.323
N38480 X132.116 Y15.927
N38490 X131.734 Y15.692
N38500 X131.368 Y15.500
N38510 X130.590 Y15.200
N38520 X130.220 Y15.090
N38530 X130.032 Y15.047
N38540 X129.228 Y14.931
N38550 X128.670 Y14.910
N38560 X21.940 Y14.910
N38570 X21.940 Y6.270
N38580 X134.393 Y6.270
N38590 X134.858 Y6.294
N38600 X135.246 Y6.356
N38610 X135.612 Y6.467
N38620 X135.957 Y6.612
N38630 X136.324 Y6.834
N38640 X136.579 Y7.046
N38650 X136.777 Y7.244
N38660 X137.101 Y7.692
N38670 X137.178 Y7.830
N38680 X137.362 Y8.272
N38690 X137.429 Y8.527
N38700 X137.507 Y9.016
N38710 X137.530 Y9.403
N38720 X137.530 Y121.750
N38730 ID=1 WHEN $AC_TIMER[1]>=0 DO M51
N38740 X96.18 Y138.97 F1000
N38750 ID=1 WHEN $AC_TIMER[1]>=0 DO M50
N38760 X5.433 Y138.964 F300
N38770 X5.251 Y138.919
N38780 X5.014 Y138.764
N38790 X4.914 Y138.627
N38800 X4.862 Y138.521
N38810 X4.831 Y138.362
N38820 X4.820 Y138.168
N38830 X4.820 Y133.502
N38840 X5.230 Y133.878
N38850 X5.770 Y134.302
N38860 X6.025 Y134.480
N38870 X6.583 Y134.827
N38880 X6.821 Y134.960
N38890 X7.640 Y135.357
N38900 X8.312 Y135.615
N38910 X8.719 Y135.735
N38920 X9.542 Y135.927
N38930 X9.810 Y135.976
N38940 X10.297 Y136.043
N38950 X10.579 Y136.067
N38960 X11.260 Y136.090
N38970 X96.180 Y136.090
N38980 X96.180 Y138.870
N38990 ID=1 WHEN $AC_TIMER[1]>=0 DO M51
N39000 X134.65 Y14.2729 F1000
N39010 ID=1 WHEN $AC_TIMER[1]>=0 DO M50
N39020 X134.392 Y14.047 F300
N39030 X133.882 Y13.652
N39040 X133.625 Y13.474
N39050 X133.070 Y13.141
N39060 X132.704 Y12.949
N39070 X132.406 Y12.814
N39080 X131.411 Y12.439
N39090 X130.854 Y12.280
N39100 X130.444 Y12.197
N39110 X129.639 Y12.081
N39120 X129.337 Y12.053
N39130 X128.670 Y12.030
N39140 X24.820 Y12.030
N39150 X24.820 Y9.150
N39160 X134.318 Y9.150
N39170 X134.616 Y9.175
N39180 X134.650 Y9.489
N39190 X134.650 Y14.173
N39200 ID=1 WHEN $AC_TIMER[1]>=0 DO M51

; Inicio do trecho do raster
; Final do trecho do raster


N39210 M63		;POWDER MIXER OFF
N39220 M67		;POWDER FEED OFF
N39230 M65		;CARRIER OFF
N39240 G4F5
N39250 M79     ;GAS 1 OFF

N39260 M0

N39270 M78     ; GAS 1 ON
N39280 M64		;CARRIER ON
N39290 H2 = R3	;SET POWDER FLOW
N39300 M62		;POWDER MIXER ON
N39310 M66		;POWDER FEED ON
N39320 G4F10

; Layer 29
N39330 G1 Z41.760 F1000
N39340 X99.06 Y141.85 F1000
N39350 ID=1 WHEN $AC_TIMER[1]>=0 DO M50
N39360 X5.528 Y141.850 F300
N39370 X5.131 Y141.835
N39380 X4.761 Y141.771
N39390 X4.395 Y141.677
N39400 X4.064 Y141.546
N39410 X3.716 Y141.368
N39420 X3.401 Y141.168
N39430 X3.113 Y140.937
N39440 X2.853 Y140.677
N39450 X2.622 Y140.389
N39460 X2.418 Y140.069
N39470 X2.244 Y139.735
N39480 X2.114 Y139.400
N39490 X2.022 Y139.040
N39500 X1.964 Y138.667
N39510 X1.940 Y138.249
N39520 X1.940 Y44.730
N39530 X4.820 Y44.730
N39540 X4.822 Y126.851
N39550 X4.867 Y127.523
N39560 X4.981 Y128.191
N39570 X5.158 Y128.817
N39580 X5.338 Y129.307
N39590 X5.413 Y129.476
N39600 X5.715 Y130.043
N39610 X6.088 Y130.613
N39620 X6.522 Y131.138
N39630 X7.007 Y131.612
N39640 X7.547 Y132.035
N39650 X8.105 Y132.382
N39660 X8.700 Y132.679
N39670 X9.180 Y132.869
N39680 X9.354 Y132.925
N39690 X9.974 Y133.079
N39700 X10.494 Y133.169
N39710 X10.685 Y133.189
N39720 X11.260 Y133.210
N39730 X99.060 Y133.210
N39740 X99.060 Y141.750
N39750 ID=1 WHEN $AC_TIMER[1]>=0 DO M51
N39760 X138.2 Y121.85 F1000
N39770 ID=1 WHEN $AC_TIMER[1]>=0 DO M50
N39780 X135.320 Y121.850 F300
N39790 X135.318 Y20.136
N39800 X135.288 Y19.556
N39810 X135.267 Y19.372
N39820 X135.145 Y18.721
N39830 X134.973 Y18.106
N39840 X134.698 Y17.460
N39850 X134.352 Y16.851
N39860 X134.248 Y16.698
N39870 X133.868 Y16.208
N39880 X133.732 Y16.056
N39890 X133.305 Y15.650
N39900 X132.931 Y15.357
N39910 X132.415 Y15.028
N39920 X131.819 Y14.733
N39930 X131.260 Y14.527
N39940 X130.706 Y14.378
N39950 X129.908 Y14.261
N39960 X129.350 Y14.240
N39970 X21.940 Y14.240
N39980 X21.940 Y5.600
N39990 X135.072 Y5.600
N40000 X135.527 Y5.624
N40010 X135.916 Y5.686
N40020 X136.303 Y5.803
N40030 X136.624 Y5.938
N40040 X136.748 Y6.006
N40050 X137.012 Y6.179
N40060 X137.249 Y6.376
N40070 X137.455 Y6.582
N40080 X137.673 Y6.866
N40090 X137.914 Y7.295
N40100 X138.036 Y7.619
N40110 X138.100 Y7.859
N40120 X138.177 Y8.337
N40130 X138.200 Y8.732
N40140 X138.200 Y121.750
N40150 ID=1 WHEN $AC_TIMER[1]>=0 DO M51
N40160 X96.18 Y138.97 F1000
N40170 ID=1 WHEN $AC_TIMER[1]>=0 DO M50
N40180 X5.433 Y138.964 F300
N40190 X5.251 Y138.919
N40200 X5.040 Y138.791
N40210 X4.966 Y138.708
N40220 X4.862 Y138.521
N40230 X4.831 Y138.362
N40240 X4.820 Y138.168
N40250 X4.820 Y133.502
N40260 X5.230 Y133.878
N40270 X5.770 Y134.302
N40280 X6.025 Y134.480
N40290 X6.583 Y134.827
N40300 X6.821 Y134.960
N40310 X7.640 Y135.357
N40320 X8.467 Y135.665
N40330 X9.483 Y135.917
N40340 X10.193 Y136.033
N40350 X10.579 Y136.067
N40360 X11.260 Y136.090
N40370 X96.180 Y136.090
N40380 X96.180 Y138.870
N40390 ID=1 WHEN $AC_TIMER[1]>=0 DO M51
N40400 X135.32 Y13.5918 F1000
N40410 ID=1 WHEN $AC_TIMER[1]>=0 DO M50
N40420 X135.082 Y13.383 F300
N40430 X134.709 Y13.091
N40440 X134.480 Y12.929
N40450 X133.964 Y12.600
N40460 X133.692 Y12.446
N40470 X133.095 Y12.151
N40480 X132.816 Y12.031
N40490 X132.258 Y11.825
N40500 X132.007 Y11.745
N40510 X131.453 Y11.596
N40520 X131.122 Y11.528
N40530 X130.324 Y11.411
N40540 X130.017 Y11.383
N40550 X129.350 Y11.360
N40560 X24.820 Y11.360
N40570 X24.820 Y8.480
N40580 X134.996 Y8.480
N40590 X135.287 Y8.505
N40600 X135.310 Y8.652
N40610 X135.320 Y8.817
N40620 X135.320 Y13.492
N40630 ID=1 WHEN $AC_TIMER[1]>=0 DO M51

; Inicio do trecho do raster
; Final do trecho do raster


N40640 M63		;POWDER MIXER OFF
N40650 M67		;POWDER FEED OFF
N40660 M65		;CARRIER OFF
N40670 G4F5
N40680 M79     ;GAS 1 OFF

N40690 M0

N40700 M78     ; GAS 1 ON
N40710 M64		;CARRIER ON
N40720 H2 = R3	;SET POWDER FLOW
N40730 M62		;POWDER MIXER ON
N40740 M66		;POWDER FEED ON
N40750 G4F10

; Layer 30
N40760 G1 Z43.200 F1000
N40770 X99.06 Y141.85 F1000
N40780 ID=1 WHEN $AC_TIMER[1]>=0 DO M50
N40790 X5.528 Y141.850 F300
N40800 X5.131 Y141.835
N40810 X4.761 Y141.771
N40820 X4.395 Y141.677
N40830 X4.064 Y141.546
N40840 X3.716 Y141.368
N40850 X3.401 Y141.168
N40860 X3.113 Y140.937
N40870 X2.853 Y140.677
N40880 X2.622 Y140.389
N40890 X2.418 Y140.069
N40900 X2.244 Y139.735
N40910 X2.114 Y139.400
N40920 X2.022 Y139.040
N40930 X1.964 Y138.667
N40940 X1.940 Y138.249
N40950 X1.940 Y44.730
N40960 X4.820 Y44.730
N40970 X4.822 Y126.851
N40980 X4.867 Y127.523
N40990 X4.981 Y128.191
N41000 X5.158 Y128.817
N41010 X5.338 Y129.307
N41020 X5.413 Y129.476
N41030 X5.715 Y130.043
N41040 X6.088 Y130.613
N41050 X6.522 Y131.138
N41060 X7.007 Y131.612
N41070 X7.547 Y132.035
N41080 X8.105 Y132.382
N41090 X8.700 Y132.679
N41100 X9.180 Y132.869
N41110 X9.354 Y132.925
N41120 X9.974 Y133.079
N41130 X10.494 Y133.169
N41140 X10.685 Y133.189
N41150 X11.260 Y133.210
N41160 X99.060 Y133.210
N41170 X99.060 Y141.750
N41180 ID=1 WHEN $AC_TIMER[1]>=0 DO M51
N41190 X138.87 Y121.85 F1000
N41200 ID=1 WHEN $AC_TIMER[1]>=0 DO M50
N41210 X135.990 Y121.850 F300
N41220 X135.988 Y19.466
N41230 X135.958 Y18.886
N41240 X135.938 Y18.707
N41250 X135.815 Y18.041
N41260 X135.725 Y17.691
N41270 X135.656 Y17.478
N41280 X135.448 Y16.956
N41290 X135.143 Y16.369
N41300 X134.799 Y15.861
N41310 X134.418 Y15.412
N41320 X133.980 Y14.984
N41330 X133.591 Y14.677
N41340 X133.064 Y14.342
N41350 X132.520 Y14.075
N41360 X131.933 Y13.849
N41370 X131.391 Y13.710
N41380 X130.716 Y13.603
N41390 X130.020 Y13.560
N41400 X21.940 Y13.560
N41410 X21.940 Y4.920
N41420 X135.730 Y4.920
N41430 X136.185 Y4.952
N41440 X136.586 Y5.016
N41450 X136.952 Y5.127
N41460 X137.315 Y5.279
N41470 X137.697 Y5.519
N41480 X137.904 Y5.682
N41490 X138.119 Y5.903
N41500 X138.359 Y6.216
N41510 X138.432 Y6.331
N41520 X138.594 Y6.640
N41530 X138.706 Y6.939
N41540 X138.770 Y7.179
N41550 X138.847 Y7.657
N41560 X138.870 Y8.061
N41570 X138.870 Y121.750
N41580 ID=1 WHEN $AC_TIMER[1]>=0 DO M51
N41590 X96.18 Y138.97 F1000
N41600 ID=1 WHEN $AC_TIMER[1]>=0 DO M50
N41610 X5.433 Y138.964 F300
N41620 X5.251 Y138.919
N41630 X5.040 Y138.791
N41640 X4.966 Y138.708
N41650 X4.862 Y138.521
N41660 X4.831 Y138.362
N41670 X4.820 Y138.168
N41680 X4.820 Y133.502
N41690 X5.230 Y133.878
N41700 X5.770 Y134.302
N41710 X6.025 Y134.480
N41720 X6.583 Y134.827
N41730 X6.821 Y134.960
N41740 X7.640 Y135.357
N41750 X8.467 Y135.665
N41760 X9.483 Y135.917
N41770 X10.193 Y136.033
N41780 X10.579 Y136.067
N41790 X11.260 Y136.090
N41800 X96.180 Y136.090
N41810 X96.180 Y138.870
N41820 ID=1 WHEN $AC_TIMER[1]>=0 DO M51
N41830 X135.99 Y12.9215 F1000
N41840 ID=1 WHEN $AC_TIMER[1]>=0 DO M50
N41850 X135.765 Y12.724 F300
N41860 X135.377 Y12.417
N41870 X135.135 Y12.246
N41880 X134.608 Y11.911
N41890 X134.333 Y11.757
N41900 X133.555 Y11.387
N41910 X132.968 Y11.161
N41920 X132.648 Y11.059
N41930 X132.106 Y10.920
N41940 X131.842 Y10.866
N41950 X131.167 Y10.759
N41960 X130.894 Y10.729
N41970 X130.020 Y10.680
N41980 X24.820 Y10.680
N41990 X24.820 Y7.800
N42000 X135.629 Y7.800
N42010 X135.958 Y7.835
N42020 X135.990 Y8.144
N42030 X135.990 Y12.822
N42040 ID=1 WHEN $AC_TIMER[1]>=0 DO M51

; Inicio do trecho do raster
; Final do trecho do raster


N42050 M63		;POWDER MIXER OFF
N42060 M67		;POWDER FEED OFF
N42070 M65		;CARRIER OFF
N42080 G4F5
N42090 M79     ;GAS 1 OFF

N42100 M0

N42110 M78     ; GAS 1 ON
N42120 M64		;CARRIER ON
N42130 H2 = R3	;SET POWDER FLOW
N42140 M62		;POWDER MIXER ON
N42150 M66		;POWDER FEED ON
N42160 G4F10

; Layer 31
N42170 G1 Z44.640 F1000
N42180 X99.06 Y141.85 F1000
N42190 ID=1 WHEN $AC_TIMER[1]>=0 DO M50
N42200 X5.528 Y141.850 F300
N42210 X5.131 Y141.835
N42220 X4.761 Y141.771
N42230 X4.395 Y141.677
N42240 X4.064 Y141.546
N42250 X3.716 Y141.368
N42260 X3.401 Y141.168
N42270 X3.113 Y140.937
N42280 X2.853 Y140.677
N42290 X2.622 Y140.389
N42300 X2.418 Y140.069
N42310 X2.244 Y139.735
N42320 X2.114 Y139.400
N42330 X2.022 Y139.040
N42340 X1.964 Y138.667
N42350 X1.940 Y138.249
N42360 X1.940 Y44.730
N42370 X4.820 Y44.730
N42380 X4.822 Y126.851
N42390 X4.867 Y127.523
N42400 X4.981 Y128.191
N42410 X5.158 Y128.817
N42420 X5.338 Y129.307
N42430 X5.413 Y129.476
N42440 X5.715 Y130.043
N42450 X6.088 Y130.613
N42460 X6.522 Y131.138
N42470 X7.007 Y131.612
N42480 X7.547 Y132.035
N42490 X8.105 Y132.382
N42500 X8.700 Y132.679
N42510 X9.180 Y132.869
N42520 X9.354 Y132.925
N42530 X9.974 Y133.079
N42540 X10.494 Y133.169
N42550 X10.685 Y133.189
N42560 X11.260 Y133.210
N42570 X99.060 Y133.210
N42580 X99.060 Y141.750
N42590 ID=1 WHEN $AC_TIMER[1]>=0 DO M51
N42600 X139.54 Y121.85 F1000
N42610 ID=1 WHEN $AC_TIMER[1]>=0 DO M50
N42620 X136.660 Y121.850 F300
N42630 X136.658 Y18.784
N42640 X136.628 Y18.214
N42650 X136.608 Y18.037
N42660 X136.476 Y17.338
N42670 X136.280 Y16.673
N42680 X136.112 Y16.264
N42690 X135.813 Y15.699
N42700 X135.484 Y15.210
N42710 X135.204 Y14.860
N42720 X135.083 Y14.727
N42730 X134.654 Y14.317
N42740 X134.374 Y14.087
N42750 X134.037 Y13.851
N42760 X133.494 Y13.542
N42770 X133.169 Y13.389
N42780 X132.601 Y13.184
N42790 X132.053 Y13.039
N42800 X131.293 Y12.922
N42810 X130.690 Y12.890
N42820 X21.940 Y12.890
N42830 X21.940 Y4.250
N42840 X136.412 Y4.250
N42850 X136.855 Y4.273
N42860 X137.257 Y4.345
N42870 X137.622 Y4.448
N42880 X137.960 Y4.597
N42890 X138.341 Y4.820
N42900 X138.573 Y5.011
N42910 X138.794 Y5.239
N42920 X139.030 Y5.539
N42930 X139.106 Y5.661
N42940 X139.261 Y5.964
N42950 X139.376 Y6.269
N42960 X139.440 Y6.510
N42970 X139.517 Y6.978
N42980 X139.540 Y7.381
N42990 X139.540 Y121.750
N43000 ID=1 WHEN $AC_TIMER[1]>=0 DO M51
N43010 X96.18 Y138.97 F1000
N43020 ID=1 WHEN $AC_TIMER[1]>=0 DO M50
N43030 X5.433 Y138.964 F300
N43040 X5.251 Y138.919
N43050 X5.040 Y138.791
N43060 X4.966 Y138.708
N43070 X4.862 Y138.521
N43080 X4.831 Y138.362
N43090 X4.820 Y138.168
N43100 X4.820 Y133.502
N43110 X5.230 Y133.878
N43120 X5.770 Y134.302
N43130 X6.025 Y134.480
N43140 X6.583 Y134.827
N43150 X6.821 Y134.960
N43160 X7.640 Y135.357
N43170 X8.467 Y135.665
N43180 X9.483 Y135.917
N43190 X10.193 Y136.033
N43200 X10.579 Y136.067
N43210 X11.260 Y136.090
N43220 X96.180 Y136.090
N43230 X96.180 Y138.870
N43240 ID=1 WHEN $AC_TIMER[1]>=0 DO M51
N43250 X136.66 Y12.2614 F1000
N43260 ID=1 WHEN $AC_TIMER[1]>=0 DO M50
N43270 X136.482 Y12.092 F300
N43280 X136.027 Y11.729
N43290 X135.462 Y11.349
N43300 X134.720 Y10.936
N43310 X134.147 Y10.681
N43320 X133.338 Y10.400
N43330 X132.790 Y10.255
N43340 X132.490 Y10.192
N43350 X131.730 Y10.076
N43360 X131.447 Y10.047
N43370 X130.690 Y10.010
N43380 X24.820 Y10.010
N43390 X24.820 Y7.130
N43400 X136.336 Y7.130
N43410 X136.628 Y7.160
N43420 X136.650 Y7.295
N43430 X136.660 Y7.464
N43440 X136.660 Y12.161
N43450 ID=1 WHEN $AC_TIMER[1]>=0 DO M51

; Inicio do trecho do raster
; Final do trecho do raster


N43460 M63		;POWDER MIXER OFF
N43470 M67		;POWDER FEED OFF
N43480 M65		;CARRIER OFF
N43490 G4F5
N43500 M79     ;GAS 1 OFF

N43510 M0

N43520 M78     ; GAS 1 ON
N43530 M64		;CARRIER ON
N43540 H2 = R3	;SET POWDER FLOW
N43550 M62		;POWDER MIXER ON
N43560 M66		;POWDER FEED ON
N43570 G4F10

; Layer 32
N43580 G1 Z46.080 F1000
N43590 X99.06 Y141.85 F1000
N43600 ID=1 WHEN $AC_TIMER[1]>=0 DO M50
N43610 X5.528 Y141.850 F300
N43620 X5.131 Y141.835
N43630 X4.761 Y141.771
N43640 X4.395 Y141.677
N43650 X4.064 Y141.546
N43660 X3.716 Y141.368
N43670 X3.401 Y141.168
N43680 X3.113 Y140.937
N43690 X2.853 Y140.677
N43700 X2.622 Y140.389
N43710 X2.418 Y140.069
N43720 X2.244 Y139.735
N43730 X2.114 Y139.400
N43740 X2.022 Y139.040
N43750 X1.964 Y138.667
N43760 X1.940 Y138.249
N43770 X1.940 Y44.730
