; Generated by RP3 on 2021-01-6
; Job 1 - LMD

; General Config.--------------------
$ac_timer[1]=0
G91   ; relative positioning
G641  ;
G603  ;
M55   ; home mirror
G4F4  ; necessary delay for positioning of the mirror
M0    ; wait for user-input

; Process Start-up--------------------
M56   ; set canal 1 as laser-source
G4F4  ; necessary delay for positioning of the mirror
M0    ; wait for user-input
; START POWDER!!!
G4F10
M0
G54   ; set process starting point (machine zero)

; Laser On and Path------------------
H=0
G90   ; use absolute coordinates
N20 G01 X0 Y0 Z0 F1000

; Layer 1
G1 Z1.000 F500
X102.607 Y185.78 F500
ID=1 WHEN $AC_TIMER[1]>=0 DO M88
X101.724 Y184.137 F300
X101.183 Y182.352
X101.000 Y180.476
X101.000 Y110.524
X101.183 Y108.648
X101.724 Y106.863
X102.607 Y105.220
X103.785 Y103.785
X105.220 Y102.607
X106.863 Y101.724
X108.648 Y101.183
X110.524 Y101.000
X180.476 Y101.000
X182.352 Y101.183
X184.137 Y101.724
X185.780 Y102.607
X187.215 Y103.785
X188.393 Y105.220
X189.276 Y106.863
X189.817 Y108.648
X190.000 Y110.524
X190.000 Y180.476
X189.817 Y182.352
X189.276 Y184.137
X188.393 Y185.780
X187.215 Y187.215
X185.780 Y188.393
X184.137 Y189.276
X182.352 Y189.817
X180.476 Y190.000
X110.524 Y190.000
X108.648 Y189.817
X106.862 Y189.276
X105.249 Y188.412
X103.785 Y187.214
X102.671 Y185.858
ID=1 WHEN $AC_TIMER[1]>=0 DO M89
X103 Y110.5 F500
ID=1 WHEN $AC_TIMER[1]>=0 DO M88
X103.003 Y180.571 F300
X103.143 Y181.941
X103.162 Y182.036
X103.562 Y183.346
X103.600 Y183.437
X104.250 Y184.647
X104.305 Y184.729
X105.165 Y185.769
X105.234 Y185.838
X106.314 Y186.718
X107.583 Y187.410
X107.677 Y187.449
X109.017 Y187.849
X109.112 Y187.868
X110.500 Y188.000
X180.571 Y187.997
X181.941 Y187.857
X182.036 Y187.838
X183.346 Y187.438
X183.437 Y187.400
X184.647 Y186.750
X184.731 Y186.693
X185.781 Y185.813
X186.716 Y184.687
X186.772 Y184.604
X187.412 Y183.394
X187.448 Y183.308
X187.848 Y182.018
X187.868 Y181.917
X188.000 Y180.500
X187.998 Y110.432
X187.868 Y109.082
X187.848 Y108.983
X187.438 Y107.653
X186.750 Y106.353
X186.695 Y106.271
X185.835 Y105.231
X184.686 Y104.282
X184.607 Y104.230
X183.417 Y103.590
X183.326 Y103.552
X182.016 Y103.152
X181.917 Y103.132
X180.500 Y103.000
X110.432 Y103.002
X109.082 Y103.132
X108.983 Y103.152
X107.653 Y103.562
X107.563 Y103.600
X106.353 Y104.250
X106.271 Y104.305
X105.231 Y105.165
X105.162 Y105.234
X104.282 Y106.314
X103.590 Y107.583
X103.552 Y107.674
X103.152 Y108.984
X103.132 Y109.083
X103.009 Y110.400
ID=1 WHEN $AC_TIMER[1]>=0 DO M89

; Inicio do trecho do raster
X189 Y111.5 F500
ID=1 WHEN $AC_TIMER[1]>=0 DO M88
X188.993 Y111.500 F300
ID=1 WHEN $AC_TIMER[1]>=0 DO M89
X102 Y111.496 F500
ID=1 WHEN $AC_TIMER[1]>=0 DO M88
X102.000 Y111.496 F300
ID=1 WHEN $AC_TIMER[1]>=0 DO M89
X102 Y112.496 F500
ID=1 WHEN $AC_TIMER[1]>=0 DO M88
X102.000 Y112.496 F300
ID=1 WHEN $AC_TIMER[1]>=0 DO M89
X188.993 Y112.5 F500
ID=1 WHEN $AC_TIMER[1]>=0 DO M88
X189.000 Y112.500 F300
ID=1 WHEN $AC_TIMER[1]>=0 DO M89
X189 Y113.5 F500
ID=1 WHEN $AC_TIMER[1]>=0 DO M88
X188.993 Y113.500 F300
ID=1 WHEN $AC_TIMER[1]>=0 DO M89
X102 Y113.496 F500
ID=1 WHEN $AC_TIMER[1]>=0 DO M88
X102.000 Y113.496 F300
ID=1 WHEN $AC_TIMER[1]>=0 DO M89
X102 Y114.496 F500
ID=1 WHEN $AC_TIMER[1]>=0 DO M88
X102.000 Y114.496 F300
ID=1 WHEN $AC_TIMER[1]>=0 DO M89
X188.993 Y114.5 F500
ID=1 WHEN $AC_TIMER[1]>=0 DO M88
X189.000 Y114.500 F300
ID=1 WHEN $AC_TIMER[1]>=0 DO M89
X189 Y115.5 F500
ID=1 WHEN $AC_TIMER[1]>=0 DO M88
X188.994 Y115.500 F300
ID=1 WHEN $AC_TIMER[1]>=0 DO M89
X102.001 Y115.496 F500
ID=1 WHEN $AC_TIMER[1]>=0 DO M88
X102.000 Y115.496 F300
ID=1 WHEN $AC_TIMER[1]>=0 DO M89
X102 Y116.496 F500
ID=1 WHEN $AC_TIMER[1]>=0 DO M88
X102.001 Y116.496 F300
ID=1 WHEN $AC_TIMER[1]>=0 DO M89
X188.994 Y116.5 F500
ID=1 WHEN $AC_TIMER[1]>=0 DO M88
X189.000 Y116.500 F300
ID=1 WHEN $AC_TIMER[1]>=0 DO M89
X189 Y117.5 F500
ID=1 WHEN $AC_TIMER[1]>=0 DO M88
X188.994 Y117.500 F300
ID=1 WHEN $AC_TIMER[1]>=0 DO M89
X102.001 Y117.496 F500
ID=1 WHEN $AC_TIMER[1]>=0 DO M88
X102.000 Y117.496 F300
ID=1 WHEN $AC_TIMER[1]>=0 DO M89
X102 Y118.496 F500
ID=1 WHEN $AC_TIMER[1]>=0 DO M88
X102.001 Y118.496 F300
ID=1 WHEN $AC_TIMER[1]>=0 DO M89
X188.994 Y118.5 F500
ID=1 WHEN $AC_TIMER[1]>=0 DO M88
X189.000 Y118.500 F300
ID=1 WHEN $AC_TIMER[1]>=0 DO M89
X189 Y119.5 F500
ID=1 WHEN $AC_TIMER[1]>=0 DO M88
X188.994 Y119.500 F300
ID=1 WHEN $AC_TIMER[1]>=0 DO M89
X102.001 Y119.496 F500
ID=1 WHEN $AC_TIMER[1]>=0 DO M88
X102.000 Y119.496 F300
ID=1 WHEN $AC_TIMER[1]>=0 DO M89
X102 Y120.496 F500
ID=1 WHEN $AC_TIMER[1]>=0 DO M88
X102.001 Y120.496 F300
ID=1 WHEN $AC_TIMER[1]>=0 DO M89
X188.994 Y120.5 F500
ID=1 WHEN $AC_TIMER[1]>=0 DO M88
X189.000 Y120.500 F300
ID=1 WHEN $AC_TIMER[1]>=0 DO M89
X189 Y121.5 F500
ID=1 WHEN $AC_TIMER[1]>=0 DO M88
X188.994 Y121.500 F300
ID=1 WHEN $AC_TIMER[1]>=0 DO M89
X102.001 Y121.496 F500
ID=1 WHEN $AC_TIMER[1]>=0 DO M88
X102.000 Y121.496 F300
ID=1 WHEN $AC_TIMER[1]>=0 DO M89
X102 Y122.496 F500
ID=1 WHEN $AC_TIMER[1]>=0 DO M88
X102.001 Y122.496 F300
ID=1 WHEN $AC_TIMER[1]>=0 DO M89
X188.994 Y122.5 F500
ID=1 WHEN $AC_TIMER[1]>=0 DO M88
X189.000 Y122.500 F300
ID=1 WHEN $AC_TIMER[1]>=0 DO M89
X189 Y123.5 F500
ID=1 WHEN $AC_TIMER[1]>=0 DO M88
X188.994 Y123.500 F300
ID=1 WHEN $AC_TIMER[1]>=0 DO M89
X102.001 Y123.496 F500
ID=1 WHEN $AC_TIMER[1]>=0 DO M88
X102.000 Y123.496 F300
ID=1 WHEN $AC_TIMER[1]>=0 DO M89
X102 Y124.496 F500
ID=1 WHEN $AC_TIMER[1]>=0 DO M88
X102.002 Y124.496 F300
ID=1 WHEN $AC_TIMER[1]>=0 DO M89
X188.994 Y124.5 F500
ID=1 WHEN $AC_TIMER[1]>=0 DO M88
X189.000 Y124.500 F300
ID=1 WHEN $AC_TIMER[1]>=0 DO M89
X189 Y125.5 F500
ID=1 WHEN $AC_TIMER[1]>=0 DO M88
X188.995 Y125.500 F300
ID=1 WHEN $AC_TIMER[1]>=0 DO M89
X102.002 Y125.496 F500
ID=1 WHEN $AC_TIMER[1]>=0 DO M88
X102.000 Y125.496 F300
ID=1 WHEN $AC_TIMER[1]>=0 DO M89
X102 Y126.496 F500
ID=1 WHEN $AC_TIMER[1]>=0 DO M88
X102.002 Y126.496 F300
ID=1 WHEN $AC_TIMER[1]>=0 DO M89
X188.995 Y126.5 F500
ID=1 WHEN $AC_TIMER[1]>=0 DO M88
X189.000 Y126.500 F300
ID=1 WHEN $AC_TIMER[1]>=0 DO M89
X189 Y127.5 F500
ID=1 WHEN $AC_TIMER[1]>=0 DO M88
X188.995 Y127.500 F300
ID=1 WHEN $AC_TIMER[1]>=0 DO M89
X102.002 Y127.496 F500
ID=1 WHEN $AC_TIMER[1]>=0 DO M88
X102.000 Y127.496 F300
ID=1 WHEN $AC_TIMER[1]>=0 DO M89
X102 Y128.496 F500
ID=1 WHEN $AC_TIMER[1]>=0 DO M88
X102.002 Y128.496 F300
ID=1 WHEN $AC_TIMER[1]>=0 DO M89
X188.995 Y128.5 F500
ID=1 WHEN $AC_TIMER[1]>=0 DO M88
X189.000 Y128.500 F300
ID=1 WHEN $AC_TIMER[1]>=0 DO M89
X189 Y129.5 F500
ID=1 WHEN $AC_TIMER[1]>=0 DO M88
X188.995 Y129.500 F300
ID=1 WHEN $AC_TIMER[1]>=0 DO M89
X102.002 Y129.496 F500
ID=1 WHEN $AC_TIMER[1]>=0 DO M88
X102.000 Y129.496 F300
ID=1 WHEN $AC_TIMER[1]>=0 DO M89
X102 Y130.496 F500
ID=1 WHEN $AC_TIMER[1]>=0 DO M88
X102.002 Y130.496 F300
ID=1 WHEN $AC_TIMER[1]>=0 DO M89
X188.995 Y130.5 F500
ID=1 WHEN $AC_TIMER[1]>=0 DO M88
X189.000 Y130.500 F300
ID=1 WHEN $AC_TIMER[1]>=0 DO M89
X189 Y131.5 F500
ID=1 WHEN $AC_TIMER[1]>=0 DO M88
X188.995 Y131.500 F300
ID=1 WHEN $AC_TIMER[1]>=0 DO M89
X102.002 Y131.496 F500
ID=1 WHEN $AC_TIMER[1]>=0 DO M88
X102.000 Y131.496 F300
ID=1 WHEN $AC_TIMER[1]>=0 DO M89
X102 Y132.496 F500
ID=1 WHEN $AC_TIMER[1]>=0 DO M88
X102.002 Y132.496 F300
ID=1 WHEN $AC_TIMER[1]>=0 DO M89
X188.995 Y132.5 F500
ID=1 WHEN $AC_TIMER[1]>=0 DO M88
X189.000 Y132.500 F300
ID=1 WHEN $AC_TIMER[1]>=0 DO M89
X189 Y133.5 F500
ID=1 WHEN $AC_TIMER[1]>=0 DO M88
X188.995 Y133.500 F300
ID=1 WHEN $AC_TIMER[1]>=0 DO M89
X102.003 Y133.496 F500
ID=1 WHEN $AC_TIMER[1]>=0 DO M88
X102.000 Y133.496 F300
ID=1 WHEN $AC_TIMER[1]>=0 DO M89
X102 Y134.496 F500
ID=1 WHEN $AC_TIMER[1]>=0 DO M88
X102.003 Y134.496 F300
ID=1 WHEN $AC_TIMER[1]>=0 DO M89
X188.995 Y134.5 F500
ID=1 WHEN $AC_TIMER[1]>=0 DO M88
X189.000 Y134.500 F300
ID=1 WHEN $AC_TIMER[1]>=0 DO M89
X189 Y135.5 F500
ID=1 WHEN $AC_TIMER[1]>=0 DO M88
X188.996 Y135.500 F300
ID=1 WHEN $AC_TIMER[1]>=0 DO M89
X102.003 Y135.496 F500
ID=1 WHEN $AC_TIMER[1]>=0 DO M88
X102.000 Y135.496 F300
ID=1 WHEN $AC_TIMER[1]>=0 DO M89
X102 Y136.496 F500
ID=1 WHEN $AC_TIMER[1]>=0 DO M88
X102.003 Y136.496 F300
ID=1 WHEN $AC_TIMER[1]>=0 DO M89
X188.996 Y136.5 F500
ID=1 WHEN $AC_TIMER[1]>=0 DO M88
X189.000 Y136.500 F300
ID=1 WHEN $AC_TIMER[1]>=0 DO M89
X189 Y137.5 F500
ID=1 WHEN $AC_TIMER[1]>=0 DO M88
X188.996 Y137.500 F300
ID=1 WHEN $AC_TIMER[1]>=0 DO M89
X102.003 Y137.496 F500
ID=1 WHEN $AC_TIMER[1]>=0 DO M88
X102.000 Y137.496 F300
ID=1 WHEN $AC_TIMER[1]>=0 DO M89
X102 Y138.496 F500
ID=1 WHEN $AC_TIMER[1]>=0 DO M88
X102.003 Y138.496 F300
ID=1 WHEN $AC_TIMER[1]>=0 DO M89
X188.996 Y138.5 F500
ID=1 WHEN $AC_TIMER[1]>=0 DO M88
X189.000 Y138.500 F300
ID=1 WHEN $AC_TIMER[1]>=0 DO M89
X189 Y139.5 F500
ID=1 WHEN $AC_TIMER[1]>=0 DO M88
X188.996 Y139.500 F300
ID=1 WHEN $AC_TIMER[1]>=0 DO M89
X102.003 Y139.496 F500
ID=1 WHEN $AC_TIMER[1]>=0 DO M88
X102.000 Y139.496 F300
ID=1 WHEN $AC_TIMER[1]>=0 DO M89
X102 Y140.496 F500
ID=1 WHEN $AC_TIMER[1]>=0 DO M88
X102.003 Y140.496 F300
ID=1 WHEN $AC_TIMER[1]>=0 DO M89
X188.996 Y140.5 F500
ID=1 WHEN $AC_TIMER[1]>=0 DO M88
X189.000 Y140.500 F300
ID=1 WHEN $AC_TIMER[1]>=0 DO M89
X189 Y141.5 F500
ID=1 WHEN $AC_TIMER[1]>=0 DO M88
X188.996 Y141.500 F300
ID=1 WHEN $AC_TIMER[1]>=0 DO M89
X102.003 Y141.496 F500
ID=1 WHEN $AC_TIMER[1]>=0 DO M88
X102.000 Y141.496 F300
ID=1 WHEN $AC_TIMER[1]>=0 DO M89
X102 Y142.496 F500
ID=1 WHEN $AC_TIMER[1]>=0 DO M88
X102.004 Y142.496 F300
ID=1 WHEN $AC_TIMER[1]>=0 DO M89
X188.996 Y142.5 F500
ID=1 WHEN $AC_TIMER[1]>=0 DO M88
X189.000 Y142.500 F300
ID=1 WHEN $AC_TIMER[1]>=0 DO M89
X189 Y143.5 F500
ID=1 WHEN $AC_TIMER[1]>=0 DO M88
X188.996 Y143.500 F300
ID=1 WHEN $AC_TIMER[1]>=0 DO M89
X102.004 Y143.496 F500
ID=1 WHEN $AC_TIMER[1]>=0 DO M88
X102.000 Y143.496 F300
ID=1 WHEN $AC_TIMER[1]>=0 DO M89
X102 Y144.496 F500
ID=1 WHEN $AC_TIMER[1]>=0 DO M88
X102.004 Y144.496 F300
ID=1 WHEN $AC_TIMER[1]>=0 DO M89
X188.996 Y144.5 F500
ID=1 WHEN $AC_TIMER[1]>=0 DO M88
X189.000 Y144.500 F300
ID=1 WHEN $AC_TIMER[1]>=0 DO M89
X189 Y145.5 F500
ID=1 WHEN $AC_TIMER[1]>=0 DO M88
X188.997 Y145.500 F300
ID=1 WHEN $AC_TIMER[1]>=0 DO M89
X102.004 Y145.496 F500
ID=1 WHEN $AC_TIMER[1]>=0 DO M88
X102.000 Y145.496 F300
ID=1 WHEN $AC_TIMER[1]>=0 DO M89
X102 Y146.496 F500
ID=1 WHEN $AC_TIMER[1]>=0 DO M88
X102.004 Y146.496 F300
ID=1 WHEN $AC_TIMER[1]>=0 DO M89
X188.997 Y146.5 F500
ID=1 WHEN $AC_TIMER[1]>=0 DO M88
X189.000 Y146.500 F300
ID=1 WHEN $AC_TIMER[1]>=0 DO M89
X189 Y147.5 F500
ID=1 WHEN $AC_TIMER[1]>=0 DO M88
X188.997 Y147.500 F300
ID=1 WHEN $AC_TIMER[1]>=0 DO M89
X102.004 Y147.496 F500
ID=1 WHEN $AC_TIMER[1]>=0 DO M88
X102.000 Y147.496 F300
ID=1 WHEN $AC_TIMER[1]>=0 DO M89
X102 Y148.496 F500
ID=1 WHEN $AC_TIMER[1]>=0 DO M88
X102.004 Y148.496 F300
ID=1 WHEN $AC_TIMER[1]>=0 DO M89
X188.997 Y148.5 F500
ID=1 WHEN $AC_TIMER[1]>=0 DO M88
X189.000 Y148.500 F300
ID=1 WHEN $AC_TIMER[1]>=0 DO M89
X189 Y149.5 F500
ID=1 WHEN $AC_TIMER[1]>=0 DO M88
X188.997 Y149.500 F300
ID=1 WHEN $AC_TIMER[1]>=0 DO M89
X102.004 Y149.496 F500
ID=1 WHEN $AC_TIMER[1]>=0 DO M88
X102.000 Y149.496 F300
ID=1 WHEN $AC_TIMER[1]>=0 DO M89
X102 Y150.496 F500
ID=1 WHEN $AC_TIMER[1]>=0 DO M88
X102.004 Y150.496 F300
ID=1 WHEN $AC_TIMER[1]>=0 DO M89
X188.997 Y150.5 F500
ID=1 WHEN $AC_TIMER[1]>=0 DO M88
X189.000 Y150.500 F300
ID=1 WHEN $AC_TIMER[1]>=0 DO M89
X189 Y151.5 F500
ID=1 WHEN $AC_TIMER[1]>=0 DO M88
X188.997 Y151.500 F300
ID=1 WHEN $AC_TIMER[1]>=0 DO M89
X102.005 Y151.496 F500
ID=1 WHEN $AC_TIMER[1]>=0 DO M88
X102.000 Y151.496 F300
ID=1 WHEN $AC_TIMER[1]>=0 DO M89
X102 Y152.496 F500
ID=1 WHEN $AC_TIMER[1]>=0 DO M88
X102.005 Y152.496 F300
ID=1 WHEN $AC_TIMER[1]>=0 DO M89
X188.997 Y152.5 F500
ID=1 WHEN $AC_TIMER[1]>=0 DO M88
X189.000 Y152.500 F300
ID=1 WHEN $AC_TIMER[1]>=0 DO M89
X189 Y153.5 F500
ID=1 WHEN $AC_TIMER[1]>=0 DO M88
X188.997 Y153.500 F300
ID=1 WHEN $AC_TIMER[1]>=0 DO M89
X102.005 Y153.496 F500
ID=1 WHEN $AC_TIMER[1]>=0 DO M88
X102.000 Y153.496 F300
ID=1 WHEN $AC_TIMER[1]>=0 DO M89
X102 Y154.496 F500
ID=1 WHEN $AC_TIMER[1]>=0 DO M88
X102.005 Y154.496 F300
ID=1 WHEN $AC_TIMER[1]>=0 DO M89
X188.997 Y154.5 F500
ID=1 WHEN $AC_TIMER[1]>=0 DO M88
X189.000 Y154.500 F300
ID=1 WHEN $AC_TIMER[1]>=0 DO M89
X189 Y155.5 F500
ID=1 WHEN $AC_TIMER[1]>=0 DO M88
X188.998 Y155.500 F300
ID=1 WHEN $AC_TIMER[1]>=0 DO M89
X102.005 Y155.496 F500
ID=1 WHEN $AC_TIMER[1]>=0 DO M88
X102.000 Y155.496 F300
ID=1 WHEN $AC_TIMER[1]>=0 DO M89
X102 Y156.496 F500
ID=1 WHEN $AC_TIMER[1]>=0 DO M88
X102.005 Y156.496 F300
ID=1 WHEN $AC_TIMER[1]>=0 DO M89
X188.998 Y156.5 F500
ID=1 WHEN $AC_TIMER[1]>=0 DO M88
X189.000 Y156.500 F300
ID=1 WHEN $AC_TIMER[1]>=0 DO M89
X189 Y157.5 F500
ID=1 WHEN $AC_TIMER[1]>=0 DO M88
X188.998 Y157.500 F300
ID=1 WHEN $AC_TIMER[1]>=0 DO M89
X102.005 Y157.496 F500
ID=1 WHEN $AC_TIMER[1]>=0 DO M88
X102.000 Y157.496 F300
ID=1 WHEN $AC_TIMER[1]>=0 DO M89
X102 Y158.496 F500
ID=1 WHEN $AC_TIMER[1]>=0 DO M88
X102.005 Y158.496 F300
ID=1 WHEN $AC_TIMER[1]>=0 DO M89
X188.998 Y158.5 F500
ID=1 WHEN $AC_TIMER[1]>=0 DO M88
X189.000 Y158.500 F300
ID=1 WHEN $AC_TIMER[1]>=0 DO M89
X189 Y159.5 F500
ID=1 WHEN $AC_TIMER[1]>=0 DO M88
X188.998 Y159.500 F300
ID=1 WHEN $AC_TIMER[1]>=0 DO M89
X102.005 Y159.496 F500
ID=1 WHEN $AC_TIMER[1]>=0 DO M88
X102.000 Y159.496 F300
ID=1 WHEN $AC_TIMER[1]>=0 DO M89
X102 Y160.496 F500
ID=1 WHEN $AC_TIMER[1]>=0 DO M88
X102.006 Y160.496 F300
ID=1 WHEN $AC_TIMER[1]>=0 DO M89
X188.998 Y160.5 F500
ID=1 WHEN $AC_TIMER[1]>=0 DO M88
X189.000 Y160.500 F300
ID=1 WHEN $AC_TIMER[1]>=0 DO M89
X189 Y161.5 F500
ID=1 WHEN $AC_TIMER[1]>=0 DO M88
X188.998 Y161.500 F300
ID=1 WHEN $AC_TIMER[1]>=0 DO M89
X102.006 Y161.496 F500
ID=1 WHEN $AC_TIMER[1]>=0 DO M88
X102.000 Y161.496 F300
ID=1 WHEN $AC_TIMER[1]>=0 DO M89
X102 Y162.496 F500
ID=1 WHEN $AC_TIMER[1]>=0 DO M88
X102.006 Y162.496 F300
ID=1 WHEN $AC_TIMER[1]>=0 DO M89
X188.998 Y162.5 F500
ID=1 WHEN $AC_TIMER[1]>=0 DO M88
X189.000 Y162.500 F300
ID=1 WHEN $AC_TIMER[1]>=0 DO M89
X189 Y163.5 F500
ID=1 WHEN $AC_TIMER[1]>=0 DO M88
X188.998 Y163.500 F300
ID=1 WHEN $AC_TIMER[1]>=0 DO M89
X102.006 Y163.496 F500
ID=1 WHEN $AC_TIMER[1]>=0 DO M88
X102.000 Y163.496 F300
ID=1 WHEN $AC_TIMER[1]>=0 DO M89
X102 Y164.496 F500
ID=1 WHEN $AC_TIMER[1]>=0 DO M88
X102.006 Y164.496 F300
ID=1 WHEN $AC_TIMER[1]>=0 DO M89
X188.998 Y164.5 F500
ID=1 WHEN $AC_TIMER[1]>=0 DO M88
X189.000 Y164.500 F300
ID=1 WHEN $AC_TIMER[1]>=0 DO M89
X189 Y165.5 F500
ID=1 WHEN $AC_TIMER[1]>=0 DO M88
X188.999 Y165.500 F300
ID=1 WHEN $AC_TIMER[1]>=0 DO M89
X102.006 Y165.496 F500
ID=1 WHEN $AC_TIMER[1]>=0 DO M88
X102.000 Y165.496 F300
ID=1 WHEN $AC_TIMER[1]>=0 DO M89
X102 Y166.496 F500
ID=1 WHEN $AC_TIMER[1]>=0 DO M88
X102.006 Y166.496 F300
ID=1 WHEN $AC_TIMER[1]>=0 DO M89
X188.999 Y166.5 F500
ID=1 WHEN $AC_TIMER[1]>=0 DO M88
X189.000 Y166.500 F300
ID=1 WHEN $AC_TIMER[1]>=0 DO M89
X189 Y167.5 F500
ID=1 WHEN $AC_TIMER[1]>=0 DO M88
X188.999 Y167.500 F300
ID=1 WHEN $AC_TIMER[1]>=0 DO M89
X102.006 Y167.496 F500
ID=1 WHEN $AC_TIMER[1]>=0 DO M88
X102.000 Y167.496 F300
ID=1 WHEN $AC_TIMER[1]>=0 DO M89
X102 Y168.496 F500
ID=1 WHEN $AC_TIMER[1]>=0 DO M88
X102.006 Y168.496 F300
ID=1 WHEN $AC_TIMER[1]>=0 DO M89
X188.999 Y168.5 F500
ID=1 WHEN $AC_TIMER[1]>=0 DO M88
X189.000 Y168.500 F300
ID=1 WHEN $AC_TIMER[1]>=0 DO M89
X189 Y169.5 F500
ID=1 WHEN $AC_TIMER[1]>=0 DO M88
X188.999 Y169.500 F300
ID=1 WHEN $AC_TIMER[1]>=0 DO M89
X102.007 Y169.496 F500
ID=1 WHEN $AC_TIMER[1]>=0 DO M88
X102.000 Y169.496 F300
ID=1 WHEN $AC_TIMER[1]>=0 DO M89
X102 Y170.496 F500
ID=1 WHEN $AC_TIMER[1]>=0 DO M88
X102.007 Y170.496 F300
ID=1 WHEN $AC_TIMER[1]>=0 DO M89
X188.999 Y170.5 F500
ID=1 WHEN $AC_TIMER[1]>=0 DO M88
X189.000 Y170.500 F300
ID=1 WHEN $AC_TIMER[1]>=0 DO M89
X189 Y171.5 F500
ID=1 WHEN $AC_TIMER[1]>=0 DO M88
X188.999 Y171.500 F300
ID=1 WHEN $AC_TIMER[1]>=0 DO M89
X102.007 Y171.496 F500
ID=1 WHEN $AC_TIMER[1]>=0 DO M88
X102.000 Y171.496 F300
ID=1 WHEN $AC_TIMER[1]>=0 DO M89
X102 Y172.496 F500
ID=1 WHEN $AC_TIMER[1]>=0 DO M88
X102.007 Y172.496 F300
ID=1 WHEN $AC_TIMER[1]>=0 DO M89
X188.999 Y172.5 F500
ID=1 WHEN $AC_TIMER[1]>=0 DO M88
X189.000 Y172.500 F300
ID=1 WHEN $AC_TIMER[1]>=0 DO M89
X189 Y173.5 F500
ID=1 WHEN $AC_TIMER[1]>=0 DO M88
X188.999 Y173.500 F300
ID=1 WHEN $AC_TIMER[1]>=0 DO M89
X102.007 Y173.496 F500
ID=1 WHEN $AC_TIMER[1]>=0 DO M88
X102.000 Y173.496 F300
ID=1 WHEN $AC_TIMER[1]>=0 DO M89
X102 Y174.496 F500
ID=1 WHEN $AC_TIMER[1]>=0 DO M88
X102.007 Y174.496 F300
ID=1 WHEN $AC_TIMER[1]>=0 DO M89
X188.999 Y174.5 F500
ID=1 WHEN $AC_TIMER[1]>=0 DO M88
X189.000 Y174.500 F300
ID=1 WHEN $AC_TIMER[1]>=0 DO M89
X189 Y175.5 F500
ID=1 WHEN $AC_TIMER[1]>=0 DO M88
X188.999 Y175.500 F300
ID=1 WHEN $AC_TIMER[1]>=0 DO M89
X102.007 Y175.496 F500
ID=1 WHEN $AC_TIMER[1]>=0 DO M88
X102.000 Y175.496 F300
ID=1 WHEN $AC_TIMER[1]>=0 DO M89
X102 Y176.496 F500
ID=1 WHEN $AC_TIMER[1]>=0 DO M88
X102.007 Y176.496 F300
ID=1 WHEN $AC_TIMER[1]>=0 DO M89
X189 Y176.5 F500
ID=1 WHEN $AC_TIMER[1]>=0 DO M88
X189.000 Y176.500 F300
ID=1 WHEN $AC_TIMER[1]>=0 DO M89
X189 Y177.5 F500
ID=1 WHEN $AC_TIMER[1]>=0 DO M88
X189.000 Y177.500 F300
ID=1 WHEN $AC_TIMER[1]>=0 DO M89
X102.007 Y177.496 F500
ID=1 WHEN $AC_TIMER[1]>=0 DO M88
X102.000 Y177.496 F300
ID=1 WHEN $AC_TIMER[1]>=0 DO M89
X102 Y178.496 F500
ID=1 WHEN $AC_TIMER[1]>=0 DO M88
X102.008 Y178.496 F300
ID=1 WHEN $AC_TIMER[1]>=0 DO M89
X189 Y178.5 F500
ID=1 WHEN $AC_TIMER[1]>=0 DO M88
X189.000 Y178.500 F300
ID=1 WHEN $AC_TIMER[1]>=0 DO M89
X189 Y179.5 F500
ID=1 WHEN $AC_TIMER[1]>=0 DO M88
X189.000 Y179.500 F300
ID=1 WHEN $AC_TIMER[1]>=0 DO M89
X102.008 Y179.496 F500
ID=1 WHEN $AC_TIMER[1]>=0 DO M88
X102.000 Y179.496 F300
ID=1 WHEN $AC_TIMER[1]>=0 DO M89
X102.007 Y180.496 F500
ID=1 WHEN $AC_TIMER[1]>=0 DO M88
X102.008 Y180.496 F300
ID=1 WHEN $AC_TIMER[1]>=0 DO M89
X186.503 Y186.5 F500
ID=1 WHEN $AC_TIMER[1]>=0 DO M88
X186.508 Y186.500 F300
ID=1 WHEN $AC_TIMER[1]>=0 DO M89
; Final do trecho do raster

; Layer 2
G1 Z2.000 F500
X102.607 Y185.78 F500
ID=1 WHEN $AC_TIMER[1]>=0 DO M88
X101.724 Y184.137 F300
X101.183 Y182.352
X101.000 Y180.476
X101.000 Y110.524
X101.183 Y108.648
X101.724 Y106.863
X102.607 Y105.220
X103.785 Y103.785
X105.220 Y102.607
X106.863 Y101.724
X108.648 Y101.183
X110.524 Y101.000
X180.476 Y101.000
X182.352 Y101.183
X184.137 Y101.724
X185.780 Y102.607
X187.215 Y103.785
X188.393 Y105.220
X189.276 Y106.863
X189.817 Y108.648
X190.000 Y110.524
X190.000 Y180.476
X189.817 Y182.352
X189.276 Y184.137
X188.393 Y185.780
X187.215 Y187.215
X185.780 Y188.393
X184.137 Y189.276
X182.352 Y189.817
X180.476 Y190.000
X110.524 Y190.000
X108.648 Y189.817
X106.863 Y189.276
X105.220 Y188.393
X103.785 Y187.215
X102.671 Y185.858
ID=1 WHEN $AC_TIMER[1]>=0 DO M89
X103 Y110.5 F500
ID=1 WHEN $AC_TIMER[1]>=0 DO M88
X103.002 Y180.547 F300
X103.132 Y181.917
X103.152 Y182.016
X103.552 Y183.326
X103.590 Y183.417
X104.240 Y184.627
X104.294 Y184.707
X105.164 Y185.767
X105.233 Y185.837
X106.293 Y186.706
X106.373 Y186.760
X107.583 Y187.410
X107.674 Y187.448
X108.984 Y187.848
X109.083 Y187.868
X110.500 Y188.000
X180.547 Y187.998
X181.917 Y187.868
X182.016 Y187.848
X183.326 Y187.448
X183.417 Y187.410
X184.627 Y186.760
X184.707 Y186.706
X185.767 Y185.836
X185.836 Y185.767
X186.706 Y184.707
X186.760 Y184.627
X187.410 Y183.417
X187.448 Y183.326
X187.848 Y182.016
X187.868 Y181.917
X188.000 Y180.500
X187.998 Y110.453
X187.868 Y109.083
X187.848 Y108.984
X187.448 Y107.674
X187.410 Y107.583
X186.760 Y106.373
X186.707 Y106.293
X185.836 Y105.233
X185.767 Y105.164
X184.707 Y104.294
X184.627 Y104.240
X183.417 Y103.590
X183.326 Y103.552
X182.016 Y103.152
X181.917 Y103.132
X180.500 Y103.000
X110.453 Y103.002
X109.083 Y103.132
X108.984 Y103.152
X107.674 Y103.552
X107.583 Y103.590
X106.373 Y104.240
X106.293 Y104.294
X105.233 Y105.164
X105.164 Y105.233
X104.294 Y106.293
X104.240 Y106.373
X103.590 Y107.583
X103.552 Y107.674
X103.152 Y108.984
X103.132 Y109.083
X103.009 Y110.400
ID=1 WHEN $AC_TIMER[1]>=0 DO M89

; Inicio do trecho do raster
X189 Y111.5 F500
ID=1 WHEN $AC_TIMER[1]>=0 DO M88
X188.993 Y111.500 F300
ID=1 WHEN $AC_TIMER[1]>=0 DO M89
X102 Y112.496 F500
ID=1 WHEN $AC_TIMER[1]>=0 DO M88
X102.000 Y112.496 F300
ID=1 WHEN $AC_TIMER[1]>=0 DO M89
X188.993 Y112.5 F500
ID=1 WHEN $AC_TIMER[1]>=0 DO M88
X189.000 Y112.500 F300
ID=1 WHEN $AC_TIMER[1]>=0 DO M89
X189 Y113.5 F500
ID=1 WHEN $AC_TIMER[1]>=0 DO M88
X188.994 Y113.500 F300
ID=1 WHEN $AC_TIMER[1]>=0 DO M89
X102 Y113.496 F500
ID=1 WHEN $AC_TIMER[1]>=0 DO M88
X102.000 Y113.496 F300
ID=1 WHEN $AC_TIMER[1]>=0 DO M89
X102 Y114.496 F500
ID=1 WHEN $AC_TIMER[1]>=0 DO M88
X102.000 Y114.496 F300
ID=1 WHEN $AC_TIMER[1]>=0 DO M89
X188.994 Y114.5 F500
ID=1 WHEN $AC_TIMER[1]>=0 DO M88
X189.000 Y114.500 F300
ID=1 WHEN $AC_TIMER[1]>=0 DO M89
X189 Y115.5 F500
ID=1 WHEN $AC_TIMER[1]>=0 DO M88
X188.994 Y115.500 F300
ID=1 WHEN $AC_TIMER[1]>=0 DO M89
X102 Y115.496 F500
ID=1 WHEN $AC_TIMER[1]>=0 DO M88
X102.000 Y115.496 F300
ID=1 WHEN $AC_TIMER[1]>=0 DO M89
X102 Y116.496 F500
ID=1 WHEN $AC_TIMER[1]>=0 DO M88
X102.001 Y116.496 F300
ID=1 WHEN $AC_TIMER[1]>=0 DO M89
X188.994 Y116.5 F500
ID=1 WHEN $AC_TIMER[1]>=0 DO M88
X189.000 Y116.500 F300
ID=1 WHEN $AC_TIMER[1]>=0 DO M89
X189 Y117.5 F500
ID=1 WHEN $AC_TIMER[1]>=0 DO M88
X188.994 Y117.500 F300
ID=1 WHEN $AC_TIMER[1]>=0 DO M89
X102.001 Y117.496 F500
ID=1 WHEN $AC_TIMER[1]>=0 DO M88
X102.000 Y117.496 F300
ID=1 WHEN $AC_TIMER[1]>=0 DO M89
X102 Y118.496 F500
ID=1 WHEN $AC_TIMER[1]>=0 DO M88
X102.001 Y118.496 F300
ID=1 WHEN $AC_TIMER[1]>=0 DO M89
X188.994 Y118.5 F500
ID=1 WHEN $AC_TIMER[1]>=0 DO M88
X189.000 Y118.500 F300
ID=1 WHEN $AC_TIMER[1]>=0 DO M89
X189 Y119.5 F500
ID=1 WHEN $AC_TIMER[1]>=0 DO M88
X188.994 Y119.500 F300
ID=1 WHEN $AC_TIMER[1]>=0 DO M89
X102.001 Y119.496 F500
ID=1 WHEN $AC_TIMER[1]>=0 DO M88
X102.000 Y119.496 F300
ID=1 WHEN $AC_TIMER[1]>=0 DO M89
X102 Y120.496 F500
ID=1 WHEN $AC_TIMER[1]>=0 DO M88
X102.001 Y120.496 F300
ID=1 WHEN $AC_TIMER[1]>=0 DO M89
X188.994 Y120.5 F500
ID=1 WHEN $AC_TIMER[1]>=0 DO M88
X189.000 Y120.500 F300
ID=1 WHEN $AC_TIMER[1]>=0 DO M89
X189 Y121.5 F500
ID=1 WHEN $AC_TIMER[1]>=0 DO M88
X188.994 Y121.500 F300
ID=1 WHEN $AC_TIMER[1]>=0 DO M89
X102.001 Y121.496 F500
ID=1 WHEN $AC_TIMER[1]>=0 DO M88
X102.000 Y121.496 F300
ID=1 WHEN $AC_TIMER[1]>=0 DO M89
X102 Y122.496 F500
ID=1 WHEN $AC_TIMER[1]>=0 DO M88
X102.001 Y122.496 F300
ID=1 WHEN $AC_TIMER[1]>=0 DO M89
X188.994 Y122.5 F500
ID=1 WHEN $AC_TIMER[1]>=0 DO M88
X189.000 Y122.500 F300
ID=1 WHEN $AC_TIMER[1]>=0 DO M89
X189 Y123.5 F500
ID=1 WHEN $AC_TIMER[1]>=0 DO M88
X188.995 Y123.500 F300
ID=1 WHEN $AC_TIMER[1]>=0 DO M89
X102.001 Y123.496 F500
ID=1 WHEN $AC_TIMER[1]>=0 DO M88
X102.000 Y123.496 F300
ID=1 WHEN $AC_TIMER[1]>=0 DO M89
X102 Y124.496 F500
ID=1 WHEN $AC_TIMER[1]>=0 DO M88
X102.001 Y124.496 F300
ID=1 WHEN $AC_TIMER[1]>=0 DO M89
X188.995 Y124.5 F500
ID=1 WHEN $AC_TIMER[1]>=0 DO M88
X189.000 Y124.500 F300
ID=1 WHEN $AC_TIMER[1]>=0 DO M89
X189 Y125.5 F500
ID=1 WHEN $AC_TIMER[1]>=0 DO M88
X188.995 Y125.500 F300
ID=1 WHEN $AC_TIMER[1]>=0 DO M89
X102.001 Y125.496 F500
ID=1 WHEN $AC_TIMER[1]>=0 DO M88
X102.000 Y125.496 F300
ID=1 WHEN $AC_TIMER[1]>=0 DO M89
X102 Y126.496 F500
ID=1 WHEN $AC_TIMER[1]>=0 DO M88
X102.002 Y126.496 F300
ID=1 WHEN $AC_TIMER[1]>=0 DO M89
X188.995 Y126.5 F500
ID=1 WHEN $AC_TIMER[1]>=0 DO M88
X189.000 Y126.500 F300
ID=1 WHEN $AC_TIMER[1]>=0 DO M89
X189 Y127.5 F500
ID=1 WHEN $AC_TIMER[1]>=0 DO M88
X188.995 Y127.500 F300
ID=1 WHEN $AC_TIMER[1]>=0 DO M89
X102.002 Y127.496 F500
ID=1 WHEN $AC_TIMER[1]>=0 DO M88
X102.000 Y127.496 F300
ID=1 WHEN $AC_TIMER[1]>=0 DO M89
X102 Y128.496 F500
ID=1 WHEN $AC_TIMER[1]>=0 DO M88
X102.002 Y128.496 F300
ID=1 WHEN $AC_TIMER[1]>=0 DO M89
X188.995 Y128.5 F500
ID=1 WHEN $AC_TIMER[1]>=0 DO M88
X189.000 Y128.500 F300
ID=1 WHEN $AC_TIMER[1]>=0 DO M89
X189 Y129.5 F500
ID=1 WHEN $AC_TIMER[1]>=0 DO M88
X188.995 Y129.500 F300
ID=1 WHEN $AC_TIMER[1]>=0 DO M89
X102.002 Y129.496 F500
ID=1 WHEN $AC_TIMER[1]>=0 DO M88
X102.000 Y129.496 F300
ID=1 WHEN $AC_TIMER[1]>=0 DO M89
X102 Y130.496 F500
ID=1 WHEN $AC_TIMER[1]>=0 DO M88
X102.002 Y130.496 F300
ID=1 WHEN $AC_TIMER[1]>=0 DO M89
X188.995 Y130.5 F500
ID=1 WHEN $AC_TIMER[1]>=0 DO M88
X189.000 Y130.500 F300
ID=1 WHEN $AC_TIMER[1]>=0 DO M89
X189 Y131.5 F500
ID=1 WHEN $AC_TIMER[1]>=0 DO M88
X188.995 Y131.500 F300
ID=1 WHEN $AC_TIMER[1]>=0 DO M89
X102.002 Y131.496 F500
ID=1 WHEN $AC_TIMER[1]>=0 DO M88
X102.000 Y131.496 F300
ID=1 WHEN $AC_TIMER[1]>=0 DO M89
X102 Y132.496 F500
ID=1 WHEN $AC_TIMER[1]>=0 DO M88
X102.002 Y132.496 F300
ID=1 WHEN $AC_TIMER[1]>=0 DO M89
X188.995 Y132.5 F500
ID=1 WHEN $AC_TIMER[1]>=0 DO M88
X189.000 Y132.500 F300
ID=1 WHEN $AC_TIMER[1]>=0 DO M89
X189 Y133.5 F500
ID=1 WHEN $AC_TIMER[1]>=0 DO M88
X188.995 Y133.500 F300
ID=1 WHEN $AC_TIMER[1]>=0 DO M89
X102.002 Y133.496 F500
ID=1 WHEN $AC_TIMER[1]>=0 DO M88
X102.000 Y133.496 F300
ID=1 WHEN $AC_TIMER[1]>=0 DO M89
X102 Y134.496 F500
ID=1 WHEN $AC_TIMER[1]>=0 DO M88
X102.002 Y134.496 F300
ID=1 WHEN $AC_TIMER[1]>=0 DO M89
X188.996 Y134.5 F500
ID=1 WHEN $AC_TIMER[1]>=0 DO M88
X189.000 Y134.500 F300
ID=1 WHEN $AC_TIMER[1]>=0 DO M89
X189 Y135.5 F500
ID=1 WHEN $AC_TIMER[1]>=0 DO M88
X188.996 Y135.500 F300
ID=1 WHEN $AC_TIMER[1]>=0 DO M89
X102.002 Y135.496 F500
ID=1 WHEN $AC_TIMER[1]>=0 DO M88
X102.000 Y135.496 F300
ID=1 WHEN $AC_TIMER[1]>=0 DO M89
X102 Y136.496 F500
ID=1 WHEN $AC_TIMER[1]>=0 DO M88
X102.002 Y136.496 F300
ID=1 WHEN $AC_TIMER[1]>=0 DO M89
X188.996 Y136.5 F500
ID=1 WHEN $AC_TIMER[1]>=0 DO M88
X189.000 Y136.500 F300
ID=1 WHEN $AC_TIMER[1]>=0 DO M89
X189 Y137.5 F500
ID=1 WHEN $AC_TIMER[1]>=0 DO M88
X188.996 Y137.500 F300
ID=1 WHEN $AC_TIMER[1]>=0 DO M89
X102.003 Y137.496 F500
ID=1 WHEN $AC_TIMER[1]>=0 DO M88
X102.000 Y137.496 F300
ID=1 WHEN $AC_TIMER[1]>=0 DO M89
X102 Y138.496 F500
ID=1 WHEN $AC_TIMER[1]>=0 DO M88
X102.003 Y138.496 F300
ID=1 WHEN $AC_TIMER[1]>=0 DO M89
X188.996 Y138.5 F500
ID=1 WHEN $AC_TIMER[1]>=0 DO M88
X189.000 Y138.500 F300
ID=1 WHEN $AC_TIMER[1]>=0 DO M89
X189 Y139.5 F500
ID=1 WHEN $AC_TIMER[1]>=0 DO M88
X188.996 Y139.500 F300
ID=1 WHEN $AC_TIMER[1]>=0 DO M89
X102.003 Y139.496 F500
ID=1 WHEN $AC_TIMER[1]>=0 DO M88
X102.000 Y139.496 F300
ID=1 WHEN $AC_TIMER[1]>=0 DO M89
X102 Y140.496 F500
ID=1 WHEN $AC_TIMER[1]>=0 DO M88
X102.003 Y140.496 F300
ID=1 WHEN $AC_TIMER[1]>=0 DO M89
X188.996 Y140.5 F500
ID=1 WHEN $AC_TIMER[1]>=0 DO M88
X189.000 Y140.500 F300
ID=1 WHEN $AC_TIMER[1]>=0 DO M89
X189 Y141.5 F500
ID=1 WHEN $AC_TIMER[1]>=0 DO M88
X188.996 Y141.500 F300
ID=1 WHEN $AC_TIMER[1]>=0 DO M89
X102.003 Y141.496 F500
ID=1 WHEN $AC_TIMER[1]>=0 DO M88
X102.000 Y141.496 F300
ID=1 WHEN $AC_TIMER[1]>=0 DO M89
X102 Y142.496 F500
ID=1 WHEN $AC_TIMER[1]>=0 DO M88
X102.003 Y142.496 F300
ID=1 WHEN $AC_TIMER[1]>=0 DO M89
X188.996 Y142.5 F500
ID=1 WHEN $AC_TIMER[1]>=0 DO M88
X189.000 Y142.500 F300
ID=1 WHEN $AC_TIMER[1]>=0 DO M89
X189 Y143.5 F500
ID=1 WHEN $AC_TIMER[1]>=0 DO M88
X188.996 Y143.500 F300
ID=1 WHEN $AC_TIMER[1]>=0 DO M89
X102.003 Y143.496 F500
ID=1 WHEN $AC_TIMER[1]>=0 DO M88
X102.000 Y143.496 F300
ID=1 WHEN $AC_TIMER[1]>=0 DO M89
X102 Y144.496 F500
ID=1 WHEN $AC_TIMER[1]>=0 DO M88
X102.003 Y144.496 F300
ID=1 WHEN $AC_TIMER[1]>=0 DO M89
X188.997 Y144.5 F500
ID=1 WHEN $AC_TIMER[1]>=0 DO M88
X189.000 Y144.500 F300
ID=1 WHEN $AC_TIMER[1]>=0 DO M89
X189 Y145.5 F500
ID=1 WHEN $AC_TIMER[1]>=0 DO M88
X188.997 Y145.500 F300
ID=1 WHEN $AC_TIMER[1]>=0 DO M89
X102.003 Y145.496 F500
ID=1 WHEN $AC_TIMER[1]>=0 DO M88
X102.000 Y145.496 F300
ID=1 WHEN $AC_TIMER[1]>=0 DO M89
X102 Y146.496 F500
ID=1 WHEN $AC_TIMER[1]>=0 DO M88
X102.003 Y146.496 F300
ID=1 WHEN $AC_TIMER[1]>=0 DO M89
X188.997 Y146.5 F500
ID=1 WHEN $AC_TIMER[1]>=0 DO M88
X189.000 Y146.500 F300
ID=1 WHEN $AC_TIMER[1]>=0 DO M89
X189 Y147.5 F500
ID=1 WHEN $AC_TIMER[1]>=0 DO M88
X188.997 Y147.500 F300
ID=1 WHEN $AC_TIMER[1]>=0 DO M89
X102.004 Y147.496 F500
ID=1 WHEN $AC_TIMER[1]>=0 DO M88
X102.000 Y147.496 F300
ID=1 WHEN $AC_TIMER[1]>=0 DO M89
X102 Y148.496 F500
ID=1 WHEN $AC_TIMER[1]>=0 DO M88
X102.004 Y148.496 F300
ID=1 WHEN $AC_TIMER[1]>=0 DO M89
X188.997 Y148.5 F500
ID=1 WHEN $AC_TIMER[1]>=0 DO M88
X189.000 Y148.500 F300
ID=1 WHEN $AC_TIMER[1]>=0 DO M89
X189 Y149.5 F500
ID=1 WHEN $AC_TIMER[1]>=0 DO M88
X188.997 Y149.500 F300
ID=1 WHEN $AC_TIMER[1]>=0 DO M89
X102.004 Y149.496 F500
ID=1 WHEN $AC_TIMER[1]>=0 DO M88
X102.000 Y149.496 F300
ID=1 WHEN $AC_TIMER[1]>=0 DO M89
X102 Y150.496 F500
ID=1 WHEN $AC_TIMER[1]>=0 DO M88
X102.004 Y150.496 F300
ID=1 WHEN $AC_TIMER[1]>=0 DO M89
X188.997 Y150.5 F500
ID=1 WHEN $AC_TIMER[1]>=0 DO M88
X189.000 Y150.500 F300
ID=1 WHEN $AC_TIMER[1]>=0 DO M89
X189 Y151.5 F500
ID=1 WHEN $AC_TIMER[1]>=0 DO M88
X188.997 Y151.500 F300
ID=1 WHEN $AC_TIMER[1]>=0 DO M89
X102.004 Y151.496 F500
ID=1 WHEN $AC_TIMER[1]>=0 DO M88
X102.000 Y151.496 F300
ID=1 WHEN $AC_TIMER[1]>=0 DO M89
X102 Y152.496 F500
ID=1 WHEN $AC_TIMER[1]>=0 DO M88
X102.004 Y152.496 F300
ID=1 WHEN $AC_TIMER[1]>=0 DO M89
X188.997 Y152.5 F500
ID=1 WHEN $AC_TIMER[1]>=0 DO M88
X189.000 Y152.500 F300
ID=1 WHEN $AC_TIMER[1]>=0 DO M89
X189 Y153.5 F500
ID=1 WHEN $AC_TIMER[1]>=0 DO M88
X188.997 Y153.500 F300
ID=1 WHEN $AC_TIMER[1]>=0 DO M89
X102.004 Y153.496 F500
ID=1 WHEN $AC_TIMER[1]>=0 DO M88
X102.000 Y153.496 F300
ID=1 WHEN $AC_TIMER[1]>=0 DO M89
X102 Y154.496 F500
ID=1 WHEN $AC_TIMER[1]>=0 DO M88
X102.004 Y154.496 F300
ID=1 WHEN $AC_TIMER[1]>=0 DO M89
X188.998 Y154.5 F500
ID=1 WHEN $AC_TIMER[1]>=0 DO M88
X189.000 Y154.500 F300
ID=1 WHEN $AC_TIMER[1]>=0 DO M89
X189 Y155.5 F500
ID=1 WHEN $AC_TIMER[1]>=0 DO M88
X188.998 Y155.500 F300
ID=1 WHEN $AC_TIMER[1]>=0 DO M89
X102.004 Y155.496 F500
ID=1 WHEN $AC_TIMER[1]>=0 DO M88
X102.000 Y155.496 F300
ID=1 WHEN $AC_TIMER[1]>=0 DO M89
X102 Y156.496 F500
ID=1 WHEN $AC_TIMER[1]>=0 DO M88
X102.004 Y156.496 F300
ID=1 WHEN $AC_TIMER[1]>=0 DO M89
X188.998 Y156.5 F500
ID=1 WHEN $AC_TIMER[1]>=0 DO M88
X189.000 Y156.500 F300
ID=1 WHEN $AC_TIMER[1]>=0 DO M89
X189 Y157.5 F500
ID=1 WHEN $AC_TIMER[1]>=0 DO M88
X188.998 Y157.500 F300
ID=1 WHEN $AC_TIMER[1]>=0 DO M89
X102.004 Y157.496 F500
ID=1 WHEN $AC_TIMER[1]>=0 DO M88
X102.000 Y157.496 F300
ID=1 WHEN $AC_TIMER[1]>=0 DO M89
X102 Y158.496 F500
ID=1 WHEN $AC_TIMER[1]>=0 DO M88
X102.005 Y158.496 F300
ID=1 WHEN $AC_TIMER[1]>=0 DO M89
X188.998 Y158.5 F500
ID=1 WHEN $AC_TIMER[1]>=0 DO M88
X189.000 Y158.500 F300
ID=1 WHEN $AC_TIMER[1]>=0 DO M89
X189 Y159.5 F500
ID=1 WHEN $AC_TIMER[1]>=0 DO M88
X188.998 Y159.500 F300
ID=1 WHEN $AC_TIMER[1]>=0 DO M89
X102.005 Y159.496 F500
ID=1 WHEN $AC_TIMER[1]>=0 DO M88
X102.000 Y159.496 F300
ID=1 WHEN $AC_TIMER[1]>=0 DO M89
X102 Y160.496 F500
ID=1 WHEN $AC_TIMER[1]>=0 DO M88
X102.005 Y160.496 F300
ID=1 WHEN $AC_TIMER[1]>=0 DO M89
X188.998 Y160.5 F500
ID=1 WHEN $AC_TIMER[1]>=0 DO M88
X189.000 Y160.500 F300
ID=1 WHEN $AC_TIMER[1]>=0 DO M89
X189 Y161.5 F500
ID=1 WHEN $AC_TIMER[1]>=0 DO M88
X188.998 Y161.500 F300
ID=1 WHEN $AC_TIMER[1]>=0 DO M89
X102.005 Y161.496 F500
ID=1 WHEN $AC_TIMER[1]>=0 DO M88
X102.000 Y161.496 F300
ID=1 WHEN $AC_TIMER[1]>=0 DO M89
X102 Y162.496 F500
ID=1 WHEN $AC_TIMER[1]>=0 DO M88
X102.005 Y162.496 F300
ID=1 WHEN $AC_TIMER[1]>=0 DO M89
X188.998 Y162.5 F500
ID=1 WHEN $AC_TIMER[1]>=0 DO M88
X189.000 Y162.500 F300
ID=1 WHEN $AC_TIMER[1]>=0 DO M89
X189 Y163.5 F500
ID=1 WHEN $AC_TIMER[1]>=0 DO M88
X188.998 Y163.500 F300
ID=1 WHEN $AC_TIMER[1]>=0 DO M89
X102.005 Y163.496 F500
ID=1 WHEN $AC_TIMER[1]>=0 DO M88
X102.000 Y163.496 F300
ID=1 WHEN $AC_TIMER[1]>=0 DO M89
X102 Y164.496 F500
ID=1 WHEN $AC_TIMER[1]>=0 DO M88
X102.005 Y164.496 F300
ID=1 WHEN $AC_TIMER[1]>=0 DO M89
X188.998 Y164.5 F500
ID=1 WHEN $AC_TIMER[1]>=0 DO M88
X189.000 Y164.500 F300
ID=1 WHEN $AC_TIMER[1]>=0 DO M89
X189 Y165.5 F500
ID=1 WHEN $AC_TIMER[1]>=0 DO M88
X188.999 Y165.500 F300
ID=1 WHEN $AC_TIMER[1]>=0 DO M89
X102.005 Y165.496 F500
ID=1 WHEN $AC_TIMER[1]>=0 DO M88
X102.000 Y165.496 F300
ID=1 WHEN $AC_TIMER[1]>=0 DO M89
X102 Y166.496 F500
ID=1 WHEN $AC_TIMER[1]>=0 DO M88
X102.005 Y166.496 F300
ID=1 WHEN $AC_TIMER[1]>=0 DO M89
X188.999 Y166.5 F500
ID=1 WHEN $AC_TIMER[1]>=0 DO M88
X189.000 Y166.500 F300
ID=1 WHEN $AC_TIMER[1]>=0 DO M89
X189 Y167.5 F500
ID=1 WHEN $AC_TIMER[1]>=0 DO M88
X188.999 Y167.500 F300
ID=1 WHEN $AC_TIMER[1]>=0 DO M89
X102.005 Y167.496 F500
ID=1 WHEN $AC_TIMER[1]>=0 DO M88
X102.000 Y167.496 F300
ID=1 WHEN $AC_TIMER[1]>=0 DO M89
X102 Y168.496 F500
ID=1 WHEN $AC_TIMER[1]>=0 DO M88
X102.006 Y168.496 F300
ID=1 WHEN $AC_TIMER[1]>=0 DO M89
X188.999 Y168.5 F500
ID=1 WHEN $AC_TIMER[1]>=0 DO M88
X189.000 Y168.500 F300
ID=1 WHEN $AC_TIMER[1]>=0 DO M89
X189 Y169.5 F500
ID=1 WHEN $AC_TIMER[1]>=0 DO M88
X188.999 Y169.500 F300
ID=1 WHEN $AC_TIMER[1]>=0 DO M89
X102.006 Y169.496 F500
ID=1 WHEN $AC_TIMER[1]>=0 DO M88
X102.000 Y169.496 F300
ID=1 WHEN $AC_TIMER[1]>=0 DO M89
X102 Y170.496 F500
ID=1 WHEN $AC_TIMER[1]>=0 DO M88
X102.006 Y170.496 F300
ID=1 WHEN $AC_TIMER[1]>=0 DO M89
X188.999 Y170.5 F500
ID=1 WHEN $AC_TIMER[1]>=0 DO M88
X189.000 Y170.500 F300
ID=1 WHEN $AC_TIMER[1]>=0 DO M89
X189 Y171.5 F500
ID=1 WHEN $AC_TIMER[1]>=0 DO M88
X188.999 Y171.500 F300
ID=1 WHEN $AC_TIMER[1]>=0 DO M89
X102.006 Y171.496 F500
ID=1 WHEN $AC_TIMER[1]>=0 DO M88
X102.000 Y171.496 F300
ID=1 WHEN $AC_TIMER[1]>=0 DO M89
X102 Y172.496 F500
ID=1 WHEN $AC_TIMER[1]>=0 DO M88
X102.006 Y172.496 F300
ID=1 WHEN $AC_TIMER[1]>=0 DO M89
X188.999 Y172.5 F500
ID=1 WHEN $AC_TIMER[1]>=0 DO M88
X189.000 Y172.500 F300
ID=1 WHEN $AC_TIMER[1]>=0 DO M89
X189 Y173.5 F500
ID=1 WHEN $AC_TIMER[1]>=0 DO M88
X188.999 Y173.500 F300
ID=1 WHEN $AC_TIMER[1]>=0 DO M89
X102.006 Y173.496 F500
ID=1 WHEN $AC_TIMER[1]>=0 DO M88
X102.000 Y173.496 F300
ID=1 WHEN $AC_TIMER[1]>=0 DO M89
X102 Y174.496 F500
ID=1 WHEN $AC_TIMER[1]>=0 DO M88
X102.006 Y174.496 F300
ID=1 WHEN $AC_TIMER[1]>=0 DO M89
X188.999 Y174.5 F500
ID=1 WHEN $AC_TIMER[1]>=0 DO M88
X189.000 Y174.500 F300
ID=1 WHEN $AC_TIMER[1]>=0 DO M89
X189 Y175.5 F500
ID=1 WHEN $AC_TIMER[1]>=0 DO M88
X189.000 Y175.500 F300
ID=1 WHEN $AC_TIMER[1]>=0 DO M89
X102.006 Y175.496 F500
ID=1 WHEN $AC_TIMER[1]>=0 DO M88
X102.000 Y175.496 F300
ID=1 WHEN $AC_TIMER[1]>=0 DO M89
X102 Y176.496 F500
ID=1 WHEN $AC_TIMER[1]>=0 DO M88
X102.006 Y176.496 F300
ID=1 WHEN $AC_TIMER[1]>=0 DO M89
X189 Y176.5 F500
ID=1 WHEN $AC_TIMER[1]>=0 DO M88
X189.000 Y176.500 F300
ID=1 WHEN $AC_TIMER[1]>=0 DO M89
X189 Y177.5 F500
ID=1 WHEN $AC_TIMER[1]>=0 DO M88
X189.000 Y177.500 F300
ID=1 WHEN $AC_TIMER[1]>=0 DO M89
X102.006 Y177.496 F500
ID=1 WHEN $AC_TIMER[1]>=0 DO M88
X102.000 Y177.496 F300
ID=1 WHEN $AC_TIMER[1]>=0 DO M89
X102 Y178.496 F500
ID=1 WHEN $AC_TIMER[1]>=0 DO M88
X102.007 Y178.496 F300
ID=1 WHEN $AC_TIMER[1]>=0 DO M89
X189 Y178.5 F500
ID=1 WHEN $AC_TIMER[1]>=0 DO M88
X189.000 Y178.500 F300
ID=1 WHEN $AC_TIMER[1]>=0 DO M89
X189 Y179.5 F500
ID=1 WHEN $AC_TIMER[1]>=0 DO M88
X102.007 Y179.496 F300
ID=1 WHEN $AC_TIMER[1]>=0 DO M89
; Final do trecho do raster

; Layer 3
G1 Z3.000 F500
X102.607 Y185.78 F500
ID=1 WHEN $AC_TIMER[1]>=0 DO M88
X101.724 Y184.137 F300
X101.183 Y182.352
X101.000 Y180.476
X101.000 Y110.524
X101.183 Y108.648
X101.724 Y106.863
X102.607 Y105.220
X103.785 Y103.785
X105.220 Y102.607
X106.863 Y101.724
X108.648 Y101.183
X110.524 Y101.000
X180.476 Y101.000
X182.352 Y101.183
X184.137 Y101.724
X185.780 Y102.607
X187.215 Y103.785
X188.393 Y105.220
X189.276 Y106.863
X189.817 Y108.648
X190.000 Y110.524
X190.000 Y180.476
X189.817 Y182.352
X189.276 Y184.137
X188.393 Y185.780
X187.215 Y187.215
X185.780 Y188.393
X184.137 Y189.276
X182.352 Y189.817
X180.476 Y190.000
X110.524 Y190.000
X108.648 Y189.817
X106.863 Y189.276
X105.220 Y188.393
X103.785 Y187.215
X102.671 Y185.858
ID=1 WHEN $AC_TIMER[1]>=0 DO M89
X103 Y110.5 F500
ID=1 WHEN $AC_TIMER[1]>=0 DO M88
X103.002 Y180.547 F300
X103.132 Y181.917
X103.152 Y182.016
X103.552 Y183.326
X103.590 Y183.417
X104.294 Y184.707
X105.164 Y185.767
X105.233 Y185.837
X106.293 Y186.706
X106.373 Y186.760
X107.583 Y187.410
X107.674 Y187.448
X108.984 Y187.848
X109.083 Y187.868
X110.500 Y188.000
X180.547 Y187.998
X181.917 Y187.868
X182.016 Y187.848
X183.326 Y187.448
X183.417 Y187.410
X184.627 Y186.760
X184.707 Y186.706
X185.767 Y185.836
X185.836 Y185.767
X186.706 Y184.707
X186.760 Y184.627
X187.410 Y183.417
X187.448 Y183.326
X187.848 Y182.016
X187.868 Y181.917
X188.000 Y180.500
X187.998 Y110.453
X187.868 Y109.083
X187.848 Y108.984
X187.448 Y107.674
X187.410 Y107.583
X186.760 Y106.373
X186.707 Y106.293
X185.836 Y105.233
X185.767 Y105.164
X184.707 Y104.294
X184.627 Y104.240
X183.417 Y103.590
X183.326 Y103.552
X182.016 Y103.152
X181.917 Y103.132
X180.500 Y103.000
X110.453 Y103.002
X109.083 Y103.132
X108.984 Y103.152
X107.674 Y103.552
X107.583 Y103.590
X106.373 Y104.240
X106.293 Y104.294
X105.233 Y105.164
X105.164 Y105.233
X104.294 Y106.293
X104.240 Y106.373
X103.590 Y107.583
X103.552 Y107.674
X103.152 Y108.984
X103.132 Y109.083
X103.009 Y110.400
ID=1 WHEN $AC_TIMER[1]>=0 DO M89

; Inicio do trecho do raster
X189 Y111.5 F500
ID=1 WHEN $AC_TIMER[1]>=0 DO M88
X188.993 Y111.500 F300
ID=1 WHEN $AC_TIMER[1]>=0 DO M89
X102 Y112.496 F500
ID=1 WHEN $AC_TIMER[1]>=0 DO M88
X102.000 Y112.496 F300
ID=1 WHEN $AC_TIMER[1]>=0 DO M89
X188.993 Y112.5 F500
ID=1 WHEN $AC_TIMER[1]>=0 DO M88
X189.000 Y112.500 F300
ID=1 WHEN $AC_TIMER[1]>=0 DO M89
X189 Y113.5 F500
ID=1 WHEN $AC_TIMER[1]>=0 DO M88
X188.994 Y113.500 F300
ID=1 WHEN $AC_TIMER[1]>=0 DO M89
X102 Y113.496 F500
ID=1 WHEN $AC_TIMER[1]>=0 DO M88
X102.000 Y113.496 F300
ID=1 WHEN $AC_TIMER[1]>=0 DO M89
X102 Y114.496 F500
ID=1 WHEN $AC_TIMER[1]>=0 DO M88
X102.000 Y114.496 F300
ID=1 WHEN $AC_TIMER[1]>=0 DO M89
X188.994 Y114.5 F500
ID=1 WHEN $AC_TIMER[1]>=0 DO M88
X189.000 Y114.500 F300
ID=1 WHEN $AC_TIMER[1]>=0 DO M89
X189 Y115.5 F500
ID=1 WHEN $AC_TIMER[1]>=0 DO M88
X188.994 Y115.500 F300
ID=1 WHEN $AC_TIMER[1]>=0 DO M89
X102 Y115.496 F500
ID=1 WHEN $AC_TIMER[1]>=0 DO M88
X102.000 Y115.496 F300
ID=1 WHEN $AC_TIMER[1]>=0 DO M89
X102 Y116.496 F500
ID=1 WHEN $AC_TIMER[1]>=0 DO M88
X102.001 Y116.496 F300
ID=1 WHEN $AC_TIMER[1]>=0 DO M89
X188.994 Y116.5 F500
ID=1 WHEN $AC_TIMER[1]>=0 DO M88
X189.000 Y116.500 F300
ID=1 WHEN $AC_TIMER[1]>=0 DO M89
X189 Y117.5 F500
ID=1 WHEN $AC_TIMER[1]>=0 DO M88
X188.994 Y117.500 F300
ID=1 WHEN $AC_TIMER[1]>=0 DO M89
X102.001 Y117.496 F500
ID=1 WHEN $AC_TIMER[1]>=0 DO M88
X102.000 Y117.496 F300
ID=1 WHEN $AC_TIMER[1]>=0 DO M89
X102 Y118.496 F500
ID=1 WHEN $AC_TIMER[1]>=0 DO M88
X102.001 Y118.496 F300
ID=1 WHEN $AC_TIMER[1]>=0 DO M89
X188.994 Y118.5 F500
ID=1 WHEN $AC_TIMER[1]>=0 DO M88
X189.000 Y118.500 F300
ID=1 WHEN $AC_TIMER[1]>=0 DO M89
X189 Y119.5 F500
ID=1 WHEN $AC_TIMER[1]>=0 DO M88
X188.994 Y119.500 F300
ID=1 WHEN $AC_TIMER[1]>=0 DO M89
X102.001 Y119.496 F500
ID=1 WHEN $AC_TIMER[1]>=0 DO M88
X102.000 Y119.496 F300
ID=1 WHEN $AC_TIMER[1]>=0 DO M89
X102 Y120.496 F500
ID=1 WHEN $AC_TIMER[1]>=0 DO M88
X102.001 Y120.496 F300
ID=1 WHEN $AC_TIMER[1]>=0 DO M89
X188.994 Y120.5 F500
ID=1 WHEN $AC_TIMER[1]>=0 DO M88
X189.000 Y120.500 F300
ID=1 WHEN $AC_TIMER[1]>=0 DO M89
X189 Y121.5 F500
ID=1 WHEN $AC_TIMER[1]>=0 DO M88
X188.994 Y121.500 F300
ID=1 WHEN $AC_TIMER[1]>=0 DO M89
X102.001 Y121.496 F500
ID=1 WHEN $AC_TIMER[1]>=0 DO M88
X102.000 Y121.496 F300
ID=1 WHEN $AC_TIMER[1]>=0 DO M89
X102 Y122.496 F500
ID=1 WHEN $AC_TIMER[1]>=0 DO M88
X102.001 Y122.496 F300
ID=1 WHEN $AC_TIMER[1]>=0 DO M89
X188.994 Y122.5 F500
ID=1 WHEN $AC_TIMER[1]>=0 DO M88
X189.000 Y122.500 F300
ID=1 WHEN $AC_TIMER[1]>=0 DO M89
X189 Y123.5 F500
ID=1 WHEN $AC_TIMER[1]>=0 DO M88
X188.995 Y123.500 F300
ID=1 WHEN $AC_TIMER[1]>=0 DO M89
X102.001 Y123.496 F500
ID=1 WHEN $AC_TIMER[1]>=0 DO M88
X102.000 Y123.496 F300
ID=1 WHEN $AC_TIMER[1]>=0 DO M89
X102 Y124.496 F500
ID=1 WHEN $AC_TIMER[1]>=0 DO M88
X102.001 Y124.496 F300
ID=1 WHEN $AC_TIMER[1]>=0 DO M89
X188.995 Y124.5 F500
ID=1 WHEN $AC_TIMER[1]>=0 DO M88
X189.000 Y124.500 F300
ID=1 WHEN $AC_TIMER[1]>=0 DO M89
X189 Y125.5 F500
ID=1 WHEN $AC_TIMER[1]>=0 DO M88
X188.995 Y125.500 F300
ID=1 WHEN $AC_TIMER[1]>=0 DO M89
X102.001 Y125.496 F500
ID=1 WHEN $AC_TIMER[1]>=0 DO M88
X102.000 Y125.496 F300
ID=1 WHEN $AC_TIMER[1]>=0 DO M89
X102 Y126.496 F500
ID=1 WHEN $AC_TIMER[1]>=0 DO M88
X102.002 Y126.496 F300
ID=1 WHEN $AC_TIMER[1]>=0 DO M89
X188.995 Y126.5 F500
ID=1 WHEN $AC_TIMER[1]>=0 DO M88
X189.000 Y126.500 F300
ID=1 WHEN $AC_TIMER[1]>=0 DO M89
X189 Y127.5 F500
ID=1 WHEN $AC_TIMER[1]>=0 DO M88
X188.995 Y127.500 F300
ID=1 WHEN $AC_TIMER[1]>=0 DO M89
X102.002 Y127.496 F500
ID=1 WHEN $AC_TIMER[1]>=0 DO M88
X102.000 Y127.496 F300
ID=1 WHEN $AC_TIMER[1]>=0 DO M89
X102 Y128.496 F500
ID=1 WHEN $AC_TIMER[1]>=0 DO M88
X102.002 Y128.496 F300
ID=1 WHEN $AC_TIMER[1]>=0 DO M89
X188.995 Y128.5 F500
ID=1 WHEN $AC_TIMER[1]>=0 DO M88
X189.000 Y128.500 F300
ID=1 WHEN $AC_TIMER[1]>=0 DO M89
X189 Y129.5 F500
ID=1 WHEN $AC_TIMER[1]>=0 DO M88
X188.995 Y129.500 F300
ID=1 WHEN $AC_TIMER[1]>=0 DO M89
X102.002 Y129.496 F500
ID=1 WHEN $AC_TIMER[1]>=0 DO M88
X102.000 Y129.496 F300
ID=1 WHEN $AC_TIMER[1]>=0 DO M89
X102 Y130.496 F500
ID=1 WHEN $AC_TIMER[1]>=0 DO M88
X102.002 Y130.496 F300
ID=1 WHEN $AC_TIMER[1]>=0 DO M89
X188.995 Y130.5 F500
ID=1 WHEN $AC_TIMER[1]>=0 DO M88
X189.000 Y130.500 F300
ID=1 WHEN $AC_TIMER[1]>=0 DO M89
X189 Y131.5 F500
ID=1 WHEN $AC_TIMER[1]>=0 DO M88
X188.995 Y131.500 F300
ID=1 WHEN $AC_TIMER[1]>=0 DO M89
X102.002 Y131.496 F500
ID=1 WHEN $AC_TIMER[1]>=0 DO M88
X102.000 Y131.496 F300
ID=1 WHEN $AC_TIMER[1]>=0 DO M89
X102 Y132.496 F500
ID=1 WHEN $AC_TIMER[1]>=0 DO M88
X102.002 Y132.496 F300
ID=1 WHEN $AC_TIMER[1]>=0 DO M89
X188.995 Y132.5 F500
ID=1 WHEN $AC_TIMER[1]>=0 DO M88
X189.000 Y132.500 F300
ID=1 WHEN $AC_TIMER[1]>=0 DO M89
X189 Y133.5 F500
ID=1 WHEN $AC_TIMER[1]>=0 DO M88
X188.995 Y133.500 F300
ID=1 WHEN $AC_TIMER[1]>=0 DO M89
X102.002 Y133.496 F500
ID=1 WHEN $AC_TIMER[1]>=0 DO M88
X102.000 Y133.496 F300
ID=1 WHEN $AC_TIMER[1]>=0 DO M89
X102 Y134.496 F500
ID=1 WHEN $AC_TIMER[1]>=0 DO M88
X102.002 Y134.496 F300
ID=1 WHEN $AC_TIMER[1]>=0 DO M89
X188.996 Y134.5 F500
ID=1 WHEN $AC_TIMER[1]>=0 DO M88
X189.000 Y134.500 F300
ID=1 WHEN $AC_TIMER[1]>=0 DO M89
X189 Y135.5 F500
ID=1 WHEN $AC_TIMER[1]>=0 DO M88
X188.996 Y135.500 F300
ID=1 WHEN $AC_TIMER[1]>=0 DO M89
X102.002 Y135.496 F500
ID=1 WHEN $AC_TIMER[1]>=0 DO M88
X102.000 Y135.496 F300
ID=1 WHEN $AC_TIMER[1]>=0 DO M89
X102 Y136.496 F500
ID=1 WHEN $AC_TIMER[1]>=0 DO M88
X102.002 Y136.496 F300
ID=1 WHEN $AC_TIMER[1]>=0 DO M89
X188.996 Y136.5 F500
ID=1 WHEN $AC_TIMER[1]>=0 DO M88
X189.000 Y136.500 F300
ID=1 WHEN $AC_TIMER[1]>=0 DO M89
X189 Y137.5 F500
ID=1 WHEN $AC_TIMER[1]>=0 DO M88
X188.996 Y137.500 F300
ID=1 WHEN $AC_TIMER[1]>=0 DO M89
X102.003 Y137.496 F500
ID=1 WHEN $AC_TIMER[1]>=0 DO M88
X102.000 Y137.496 F300
ID=1 WHEN $AC_TIMER[1]>=0 DO M89
X102 Y138.496 F500
ID=1 WHEN $AC_TIMER[1]>=0 DO M88
X102.003 Y138.496 F300
ID=1 WHEN $AC_TIMER[1]>=0 DO M89
X188.996 Y138.5 F500
ID=1 WHEN $AC_TIMER[1]>=0 DO M88
X189.000 Y138.500 F300
ID=1 WHEN $AC_TIMER[1]>=0 DO M89
X189 Y139.5 F500
ID=1 WHEN $AC_TIMER[1]>=0 DO M88
X188.996 Y139.500 F300
ID=1 WHEN $AC_TIMER[1]>=0 DO M89
X102.003 Y139.496 F500
ID=1 WHEN $AC_TIMER[1]>=0 DO M88
X102.000 Y139.496 F300
ID=1 WHEN $AC_TIMER[1]>=0 DO M89
X102 Y140.496 F500
ID=1 WHEN $AC_TIMER[1]>=0 DO M88
X102.003 Y140.496 F300
ID=1 WHEN $AC_TIMER[1]>=0 DO M89
X188.996 Y140.5 F500
ID=1 WHEN $AC_TIMER[1]>=0 DO M88
X189.000 Y140.500 F300
ID=1 WHEN $AC_TIMER[1]>=0 DO M89
X189 Y141.5 F500
ID=1 WHEN $AC_TIMER[1]>=0 DO M88
X188.996 Y141.500 F300
ID=1 WHEN $AC_TIMER[1]>=0 DO M89
X102.003 Y141.496 F500
ID=1 WHEN $AC_TIMER[1]>=0 DO M88
X102.000 Y141.496 F300
ID=1 WHEN $AC_TIMER[1]>=0 DO M89
X102 Y142.496 F500
ID=1 WHEN $AC_TIMER[1]>=0 DO M88
X102.003 Y142.496 F300
ID=1 WHEN $AC_TIMER[1]>=0 DO M89
X188.996 Y142.5 F500
ID=1 WHEN $AC_TIMER[1]>=0 DO M88
X189.000 Y142.500 F300
ID=1 WHEN $AC_TIMER[1]>=0 DO M89
X189 Y143.5 F500
ID=1 WHEN $AC_TIMER[1]>=0 DO M88
X188.996 Y143.500 F300
ID=1 WHEN $AC_TIMER[1]>=0 DO M89
X102.003 Y143.496 F500
ID=1 WHEN $AC_TIMER[1]>=0 DO M88
X102.000 Y143.496 F300
ID=1 WHEN $AC_TIMER[1]>=0 DO M89
X102 Y144.496 F500
ID=1 WHEN $AC_TIMER[1]>=0 DO M88
X102.003 Y144.496 F300
ID=1 WHEN $AC_TIMER[1]>=0 DO M89
X188.997 Y144.5 F500
ID=1 WHEN $AC_TIMER[1]>=0 DO M88
X189.000 Y144.500 F300
ID=1 WHEN $AC_TIMER[1]>=0 DO M89
X189 Y145.5 F500
ID=1 WHEN $AC_TIMER[1]>=0 DO M88
X188.997 Y145.500 F300
ID=1 WHEN $AC_TIMER[1]>=0 DO M89
X102.003 Y145.496 F500
ID=1 WHEN $AC_TIMER[1]>=0 DO M88
X102.000 Y145.496 F300
ID=1 WHEN $AC_TIMER[1]>=0 DO M89
X102 Y146.496 F500
ID=1 WHEN $AC_TIMER[1]>=0 DO M88
X102.003 Y146.496 F300
ID=1 WHEN $AC_TIMER[1]>=0 DO M89
X188.997 Y146.5 F500
ID=1 WHEN $AC_TIMER[1]>=0 DO M88
X189.000 Y146.500 F300
ID=1 WHEN $AC_TIMER[1]>=0 DO M89
X189 Y147.5 F500
ID=1 WHEN $AC_TIMER[1]>=0 DO M88
X188.997 Y147.500 F300
ID=1 WHEN $AC_TIMER[1]>=0 DO M89
X102.004 Y147.496 F500
ID=1 WHEN $AC_TIMER[1]>=0 DO M88
X102.000 Y147.496 F300
ID=1 WHEN $AC_TIMER[1]>=0 DO M89
X102 Y148.496 F500
ID=1 WHEN $AC_TIMER[1]>=0 DO M88
X102.004 Y148.496 F300
ID=1 WHEN $AC_TIMER[1]>=0 DO M89
X188.997 Y148.5 F500
ID=1 WHEN $AC_TIMER[1]>=0 DO M88
X189.000 Y148.500 F300
ID=1 WHEN $AC_TIMER[1]>=0 DO M89
X189 Y149.5 F500
ID=1 WHEN $AC_TIMER[1]>=0 DO M88
X188.997 Y149.500 F300
ID=1 WHEN $AC_TIMER[1]>=0 DO M89
X102.004 Y149.496 F500
ID=1 WHEN $AC_TIMER[1]>=0 DO M88
X102.000 Y149.496 F300
ID=1 WHEN $AC_TIMER[1]>=0 DO M89
X102 Y150.496 F500
ID=1 WHEN $AC_TIMER[1]>=0 DO M88
X102.004 Y150.496 F300
ID=1 WHEN $AC_TIMER[1]>=0 DO M89
X188.997 Y150.5 F500
ID=1 WHEN $AC_TIMER[1]>=0 DO M88
X189.000 Y150.500 F300
ID=1 WHEN $AC_TIMER[1]>=0 DO M89
X189 Y151.5 F500
ID=1 WHEN $AC_TIMER[1]>=0 DO M88
X188.997 Y151.500 F300
ID=1 WHEN $AC_TIMER[1]>=0 DO M89
X102.004 Y151.496 F500
ID=1 WHEN $AC_TIMER[1]>=0 DO M88
X102.000 Y151.496 F300
ID=1 WHEN $AC_TIMER[1]>=0 DO M89
X102 Y152.496 F500
ID=1 WHEN $AC_TIMER[1]>=0 DO M88
X102.004 Y152.496 F300
ID=1 WHEN $AC_TIMER[1]>=0 DO M89
X188.997 Y152.5 F500
ID=1 WHEN $AC_TIMER[1]>=0 DO M88
X189.000 Y152.500 F300
ID=1 WHEN $AC_TIMER[1]>=0 DO M89
X189 Y153.5 F500
ID=1 WHEN $AC_TIMER[1]>=0 DO M88
X188.997 Y153.500 F300
ID=1 WHEN $AC_TIMER[1]>=0 DO M89
X102.004 Y153.496 F500
ID=1 WHEN $AC_TIMER[1]>=0 DO M88
X102.000 Y153.496 F300
ID=1 WHEN $AC_TIMER[1]>=0 DO M89
X102 Y154.496 F500
ID=1 WHEN $AC_TIMER[1]>=0 DO M88
X102.004 Y154.496 F300
ID=1 WHEN $AC_TIMER[1]>=0 DO M89
X188.998 Y154.5 F500
ID=1 WHEN $AC_TIMER[1]>=0 DO M88
X189.000 Y154.500 F300
ID=1 WHEN $AC_TIMER[1]>=0 DO M89
X189 Y155.5 F500
ID=1 WHEN $AC_TIMER[1]>=0 DO M88
X188.998 Y155.500 F300
ID=1 WHEN $AC_TIMER[1]>=0 DO M89
X102.004 Y155.496 F500
ID=1 WHEN $AC_TIMER[1]>=0 DO M88
X102.000 Y155.496 F300
ID=1 WHEN $AC_TIMER[1]>=0 DO M89
X102 Y156.496 F500
ID=1 WHEN $AC_TIMER[1]>=0 DO M88
X102.004 Y156.496 F300
ID=1 WHEN $AC_TIMER[1]>=0 DO M89
X188.998 Y156.5 F500
ID=1 WHEN $AC_TIMER[1]>=0 DO M88
X189.000 Y156.500 F300
ID=1 WHEN $AC_TIMER[1]>=0 DO M89
X189 Y157.5 F500
ID=1 WHEN $AC_TIMER[1]>=0 DO M88
X188.998 Y157.500 F300
ID=1 WHEN $AC_TIMER[1]>=0 DO M89
X102.004 Y157.496 F500
ID=1 WHEN $AC_TIMER[1]>=0 DO M88
X102.000 Y157.496 F300
ID=1 WHEN $AC_TIMER[1]>=0 DO M89
X102 Y158.496 F500
ID=1 WHEN $AC_TIMER[1]>=0 DO M88
X102.005 Y158.496 F300
ID=1 WHEN $AC_TIMER[1]>=0 DO M89
X188.998 Y158.5 F500
ID=1 WHEN $AC_TIMER[1]>=0 DO M88
X189.000 Y158.500 F300
ID=1 WHEN $AC_TIMER[1]>=0 DO M89
X189 Y159.5 F500
ID=1 WHEN $AC_TIMER[1]>=0 DO M88
X188.998 Y159.500 F300
ID=1 WHEN $AC_TIMER[1]>=0 DO M89
X102.005 Y159.496 F500
ID=1 WHEN $AC_TIMER[1]>=0 DO M88
X102.000 Y159.496 F300
ID=1 WHEN $AC_TIMER[1]>=0 DO M89
X102 Y160.496 F500
ID=1 WHEN $AC_TIMER[1]>=0 DO M88
X102.005 Y160.496 F300
ID=1 WHEN $AC_TIMER[1]>=0 DO M89
X188.998 Y160.5 F500
ID=1 WHEN $AC_TIMER[1]>=0 DO M88
X189.000 Y160.500 F300
ID=1 WHEN $AC_TIMER[1]>=0 DO M89
X189 Y161.5 F500
ID=1 WHEN $AC_TIMER[1]>=0 DO M88
X188.998 Y161.500 F300
ID=1 WHEN $AC_TIMER[1]>=0 DO M89
X102.005 Y161.496 F500
ID=1 WHEN $AC_TIMER[1]>=0 DO M88
X102.000 Y161.496 F300
ID=1 WHEN $AC_TIMER[1]>=0 DO M89
X102 Y162.496 F500
ID=1 WHEN $AC_TIMER[1]>=0 DO M88
X102.005 Y162.496 F300
ID=1 WHEN $AC_TIMER[1]>=0 DO M89
X188.998 Y162.5 F500
ID=1 WHEN $AC_TIMER[1]>=0 DO M88
X189.000 Y162.500 F300
ID=1 WHEN $AC_TIMER[1]>=0 DO M89
X189 Y163.5 F500
ID=1 WHEN $AC_TIMER[1]>=0 DO M88
X188.998 Y163.500 F300
ID=1 WHEN $AC_TIMER[1]>=0 DO M89
X102.005 Y163.496 F500
ID=1 WHEN $AC_TIMER[1]>=0 DO M88
X102.000 Y163.496 F300
ID=1 WHEN $AC_TIMER[1]>=0 DO M89
X102 Y164.496 F500
ID=1 WHEN $AC_TIMER[1]>=0 DO M88
X102.005 Y164.496 F300
ID=1 WHEN $AC_TIMER[1]>=0 DO M89
X188.998 Y164.5 F500
ID=1 WHEN $AC_TIMER[1]>=0 DO M88
X189.000 Y164.500 F300
ID=1 WHEN $AC_TIMER[1]>=0 DO M89
X189 Y165.5 F500
ID=1 WHEN $AC_TIMER[1]>=0 DO M88
X188.999 Y165.500 F300
ID=1 WHEN $AC_TIMER[1]>=0 DO M89
X102.005 Y165.496 F500
ID=1 WHEN $AC_TIMER[1]>=0 DO M88
X102.000 Y165.496 F300
ID=1 WHEN $AC_TIMER[1]>=0 DO M89
X102 Y166.496 F500
ID=1 WHEN $AC_TIMER[1]>=0 DO M88
X102.005 Y166.496 F300
ID=1 WHEN $AC_TIMER[1]>=0 DO M89
X188.999 Y166.5 F500
ID=1 WHEN $AC_TIMER[1]>=0 DO M88
X189.000 Y166.500 F300
ID=1 WHEN $AC_TIMER[1]>=0 DO M89
X189 Y167.5 F500
ID=1 WHEN $AC_TIMER[1]>=0 DO M88
X188.999 Y167.500 F300
ID=1 WHEN $AC_TIMER[1]>=0 DO M89
X102.005 Y167.496 F500
ID=1 WHEN $AC_TIMER[1]>=0 DO M88
X102.000 Y167.496 F300
ID=1 WHEN $AC_TIMER[1]>=0 DO M89
X102 Y168.496 F500
ID=1 WHEN $AC_TIMER[1]>=0 DO M88
X102.006 Y168.496 F300
ID=1 WHEN $AC_TIMER[1]>=0 DO M89
X188.999 Y168.5 F500
ID=1 WHEN $AC_TIMER[1]>=0 DO M88
X189.000 Y168.500 F300
ID=1 WHEN $AC_TIMER[1]>=0 DO M89
X189 Y169.5 F500
ID=1 WHEN $AC_TIMER[1]>=0 DO M88
X188.999 Y169.500 F300
ID=1 WHEN $AC_TIMER[1]>=0 DO M89
X102.006 Y169.496 F500
ID=1 WHEN $AC_TIMER[1]>=0 DO M88
X102.000 Y169.496 F300
ID=1 WHEN $AC_TIMER[1]>=0 DO M89
X102 Y170.496 F500
ID=1 WHEN $AC_TIMER[1]>=0 DO M88
X102.006 Y170.496 F300
ID=1 WHEN $AC_TIMER[1]>=0 DO M89
X188.999 Y170.5 F500
ID=1 WHEN $AC_TIMER[1]>=0 DO M88
X189.000 Y170.500 F300
ID=1 WHEN $AC_TIMER[1]>=0 DO M89
X189 Y171.5 F500
ID=1 WHEN $AC_TIMER[1]>=0 DO M88
X188.999 Y171.500 F300
ID=1 WHEN $AC_TIMER[1]>=0 DO M89
X102.006 Y171.496 F500
ID=1 WHEN $AC_TIMER[1]>=0 DO M88
X102.000 Y171.496 F300
ID=1 WHEN $AC_TIMER[1]>=0 DO M89
X102 Y172.496 F500
ID=1 WHEN $AC_TIMER[1]>=0 DO M88
X102.006 Y172.496 F300
ID=1 WHEN $AC_TIMER[1]>=0 DO M89
X188.999 Y172.5 F500
ID=1 WHEN $AC_TIMER[1]>=0 DO M88
X189.000 Y172.500 F300
ID=1 WHEN $AC_TIMER[1]>=0 DO M89
X189 Y173.5 F500
ID=1 WHEN $AC_TIMER[1]>=0 DO M88
X188.999 Y173.500 F300
ID=1 WHEN $AC_TIMER[1]>=0 DO M89
X102.006 Y173.496 F500
ID=1 WHEN $AC_TIMER[1]>=0 DO M88
X102.000 Y173.496 F300
ID=1 WHEN $AC_TIMER[1]>=0 DO M89
X102 Y174.496 F500
ID=1 WHEN $AC_TIMER[1]>=0 DO M88
X102.006 Y174.496 F300
ID=1 WHEN $AC_TIMER[1]>=0 DO M89
X188.999 Y174.5 F500
ID=1 WHEN $AC_TIMER[1]>=0 DO M88
X189.000 Y174.500 F300
ID=1 WHEN $AC_TIMER[1]>=0 DO M89
X189 Y175.5 F500
ID=1 WHEN $AC_TIMER[1]>=0 DO M88
X189.000 Y175.500 F300
ID=1 WHEN $AC_TIMER[1]>=0 DO M89
X102.006 Y175.496 F500
ID=1 WHEN $AC_TIMER[1]>=0 DO M88
X102.000 Y175.496 F300
ID=1 WHEN $AC_TIMER[1]>=0 DO M89
X102 Y176.496 F500
ID=1 WHEN $AC_TIMER[1]>=0 DO M88
X102.006 Y176.496 F300
ID=1 WHEN $AC_TIMER[1]>=0 DO M89
X189 Y176.5 F500
ID=1 WHEN $AC_TIMER[1]>=0 DO M88
X189.000 Y176.500 F300
ID=1 WHEN $AC_TIMER[1]>=0 DO M89
X189 Y177.5 F500
ID=1 WHEN $AC_TIMER[1]>=0 DO M88
X189.000 Y177.500 F300
ID=1 WHEN $AC_TIMER[1]>=0 DO M89
X102.006 Y177.496 F500
ID=1 WHEN $AC_TIMER[1]>=0 DO M88
X102.000 Y177.496 F300
ID=1 WHEN $AC_TIMER[1]>=0 DO M89
X102 Y178.496 F500
ID=1 WHEN $AC_TIMER[1]>=0 DO M88
X102.007 Y178.496 F300
ID=1 WHEN $AC_TIMER[1]>=0 DO M89
X189 Y178.5 F500
ID=1 WHEN $AC_TIMER[1]>=0 DO M88
X189.000 Y178.500 F300
ID=1 WHEN $AC_TIMER[1]>=0 DO M89
X189 Y179.5 F500
ID=1 WHEN $AC_TIMER[1]>=0 DO M88
X102.007 Y179.496 F300
ID=1 WHEN $AC_TIMER[1]>=0 DO M89
; Final do trecho do raster

; Layer 4
G1 Z4.000 F500
X102.607 Y185.78 F500
ID=1 WHEN $AC_TIMER[1]>=0 DO M88
X101.724 Y184.137 F300
X101.183 Y182.352
X101.000 Y180.476
X101.000 Y110.524
X101.183 Y108.648
X101.724 Y106.863
X102.607 Y105.220
X103.785 Y103.785
X105.220 Y102.607
X106.863 Y101.724
X108.648 Y101.183
X110.524 Y101.000
X180.476 Y101.000
X182.352 Y101.183
X184.137 Y101.724
X185.780 Y102.607
X187.215 Y103.785
X188.393 Y105.220
X189.276 Y106.863
X189.817 Y108.648
X190.000 Y110.524
X190.000 Y180.476
X189.817 Y182.352
X189.276 Y184.137
X188.393 Y185.780
X187.215 Y187.215
X185.780 Y188.393
X184.137 Y189.276
X182.352 Y189.817
X180.476 Y190.000
X110.524 Y190.000
X108.648 Y189.817
X106.863 Y189.276
X105.220 Y188.393
X103.785 Y187.215
X102.671 Y185.858
ID=1 WHEN $AC_TIMER[1]>=0 DO M89
X103 Y110.5 F500
ID=1 WHEN $AC_TIMER[1]>=0 DO M88
X103.002 Y180.547 F300
X103.132 Y181.917
X103.152 Y182.016
X103.552 Y183.326
X103.590 Y183.417
X104.240 Y184.627
X104.294 Y184.707
X105.164 Y185.767
X105.233 Y185.837
X106.293 Y186.706
X106.373 Y186.760
X107.583 Y187.410
X107.674 Y187.448
X108.984 Y187.848
X109.083 Y187.868
X110.500 Y188.000
X180.547 Y187.998
X181.917 Y187.868
X182.016 Y187.848
X183.326 Y187.448
X183.417 Y187.410
X184.627 Y186.760
X184.707 Y186.706
X185.767 Y185.836
X185.836 Y185.767
X186.706 Y184.707
X186.760 Y184.627
X187.410 Y183.417
X187.448 Y183.326
X187.848 Y182.016
X187.868 Y181.917
X188.000 Y180.500
X187.998 Y110.453
X187.868 Y109.083
X187.848 Y108.984
X187.448 Y107.674
X187.410 Y107.583
X186.760 Y106.373
X186.707 Y106.293
X185.836 Y105.233
X185.767 Y105.164
X184.707 Y104.294
X184.627 Y104.240
X183.417 Y103.590
X183.326 Y103.552
X182.016 Y103.152
X181.917 Y103.132
X180.500 Y103.000
X110.453 Y103.002
X109.083 Y103.132
X108.984 Y103.152
X107.674 Y103.552
X107.583 Y103.590
X106.373 Y104.240
X106.293 Y104.294
X105.233 Y105.164
X105.164 Y105.233
X104.294 Y106.293
X104.240 Y106.373
X103.590 Y107.583
X103.552 Y107.674
X103.152 Y108.984
X103.132 Y109.083
X103.009 Y110.400
ID=1 WHEN $AC_TIMER[1]>=0 DO M89

; Inicio do trecho do raster
X189 Y111.5 F500
ID=1 WHEN $AC_TIMER[1]>=0 DO M88
X188.993 Y111.500 F300
ID=1 WHEN $AC_TIMER[1]>=0 DO M89
X102 Y112.496 F500
ID=1 WHEN $AC_TIMER[1]>=0 DO M88
X102.000 Y112.496 F300
ID=1 WHEN $AC_TIMER[1]>=0 DO M89
X188.993 Y112.5 F500
ID=1 WHEN $AC_TIMER[1]>=0 DO M88
X189.000 Y112.500 F300
ID=1 WHEN $AC_TIMER[1]>=0 DO M89
X189 Y113.5 F500
ID=1 WHEN $AC_TIMER[1]>=0 DO M88
X188.994 Y113.500 F300
ID=1 WHEN $AC_TIMER[1]>=0 DO M89
X102 Y113.496 F500
ID=1 WHEN $AC_TIMER[1]>=0 DO M88
X102.000 Y113.496 F300
ID=1 WHEN $AC_TIMER[1]>=0 DO M89
X102 Y114.496 F500
ID=1 WHEN $AC_TIMER[1]>=0 DO M88
X102.000 Y114.496 F300
ID=1 WHEN $AC_TIMER[1]>=0 DO M89
X188.994 Y114.5 F500
ID=1 WHEN $AC_TIMER[1]>=0 DO M88
X189.000 Y114.500 F300
ID=1 WHEN $AC_TIMER[1]>=0 DO M89
X189 Y115.5 F500
ID=1 WHEN $AC_TIMER[1]>=0 DO M88
X188.994 Y115.500 F300
ID=1 WHEN $AC_TIMER[1]>=0 DO M89
X102 Y115.496 F500
ID=1 WHEN $AC_TIMER[1]>=0 DO M88
X102.000 Y115.496 F300
ID=1 WHEN $AC_TIMER[1]>=0 DO M89
X102 Y116.496 F500
ID=1 WHEN $AC_TIMER[1]>=0 DO M88
X102.001 Y116.496 F300
ID=1 WHEN $AC_TIMER[1]>=0 DO M89
X188.994 Y116.5 F500
ID=1 WHEN $AC_TIMER[1]>=0 DO M88
X189.000 Y116.500 F300
ID=1 WHEN $AC_TIMER[1]>=0 DO M89
X189 Y117.5 F500
ID=1 WHEN $AC_TIMER[1]>=0 DO M88
X188.994 Y117.500 F300
ID=1 WHEN $AC_TIMER[1]>=0 DO M89
X102.001 Y117.496 F500
ID=1 WHEN $AC_TIMER[1]>=0 DO M88
X102.000 Y117.496 F300
ID=1 WHEN $AC_TIMER[1]>=0 DO M89
X102 Y118.496 F500
ID=1 WHEN $AC_TIMER[1]>=0 DO M88
X102.001 Y118.496 F300
ID=1 WHEN $AC_TIMER[1]>=0 DO M89
X188.994 Y118.5 F500
ID=1 WHEN $AC_TIMER[1]>=0 DO M88
X189.000 Y118.500 F300
ID=1 WHEN $AC_TIMER[1]>=0 DO M89
X189 Y119.5 F500
ID=1 WHEN $AC_TIMER[1]>=0 DO M88
X188.994 Y119.500 F300
ID=1 WHEN $AC_TIMER[1]>=0 DO M89
X102.001 Y119.496 F500
ID=1 WHEN $AC_TIMER[1]>=0 DO M88
X102.000 Y119.496 F300
ID=1 WHEN $AC_TIMER[1]>=0 DO M89
X102 Y120.496 F500
ID=1 WHEN $AC_TIMER[1]>=0 DO M88
X102.001 Y120.496 F300
ID=1 WHEN $AC_TIMER[1]>=0 DO M89
X188.994 Y120.5 F500
ID=1 WHEN $AC_TIMER[1]>=0 DO M88
X189.000 Y120.500 F300
ID=1 WHEN $AC_TIMER[1]>=0 DO M89
X189 Y121.5 F500
ID=1 WHEN $AC_TIMER[1]>=0 DO M88
X188.994 Y121.500 F300
ID=1 WHEN $AC_TIMER[1]>=0 DO M89
X102.001 Y121.496 F500
ID=1 WHEN $AC_TIMER[1]>=0 DO M88
X102.000 Y121.496 F300
ID=1 WHEN $AC_TIMER[1]>=0 DO M89
X102 Y122.496 F500
ID=1 WHEN $AC_TIMER[1]>=0 DO M88
X102.001 Y122.496 F300
ID=1 WHEN $AC_TIMER[1]>=0 DO M89
X188.994 Y122.5 F500
ID=1 WHEN $AC_TIMER[1]>=0 DO M88
X189.000 Y122.500 F300
ID=1 WHEN $AC_TIMER[1]>=0 DO M89
X189 Y123.5 F500
ID=1 WHEN $AC_TIMER[1]>=0 DO M88
X188.995 Y123.500 F300
ID=1 WHEN $AC_TIMER[1]>=0 DO M89
X102.001 Y123.496 F500
ID=1 WHEN $AC_TIMER[1]>=0 DO M88
X102.000 Y123.496 F300
ID=1 WHEN $AC_TIMER[1]>=0 DO M89
X102 Y124.496 F500
ID=1 WHEN $AC_TIMER[1]>=0 DO M88
X102.001 Y124.496 F300
ID=1 WHEN $AC_TIMER[1]>=0 DO M89
X188.995 Y124.5 F500
ID=1 WHEN $AC_TIMER[1]>=0 DO M88
X189.000 Y124.500 F300
ID=1 WHEN $AC_TIMER[1]>=0 DO M89
X189 Y125.5 F500
ID=1 WHEN $AC_TIMER[1]>=0 DO M88
X188.995 Y125.500 F300
ID=1 WHEN $AC_TIMER[1]>=0 DO M89
X102.001 Y125.496 F500
ID=1 WHEN $AC_TIMER[1]>=0 DO M88
X102.000 Y125.496 F300
ID=1 WHEN $AC_TIMER[1]>=0 DO M89
X102 Y126.496 F500
ID=1 WHEN $AC_TIMER[1]>=0 DO M88
X102.002 Y126.496 F300
ID=1 WHEN $AC_TIMER[1]>=0 DO M89
X188.995 Y126.5 F500
ID=1 WHEN $AC_TIMER[1]>=0 DO M88
X189.000 Y126.500 F300
ID=1 WHEN $AC_TIMER[1]>=0 DO M89
X189 Y127.5 F500
ID=1 WHEN $AC_TIMER[1]>=0 DO M88
X188.995 Y127.500 F300
ID=1 WHEN $AC_TIMER[1]>=0 DO M89
X102.002 Y127.496 F500
ID=1 WHEN $AC_TIMER[1]>=0 DO M88
X102.000 Y127.496 F300
ID=1 WHEN $AC_TIMER[1]>=0 DO M89
X102 Y128.496 F500
ID=1 WHEN $AC_TIMER[1]>=0 DO M88
X102.002 Y128.496 F300
ID=1 WHEN $AC_TIMER[1]>=0 DO M89
X188.995 Y128.5 F500
ID=1 WHEN $AC_TIMER[1]>=0 DO M88
X189.000 Y128.500 F300
ID=1 WHEN $AC_TIMER[1]>=0 DO M89
X189 Y129.5 F500
ID=1 WHEN $AC_TIMER[1]>=0 DO M88
X188.995 Y129.500 F300
ID=1 WHEN $AC_TIMER[1]>=0 DO M89
X102.002 Y129.496 F500
ID=1 WHEN $AC_TIMER[1]>=0 DO M88
X102.000 Y129.496 F300
ID=1 WHEN $AC_TIMER[1]>=0 DO M89
X102 Y130.496 F500
ID=1 WHEN $AC_TIMER[1]>=0 DO M88
X102.002 Y130.496 F300
ID=1 WHEN $AC_TIMER[1]>=0 DO M89
X188.995 Y130.5 F500
ID=1 WHEN $AC_TIMER[1]>=0 DO M88
X189.000 Y130.500 F300
ID=1 WHEN $AC_TIMER[1]>=0 DO M89
X189 Y131.5 F500
ID=1 WHEN $AC_TIMER[1]>=0 DO M88
X188.995 Y131.500 F300
ID=1 WHEN $AC_TIMER[1]>=0 DO M89
X102.002 Y131.496 F500
ID=1 WHEN $AC_TIMER[1]>=0 DO M88
X102.000 Y131.496 F300
ID=1 WHEN $AC_TIMER[1]>=0 DO M89
X102 Y132.496 F500
ID=1 WHEN $AC_TIMER[1]>=0 DO M88
X102.002 Y132.496 F300
ID=1 WHEN $AC_TIMER[1]>=0 DO M89
X188.995 Y132.5 F500
ID=1 WHEN $AC_TIMER[1]>=0 DO M88
X189.000 Y132.500 F300
ID=1 WHEN $AC_TIMER[1]>=0 DO M89
X189 Y133.5 F500
ID=1 WHEN $AC_TIMER[1]>=0 DO M88
X188.995 Y133.500 F300
ID=1 WHEN $AC_TIMER[1]>=0 DO M89
X102.002 Y133.496 F500
ID=1 WHEN $AC_TIMER[1]>=0 DO M88
X102.000 Y133.496 F300
ID=1 WHEN $AC_TIMER[1]>=0 DO M89
X102 Y134.496 F500
ID=1 WHEN $AC_TIMER[1]>=0 DO M88
X102.002 Y134.496 F300
ID=1 WHEN $AC_TIMER[1]>=0 DO M89
X188.996 Y134.5 F500
ID=1 WHEN $AC_TIMER[1]>=0 DO M88
X189.000 Y134.500 F300
ID=1 WHEN $AC_TIMER[1]>=0 DO M89
X189 Y135.5 F500
ID=1 WHEN $AC_TIMER[1]>=0 DO M88
X188.996 Y135.500 F300
ID=1 WHEN $AC_TIMER[1]>=0 DO M89
X102.002 Y135.496 F500
ID=1 WHEN $AC_TIMER[1]>=0 DO M88
X102.000 Y135.496 F300
ID=1 WHEN $AC_TIMER[1]>=0 DO M89
X102 Y136.496 F500
ID=1 WHEN $AC_TIMER[1]>=0 DO M88
X102.002 Y136.496 F300
ID=1 WHEN $AC_TIMER[1]>=0 DO M89
X188.996 Y136.5 F500
ID=1 WHEN $AC_TIMER[1]>=0 DO M88
X189.000 Y136.500 F300
ID=1 WHEN $AC_TIMER[1]>=0 DO M89
X189 Y137.5 F500
ID=1 WHEN $AC_TIMER[1]>=0 DO M88
X188.996 Y137.500 F300
ID=1 WHEN $AC_TIMER[1]>=0 DO M89
X102.003 Y137.496 F500
ID=1 WHEN $AC_TIMER[1]>=0 DO M88
X102.000 Y137.496 F300
ID=1 WHEN $AC_TIMER[1]>=0 DO M89
X102 Y138.496 F500
ID=1 WHEN $AC_TIMER[1]>=0 DO M88
X102.003 Y138.496 F300
ID=1 WHEN $AC_TIMER[1]>=0 DO M89
X188.996 Y138.5 F500
ID=1 WHEN $AC_TIMER[1]>=0 DO M88
X189.000 Y138.500 F300
ID=1 WHEN $AC_TIMER[1]>=0 DO M89
X189 Y139.5 F500
ID=1 WHEN $AC_TIMER[1]>=0 DO M88
X188.996 Y139.500 F300
ID=1 WHEN $AC_TIMER[1]>=0 DO M89
X102.003 Y139.496 F500
ID=1 WHEN $AC_TIMER[1]>=0 DO M88
X102.000 Y139.496 F300
ID=1 WHEN $AC_TIMER[1]>=0 DO M89
X102 Y140.496 F500
ID=1 WHEN $AC_TIMER[1]>=0 DO M88
X102.003 Y140.496 F300
ID=1 WHEN $AC_TIMER[1]>=0 DO M89
X188.996 Y140.5 F500
ID=1 WHEN $AC_TIMER[1]>=0 DO M88
X189.000 Y140.500 F300
ID=1 WHEN $AC_TIMER[1]>=0 DO M89
X189 Y141.5 F500
ID=1 WHEN $AC_TIMER[1]>=0 DO M88
X188.996 Y141.500 F300
ID=1 WHEN $AC_TIMER[1]>=0 DO M89
X102.003 Y141.496 F500
ID=1 WHEN $AC_TIMER[1]>=0 DO M88
X102.000 Y141.496 F300
ID=1 WHEN $AC_TIMER[1]>=0 DO M89
X102 Y142.496 F500
ID=1 WHEN $AC_TIMER[1]>=0 DO M88
X102.003 Y142.496 F300
ID=1 WHEN $AC_TIMER[1]>=0 DO M89
X188.996 Y142.5 F500
ID=1 WHEN $AC_TIMER[1]>=0 DO M88
X189.000 Y142.500 F300
ID=1 WHEN $AC_TIMER[1]>=0 DO M89
X189 Y143.5 F500
ID=1 WHEN $AC_TIMER[1]>=0 DO M88
X188.996 Y143.500 F300
ID=1 WHEN $AC_TIMER[1]>=0 DO M89
X102.003 Y143.496 F500
ID=1 WHEN $AC_TIMER[1]>=0 DO M88
X102.000 Y143.496 F300
ID=1 WHEN $AC_TIMER[1]>=0 DO M89
X102 Y144.496 F500
ID=1 WHEN $AC_TIMER[1]>=0 DO M88
X102.003 Y144.496 F300
ID=1 WHEN $AC_TIMER[1]>=0 DO M89
X188.997 Y144.5 F500
ID=1 WHEN $AC_TIMER[1]>=0 DO M88
X189.000 Y144.500 F300
ID=1 WHEN $AC_TIMER[1]>=0 DO M89
X189 Y145.5 F500
ID=1 WHEN $AC_TIMER[1]>=0 DO M88
X188.997 Y145.500 F300
ID=1 WHEN $AC_TIMER[1]>=0 DO M89
X102.003 Y145.496 F500
ID=1 WHEN $AC_TIMER[1]>=0 DO M88
X102.000 Y145.496 F300
ID=1 WHEN $AC_TIMER[1]>=0 DO M89
X102 Y146.496 F500
ID=1 WHEN $AC_TIMER[1]>=0 DO M88
X102.003 Y146.496 F300
ID=1 WHEN $AC_TIMER[1]>=0 DO M89
X188.997 Y146.5 F500
ID=1 WHEN $AC_TIMER[1]>=0 DO M88
X189.000 Y146.500 F300
ID=1 WHEN $AC_TIMER[1]>=0 DO M89
X189 Y147.5 F500
ID=1 WHEN $AC_TIMER[1]>=0 DO M88
X188.997 Y147.500 F300
ID=1 WHEN $AC_TIMER[1]>=0 DO M89
X102.004 Y147.496 F500
ID=1 WHEN $AC_TIMER[1]>=0 DO M88
X102.000 Y147.496 F300
ID=1 WHEN $AC_TIMER[1]>=0 DO M89
X102 Y148.496 F500
ID=1 WHEN $AC_TIMER[1]>=0 DO M88
X102.004 Y148.496 F300
ID=1 WHEN $AC_TIMER[1]>=0 DO M89
X188.997 Y148.5 F500
ID=1 WHEN $AC_TIMER[1]>=0 DO M88
X189.000 Y148.500 F300
ID=1 WHEN $AC_TIMER[1]>=0 DO M89
X189 Y149.5 F500
ID=1 WHEN $AC_TIMER[1]>=0 DO M88
X188.997 Y149.500 F300
ID=1 WHEN $AC_TIMER[1]>=0 DO M89
X102.004 Y149.496 F500
ID=1 WHEN $AC_TIMER[1]>=0 DO M88
X102.000 Y149.496 F300
ID=1 WHEN $AC_TIMER[1]>=0 DO M89
X102 Y150.496 F500
ID=1 WHEN $AC_TIMER[1]>=0 DO M88
X102.004 Y150.496 F300
ID=1 WHEN $AC_TIMER[1]>=0 DO M89
X188.997 Y150.5 F500
ID=1 WHEN $AC_TIMER[1]>=0 DO M88
X189.000 Y150.500 F300
ID=1 WHEN $AC_TIMER[1]>=0 DO M89
X189 Y151.5 F500
ID=1 WHEN $AC_TIMER[1]>=0 DO M88
X188.997 Y151.500 F300
ID=1 WHEN $AC_TIMER[1]>=0 DO M89
X102.004 Y151.496 F500
ID=1 WHEN $AC_TIMER[1]>=0 DO M88
X102.000 Y151.496 F300
ID=1 WHEN $AC_TIMER[1]>=0 DO M89
X102 Y152.496 F500
ID=1 WHEN $AC_TIMER[1]>=0 DO M88
X102.004 Y152.496 F300
ID=1 WHEN $AC_TIMER[1]>=0 DO M89
X188.997 Y152.5 F500
ID=1 WHEN $AC_TIMER[1]>=0 DO M88
X189.000 Y152.500 F300
ID=1 WHEN $AC_TIMER[1]>=0 DO M89
X189 Y153.5 F500
ID=1 WHEN $AC_TIMER[1]>=0 DO M88
X188.997 Y153.500 F300
ID=1 WHEN $AC_TIMER[1]>=0 DO M89
X102.004 Y153.496 F500
ID=1 WHEN $AC_TIMER[1]>=0 DO M88
X102.000 Y153.496 F300
ID=1 WHEN $AC_TIMER[1]>=0 DO M89
X102 Y154.496 F500
ID=1 WHEN $AC_TIMER[1]>=0 DO M88
X102.004 Y154.496 F300
ID=1 WHEN $AC_TIMER[1]>=0 DO M89
X188.998 Y154.5 F500
ID=1 WHEN $AC_TIMER[1]>=0 DO M88
X189.000 Y154.500 F300
ID=1 WHEN $AC_TIMER[1]>=0 DO M89
X189 Y155.5 F500
ID=1 WHEN $AC_TIMER[1]>=0 DO M88
X188.998 Y155.500 F300
ID=1 WHEN $AC_TIMER[1]>=0 DO M89
X102.004 Y155.496 F500
ID=1 WHEN $AC_TIMER[1]>=0 DO M88
X102.000 Y155.496 F300
ID=1 WHEN $AC_TIMER[1]>=0 DO M89
X102 Y156.496 F500
ID=1 WHEN $AC_TIMER[1]>=0 DO M88
X102.004 Y156.496 F300
ID=1 WHEN $AC_TIMER[1]>=0 DO M89
X188.998 Y156.5 F500
ID=1 WHEN $AC_TIMER[1]>=0 DO M88
X189.000 Y156.500 F300
ID=1 WHEN $AC_TIMER[1]>=0 DO M89
X189 Y157.5 F500
ID=1 WHEN $AC_TIMER[1]>=0 DO M88
X188.998 Y157.500 F300
ID=1 WHEN $AC_TIMER[1]>=0 DO M89
X102.004 Y157.496 F500
ID=1 WHEN $AC_TIMER[1]>=0 DO M88
X102.000 Y157.496 F300
ID=1 WHEN $AC_TIMER[1]>=0 DO M89
X102 Y158.496 F500
ID=1 WHEN $AC_TIMER[1]>=0 DO M88
X102.005 Y158.496 F300
ID=1 WHEN $AC_TIMER[1]>=0 DO M89
X188.998 Y158.5 F500
ID=1 WHEN $AC_TIMER[1]>=0 DO M88
X189.000 Y158.500 F300
ID=1 WHEN $AC_TIMER[1]>=0 DO M89
X189 Y159.5 F500
ID=1 WHEN $AC_TIMER[1]>=0 DO M88
X188.998 Y159.500 F300
ID=1 WHEN $AC_TIMER[1]>=0 DO M89
X102.005 Y159.496 F500
ID=1 WHEN $AC_TIMER[1]>=0 DO M88
X102.000 Y159.496 F300
ID=1 WHEN $AC_TIMER[1]>=0 DO M89
X102 Y160.496 F500
ID=1 WHEN $AC_TIMER[1]>=0 DO M88
X102.005 Y160.496 F300
ID=1 WHEN $AC_TIMER[1]>=0 DO M89
X188.998 Y160.5 F500
ID=1 WHEN $AC_TIMER[1]>=0 DO M88
X189.000 Y160.500 F300
ID=1 WHEN $AC_TIMER[1]>=0 DO M89
X189 Y161.5 F500
ID=1 WHEN $AC_TIMER[1]>=0 DO M88
X188.998 Y161.500 F300
ID=1 WHEN $AC_TIMER[1]>=0 DO M89
X102.005 Y161.496 F500
ID=1 WHEN $AC_TIMER[1]>=0 DO M88
X102.000 Y161.496 F300
ID=1 WHEN $AC_TIMER[1]>=0 DO M89
X102 Y162.496 F500
ID=1 WHEN $AC_TIMER[1]>=0 DO M88
X102.005 Y162.496 F300
ID=1 WHEN $AC_TIMER[1]>=0 DO M89
X188.998 Y162.5 F500
ID=1 WHEN $AC_TIMER[1]>=0 DO M88
X189.000 Y162.500 F300
ID=1 WHEN $AC_TIMER[1]>=0 DO M89
X189 Y163.5 F500
ID=1 WHEN $AC_TIMER[1]>=0 DO M88
X188.998 Y163.500 F300
ID=1 WHEN $AC_TIMER[1]>=0 DO M89
X102.005 Y163.496 F500
ID=1 WHEN $AC_TIMER[1]>=0 DO M88
X102.000 Y163.496 F300
ID=1 WHEN $AC_TIMER[1]>=0 DO M89
X102 Y164.496 F500
ID=1 WHEN $AC_TIMER[1]>=0 DO M88
X102.005 Y164.496 F300
ID=1 WHEN $AC_TIMER[1]>=0 DO M89
X188.998 Y164.5 F500
ID=1 WHEN $AC_TIMER[1]>=0 DO M88
X189.000 Y164.500 F300
ID=1 WHEN $AC_TIMER[1]>=0 DO M89
X189 Y165.5 F500
ID=1 WHEN $AC_TIMER[1]>=0 DO M88
X188.999 Y165.500 F300
ID=1 WHEN $AC_TIMER[1]>=0 DO M89
X102.005 Y165.496 F500
ID=1 WHEN $AC_TIMER[1]>=0 DO M88
X102.000 Y165.496 F300
ID=1 WHEN $AC_TIMER[1]>=0 DO M89
X102 Y166.496 F500
ID=1 WHEN $AC_TIMER[1]>=0 DO M88
X102.005 Y166.496 F300
ID=1 WHEN $AC_TIMER[1]>=0 DO M89
X188.999 Y166.5 F500
ID=1 WHEN $AC_TIMER[1]>=0 DO M88
X189.000 Y166.500 F300
ID=1 WHEN $AC_TIMER[1]>=0 DO M89
X189 Y167.5 F500
ID=1 WHEN $AC_TIMER[1]>=0 DO M88
X188.999 Y167.500 F300
ID=1 WHEN $AC_TIMER[1]>=0 DO M89
X102.005 Y167.496 F500
ID=1 WHEN $AC_TIMER[1]>=0 DO M88
X102.000 Y167.496 F300
ID=1 WHEN $AC_TIMER[1]>=0 DO M89
X102 Y168.496 F500
ID=1 WHEN $AC_TIMER[1]>=0 DO M88
X102.006 Y168.496 F300
ID=1 WHEN $AC_TIMER[1]>=0 DO M89
X188.999 Y168.5 F500
ID=1 WHEN $AC_TIMER[1]>=0 DO M88
X189.000 Y168.500 F300
ID=1 WHEN $AC_TIMER[1]>=0 DO M89
X189 Y169.5 F500
ID=1 WHEN $AC_TIMER[1]>=0 DO M88
X188.999 Y169.500 F300
ID=1 WHEN $AC_TIMER[1]>=0 DO M89
X102.006 Y169.496 F500
ID=1 WHEN $AC_TIMER[1]>=0 DO M88
X102.000 Y169.496 F300
ID=1 WHEN $AC_TIMER[1]>=0 DO M89
X102 Y170.496 F500
ID=1 WHEN $AC_TIMER[1]>=0 DO M88
X102.006 Y170.496 F300
ID=1 WHEN $AC_TIMER[1]>=0 DO M89
X188.999 Y170.5 F500
ID=1 WHEN $AC_TIMER[1]>=0 DO M88
X189.000 Y170.500 F300
ID=1 WHEN $AC_TIMER[1]>=0 DO M89
X189 Y171.5 F500
ID=1 WHEN $AC_TIMER[1]>=0 DO M88
X188.999 Y171.500 F300
ID=1 WHEN $AC_TIMER[1]>=0 DO M89
X102.006 Y171.496 F500
ID=1 WHEN $AC_TIMER[1]>=0 DO M88
X102.000 Y171.496 F300
ID=1 WHEN $AC_TIMER[1]>=0 DO M89
X102 Y172.496 F500
ID=1 WHEN $AC_TIMER[1]>=0 DO M88
X102.006 Y172.496 F300
ID=1 WHEN $AC_TIMER[1]>=0 DO M89
X188.999 Y172.5 F500
ID=1 WHEN $AC_TIMER[1]>=0 DO M88
X189.000 Y172.500 F300
ID=1 WHEN $AC_TIMER[1]>=0 DO M89
X189 Y173.5 F500
ID=1 WHEN $AC_TIMER[1]>=0 DO M88
X188.999 Y173.500 F300
ID=1 WHEN $AC_TIMER[1]>=0 DO M89
X102.006 Y173.496 F500
ID=1 WHEN $AC_TIMER[1]>=0 DO M88
X102.000 Y173.496 F300
ID=1 WHEN $AC_TIMER[1]>=0 DO M89
X102 Y174.496 F500
ID=1 WHEN $AC_TIMER[1]>=0 DO M88
X102.006 Y174.496 F300
ID=1 WHEN $AC_TIMER[1]>=0 DO M89
X188.999 Y174.5 F500
ID=1 WHEN $AC_TIMER[1]>=0 DO M88
X189.000 Y174.500 F300
ID=1 WHEN $AC_TIMER[1]>=0 DO M89
X189 Y175.5 F500
ID=1 WHEN $AC_TIMER[1]>=0 DO M88
X189.000 Y175.500 F300
ID=1 WHEN $AC_TIMER[1]>=0 DO M89
X102.006 Y175.496 F500
ID=1 WHEN $AC_TIMER[1]>=0 DO M88
X102.000 Y175.496 F300
ID=1 WHEN $AC_TIMER[1]>=0 DO M89
X102 Y176.496 F500
ID=1 WHEN $AC_TIMER[1]>=0 DO M88
X102.006 Y176.496 F300
ID=1 WHEN $AC_TIMER[1]>=0 DO M89
X189 Y176.5 F500
ID=1 WHEN $AC_TIMER[1]>=0 DO M88
X189.000 Y176.500 F300
ID=1 WHEN $AC_TIMER[1]>=0 DO M89
X189 Y177.5 F500
ID=1 WHEN $AC_TIMER[1]>=0 DO M88
X189.000 Y177.500 F300
ID=1 WHEN $AC_TIMER[1]>=0 DO M89
X102.006 Y177.496 F500
ID=1 WHEN $AC_TIMER[1]>=0 DO M88
X102.000 Y177.496 F300
ID=1 WHEN $AC_TIMER[1]>=0 DO M89
X102 Y178.496 F500
ID=1 WHEN $AC_TIMER[1]>=0 DO M88
X102.007 Y178.496 F300
ID=1 WHEN $AC_TIMER[1]>=0 DO M89
X189 Y178.5 F500
ID=1 WHEN $AC_TIMER[1]>=0 DO M88
X189.000 Y178.500 F300
ID=1 WHEN $AC_TIMER[1]>=0 DO M89
X189 Y179.5 F500
ID=1 WHEN $AC_TIMER[1]>=0 DO M88
X102.007 Y179.496 F300
ID=1 WHEN $AC_TIMER[1]>=0 DO M89
; Final do trecho do raster

; Layer 5
G1 Z5.000 F500
X102.607 Y185.78 F500
ID=1 WHEN $AC_TIMER[1]>=0 DO M88
X101.724 Y184.137 F300
X101.183 Y182.352
X101.000 Y180.476
X101.000 Y110.524
X101.183 Y108.648
X101.724 Y106.863
X102.607 Y105.220
X103.785 Y103.785
X105.220 Y102.607
X106.863 Y101.724
X108.648 Y101.183
X110.524 Y101.000
X180.476 Y101.000
X182.352 Y101.183
X184.137 Y101.724
X185.780 Y102.607
X187.215 Y103.785
X188.393 Y105.220
X189.276 Y106.863
X189.817 Y108.648
X190.000 Y110.524
X190.000 Y180.476
X189.817 Y182.352
X189.276 Y184.137
X188.393 Y185.780
X187.215 Y187.215
X185.780 Y188.393
X184.137 Y189.276
X182.352 Y189.817
X180.476 Y190.000
X110.524 Y190.000
X108.648 Y189.817
X106.863 Y189.276
X105.220 Y188.393
X103.785 Y187.215
X102.671 Y185.858
ID=1 WHEN $AC_TIMER[1]>=0 DO M89
X103 Y110.5 F500
ID=1 WHEN $AC_TIMER[1]>=0 DO M88
X103.002 Y180.547 F300
X103.132 Y181.917
X103.152 Y182.016
X103.552 Y183.326
X103.590 Y183.417
X104.240 Y184.627
X104.294 Y184.707
X105.164 Y185.767
X105.233 Y185.837
X106.293 Y186.706
X106.373 Y186.760
X107.583 Y187.410
X107.674 Y187.448
X108.984 Y187.848
X109.083 Y187.868
X110.500 Y188.000
X180.547 Y187.998
X181.917 Y187.868
X182.016 Y187.848
X183.326 Y187.448
X183.417 Y187.410
X184.627 Y186.760
X184.707 Y186.706
X185.767 Y185.836
X185.836 Y185.767
X186.706 Y184.707
X186.760 Y184.627
X187.410 Y183.417
X187.448 Y183.326
X187.848 Y182.016
X187.868 Y181.917
X188.000 Y180.500
X187.998 Y110.453
X187.868 Y109.083
X187.848 Y108.984
X187.448 Y107.674
X187.410 Y107.583
X186.760 Y106.373
X186.707 Y106.293
X185.836 Y105.233
X185.767 Y105.164
X184.707 Y104.294
X184.627 Y104.240
X183.417 Y103.590
X183.326 Y103.552
X182.016 Y103.152
X181.917 Y103.132
X180.500 Y103.000
X110.453 Y103.002
X109.083 Y103.132
X108.984 Y103.152
X107.674 Y103.552
X107.583 Y103.590
X106.373 Y104.240
X106.293 Y104.294
X105.233 Y105.164
X105.164 Y105.233
X104.294 Y106.293
X104.240 Y106.373
X103.590 Y107.583
X103.552 Y107.674
X103.152 Y108.984
X103.132 Y109.083
X103.009 Y110.400
ID=1 WHEN $AC_TIMER[1]>=0 DO M89

; Inicio do trecho do raster
X189 Y111.5 F500
ID=1 WHEN $AC_TIMER[1]>=0 DO M88
X188.993 Y111.500 F300
ID=1 WHEN $AC_TIMER[1]>=0 DO M89
X102 Y112.496 F500
ID=1 WHEN $AC_TIMER[1]>=0 DO M88
X102.000 Y112.496 F300
ID=1 WHEN $AC_TIMER[1]>=0 DO M89
X188.993 Y112.5 F500
ID=1 WHEN $AC_TIMER[1]>=0 DO M88
X189.000 Y112.500 F300
ID=1 WHEN $AC_TIMER[1]>=0 DO M89
X189 Y113.5 F500
ID=1 WHEN $AC_TIMER[1]>=0 DO M88
X188.994 Y113.500 F300
ID=1 WHEN $AC_TIMER[1]>=0 DO M89
X102 Y113.496 F500
ID=1 WHEN $AC_TIMER[1]>=0 DO M88
X102.000 Y113.496 F300
ID=1 WHEN $AC_TIMER[1]>=0 DO M89
X102 Y114.496 F500
ID=1 WHEN $AC_TIMER[1]>=0 DO M88
X102.000 Y114.496 F300
ID=1 WHEN $AC_TIMER[1]>=0 DO M89
X188.994 Y114.5 F500
ID=1 WHEN $AC_TIMER[1]>=0 DO M88
X189.000 Y114.500 F300
ID=1 WHEN $AC_TIMER[1]>=0 DO M89
X189 Y115.5 F500
ID=1 WHEN $AC_TIMER[1]>=0 DO M88
X188.994 Y115.500 F300
ID=1 WHEN $AC_TIMER[1]>=0 DO M89
X102 Y115.496 F500
ID=1 WHEN $AC_TIMER[1]>=0 DO M88
X102.000 Y115.496 F300
ID=1 WHEN $AC_TIMER[1]>=0 DO M89
X102 Y116.496 F500
ID=1 WHEN $AC_TIMER[1]>=0 DO M88
X102.001 Y116.496 F300
ID=1 WHEN $AC_TIMER[1]>=0 DO M89
X188.994 Y116.5 F500
ID=1 WHEN $AC_TIMER[1]>=0 DO M88
X189.000 Y116.500 F300
ID=1 WHEN $AC_TIMER[1]>=0 DO M89
X189 Y117.5 F500
ID=1 WHEN $AC_TIMER[1]>=0 DO M88
X188.994 Y117.500 F300
ID=1 WHEN $AC_TIMER[1]>=0 DO M89
X102.001 Y117.496 F500
ID=1 WHEN $AC_TIMER[1]>=0 DO M88
X102.000 Y117.496 F300
ID=1 WHEN $AC_TIMER[1]>=0 DO M89
X102 Y118.496 F500
ID=1 WHEN $AC_TIMER[1]>=0 DO M88
X102.001 Y118.496 F300
ID=1 WHEN $AC_TIMER[1]>=0 DO M89
X188.994 Y118.5 F500
ID=1 WHEN $AC_TIMER[1]>=0 DO M88
X189.000 Y118.500 F300
ID=1 WHEN $AC_TIMER[1]>=0 DO M89
X189 Y119.5 F500
ID=1 WHEN $AC_TIMER[1]>=0 DO M88
X188.994 Y119.500 F300
ID=1 WHEN $AC_TIMER[1]>=0 DO M89
X102.001 Y119.496 F500
ID=1 WHEN $AC_TIMER[1]>=0 DO M88
X102.000 Y119.496 F300
ID=1 WHEN $AC_TIMER[1]>=0 DO M89
X102 Y120.496 F500
ID=1 WHEN $AC_TIMER[1]>=0 DO M88
X102.001 Y120.496 F300
ID=1 WHEN $AC_TIMER[1]>=0 DO M89
X188.994 Y120.5 F500
ID=1 WHEN $AC_TIMER[1]>=0 DO M88
X189.000 Y120.500 F300
ID=1 WHEN $AC_TIMER[1]>=0 DO M89
X189 Y121.5 F500
ID=1 WHEN $AC_TIMER[1]>=0 DO M88
X188.994 Y121.500 F300
ID=1 WHEN $AC_TIMER[1]>=0 DO M89
X102.001 Y121.496 F500
ID=1 WHEN $AC_TIMER[1]>=0 DO M88
X102.000 Y121.496 F300
ID=1 WHEN $AC_TIMER[1]>=0 DO M89
X102 Y122.496 F500
ID=1 WHEN $AC_TIMER[1]>=0 DO M88
X102.001 Y122.496 F300
ID=1 WHEN $AC_TIMER[1]>=0 DO M89
X188.994 Y122.5 F500
ID=1 WHEN $AC_TIMER[1]>=0 DO M88
X189.000 Y122.500 F300
ID=1 WHEN $AC_TIMER[1]>=0 DO M89
X189 Y123.5 F500
ID=1 WHEN $AC_TIMER[1]>=0 DO M88
X188.995 Y123.500 F300
ID=1 WHEN $AC_TIMER[1]>=0 DO M89
X102.001 Y123.496 F500
ID=1 WHEN $AC_TIMER[1]>=0 DO M88
X102.000 Y123.496 F300
ID=1 WHEN $AC_TIMER[1]>=0 DO M89
X102 Y124.496 F500
ID=1 WHEN $AC_TIMER[1]>=0 DO M88
X102.001 Y124.496 F300
ID=1 WHEN $AC_TIMER[1]>=0 DO M89
X188.995 Y124.5 F500
ID=1 WHEN $AC_TIMER[1]>=0 DO M88
X189.000 Y124.500 F300
ID=1 WHEN $AC_TIMER[1]>=0 DO M89
X189 Y125.5 F500
ID=1 WHEN $AC_TIMER[1]>=0 DO M88
X188.995 Y125.500 F300
ID=1 WHEN $AC_TIMER[1]>=0 DO M89
X102.001 Y125.496 F500
ID=1 WHEN $AC_TIMER[1]>=0 DO M88
X102.000 Y125.496 F300
ID=1 WHEN $AC_TIMER[1]>=0 DO M89
X102 Y126.496 F500
ID=1 WHEN $AC_TIMER[1]>=0 DO M88
X102.002 Y126.496 F300
ID=1 WHEN $AC_TIMER[1]>=0 DO M89
X188.995 Y126.5 F500
ID=1 WHEN $AC_TIMER[1]>=0 DO M88
X189.000 Y126.500 F300
ID=1 WHEN $AC_TIMER[1]>=0 DO M89
X189 Y127.5 F500
ID=1 WHEN $AC_TIMER[1]>=0 DO M88
X188.995 Y127.500 F300
ID=1 WHEN $AC_TIMER[1]>=0 DO M89
X102.002 Y127.496 F500
ID=1 WHEN $AC_TIMER[1]>=0 DO M88
X102.000 Y127.496 F300
ID=1 WHEN $AC_TIMER[1]>=0 DO M89
X102 Y128.496 F500
ID=1 WHEN $AC_TIMER[1]>=0 DO M88
X102.002 Y128.496 F300
ID=1 WHEN $AC_TIMER[1]>=0 DO M89
X188.995 Y128.5 F500
ID=1 WHEN $AC_TIMER[1]>=0 DO M88
X189.000 Y128.500 F300
ID=1 WHEN $AC_TIMER[1]>=0 DO M89
X189 Y129.5 F500
ID=1 WHEN $AC_TIMER[1]>=0 DO M88
X188.995 Y129.500 F300
ID=1 WHEN $AC_TIMER[1]>=0 DO M89
X102.002 Y129.496 F500
ID=1 WHEN $AC_TIMER[1]>=0 DO M88
X102.000 Y129.496 F300
ID=1 WHEN $AC_TIMER[1]>=0 DO M89
X102 Y130.496 F500
ID=1 WHEN $AC_TIMER[1]>=0 DO M88
X102.002 Y130.496 F300
ID=1 WHEN $AC_TIMER[1]>=0 DO M89
X188.995 Y130.5 F500
ID=1 WHEN $AC_TIMER[1]>=0 DO M88
X189.000 Y130.500 F300
ID=1 WHEN $AC_TIMER[1]>=0 DO M89
X189 Y131.5 F500
ID=1 WHEN $AC_TIMER[1]>=0 DO M88
X188.995 Y131.500 F300
ID=1 WHEN $AC_TIMER[1]>=0 DO M89
X102.002 Y131.496 F500
ID=1 WHEN $AC_TIMER[1]>=0 DO M88
X102.000 Y131.496 F300
ID=1 WHEN $AC_TIMER[1]>=0 DO M89
X102 Y132.496 F500
ID=1 WHEN $AC_TIMER[1]>=0 DO M88
X102.002 Y132.496 F300
ID=1 WHEN $AC_TIMER[1]>=0 DO M89
X188.995 Y132.5 F500
ID=1 WHEN $AC_TIMER[1]>=0 DO M88
X189.000 Y132.500 F300
ID=1 WHEN $AC_TIMER[1]>=0 DO M89
X189 Y133.5 F500
ID=1 WHEN $AC_TIMER[1]>=0 DO M88
X188.995 Y133.500 F300
ID=1 WHEN $AC_TIMER[1]>=0 DO M89
X102.002 Y133.496 F500
ID=1 WHEN $AC_TIMER[1]>=0 DO M88
X102.000 Y133.496 F300
ID=1 WHEN $AC_TIMER[1]>=0 DO M89
X102 Y134.496 F500
ID=1 WHEN $AC_TIMER[1]>=0 DO M88
X102.002 Y134.496 F300
ID=1 WHEN $AC_TIMER[1]>=0 DO M89
X188.996 Y134.5 F500
ID=1 WHEN $AC_TIMER[1]>=0 DO M88
X189.000 Y134.500 F300
ID=1 WHEN $AC_TIMER[1]>=0 DO M89
X189 Y135.5 F500
ID=1 WHEN $AC_TIMER[1]>=0 DO M88
X188.996 Y135.500 F300
ID=1 WHEN $AC_TIMER[1]>=0 DO M89
X102.002 Y135.496 F500
ID=1 WHEN $AC_TIMER[1]>=0 DO M88
X102.000 Y135.496 F300
ID=1 WHEN $AC_TIMER[1]>=0 DO M89
X102 Y136.496 F500
ID=1 WHEN $AC_TIMER[1]>=0 DO M88
X102.002 Y136.496 F300
ID=1 WHEN $AC_TIMER[1]>=0 DO M89
X188.996 Y136.5 F500
ID=1 WHEN $AC_TIMER[1]>=0 DO M88
X189.000 Y136.500 F300
ID=1 WHEN $AC_TIMER[1]>=0 DO M89
X189 Y137.5 F500
ID=1 WHEN $AC_TIMER[1]>=0 DO M88
X188.996 Y137.500 F300
ID=1 WHEN $AC_TIMER[1]>=0 DO M89
X102.003 Y137.496 F500
ID=1 WHEN $AC_TIMER[1]>=0 DO M88
X102.000 Y137.496 F300
ID=1 WHEN $AC_TIMER[1]>=0 DO M89
X102 Y138.496 F500
ID=1 WHEN $AC_TIMER[1]>=0 DO M88
X102.003 Y138.496 F300
ID=1 WHEN $AC_TIMER[1]>=0 DO M89
X188.996 Y138.5 F500
ID=1 WHEN $AC_TIMER[1]>=0 DO M88
X189.000 Y138.500 F300
ID=1 WHEN $AC_TIMER[1]>=0 DO M89
X189 Y139.5 F500
ID=1 WHEN $AC_TIMER[1]>=0 DO M88
X188.996 Y139.500 F300
ID=1 WHEN $AC_TIMER[1]>=0 DO M89
X102.003 Y139.496 F500
ID=1 WHEN $AC_TIMER[1]>=0 DO M88
X102.000 Y139.496 F300
ID=1 WHEN $AC_TIMER[1]>=0 DO M89
X102 Y140.496 F500
ID=1 WHEN $AC_TIMER[1]>=0 DO M88
X102.003 Y140.496 F300
ID=1 WHEN $AC_TIMER[1]>=0 DO M89
X188.996 Y140.5 F500
ID=1 WHEN $AC_TIMER[1]>=0 DO M88
X189.000 Y140.500 F300
ID=1 WHEN $AC_TIMER[1]>=0 DO M89
X189 Y141.5 F500
ID=1 WHEN $AC_TIMER[1]>=0 DO M88
X188.996 Y141.500 F300
ID=1 WHEN $AC_TIMER[1]>=0 DO M89
X102.003 Y141.496 F500
ID=1 WHEN $AC_TIMER[1]>=0 DO M88
X102.000 Y141.496 F300
ID=1 WHEN $AC_TIMER[1]>=0 DO M89
X102 Y142.496 F500
ID=1 WHEN $AC_TIMER[1]>=0 DO M88
X102.003 Y142.496 F300
ID=1 WHEN $AC_TIMER[1]>=0 DO M89
X188.996 Y142.5 F500
ID=1 WHEN $AC_TIMER[1]>=0 DO M88
X189.000 Y142.500 F300
ID=1 WHEN $AC_TIMER[1]>=0 DO M89
X189 Y143.5 F500
ID=1 WHEN $AC_TIMER[1]>=0 DO M88
X188.996 Y143.500 F300
ID=1 WHEN $AC_TIMER[1]>=0 DO M89
X102.003 Y143.496 F500
ID=1 WHEN $AC_TIMER[1]>=0 DO M88
X102.000 Y143.496 F300
ID=1 WHEN $AC_TIMER[1]>=0 DO M89
X102 Y144.496 F500
ID=1 WHEN $AC_TIMER[1]>=0 DO M88
X102.003 Y144.496 F300
ID=1 WHEN $AC_TIMER[1]>=0 DO M89
X188.997 Y144.5 F500
ID=1 WHEN $AC_TIMER[1]>=0 DO M88
X189.000 Y144.500 F300
ID=1 WHEN $AC_TIMER[1]>=0 DO M89
X189 Y145.5 F500
ID=1 WHEN $AC_TIMER[1]>=0 DO M88
X188.997 Y145.500 F300
ID=1 WHEN $AC_TIMER[1]>=0 DO M89
X102.003 Y145.496 F500
ID=1 WHEN $AC_TIMER[1]>=0 DO M88
X102.000 Y145.496 F300
ID=1 WHEN $AC_TIMER[1]>=0 DO M89
X102 Y146.496 F500
ID=1 WHEN $AC_TIMER[1]>=0 DO M88
X102.003 Y146.496 F300
ID=1 WHEN $AC_TIMER[1]>=0 DO M89
X188.997 Y146.5 F500
ID=1 WHEN $AC_TIMER[1]>=0 DO M88
X189.000 Y146.500 F300
ID=1 WHEN $AC_TIMER[1]>=0 DO M89
X189 Y147.5 F500
ID=1 WHEN $AC_TIMER[1]>=0 DO M88
X188.997 Y147.500 F300
ID=1 WHEN $AC_TIMER[1]>=0 DO M89
X102.004 Y147.496 F500
ID=1 WHEN $AC_TIMER[1]>=0 DO M88
X102.000 Y147.496 F300
ID=1 WHEN $AC_TIMER[1]>=0 DO M89
X102 Y148.496 F500
ID=1 WHEN $AC_TIMER[1]>=0 DO M88
X102.004 Y148.496 F300
ID=1 WHEN $AC_TIMER[1]>=0 DO M89
X188.997 Y148.5 F500
ID=1 WHEN $AC_TIMER[1]>=0 DO M88
X189.000 Y148.500 F300
ID=1 WHEN $AC_TIMER[1]>=0 DO M89
X189 Y149.5 F500
ID=1 WHEN $AC_TIMER[1]>=0 DO M88
X188.997 Y149.500 F300
ID=1 WHEN $AC_TIMER[1]>=0 DO M89
X102.004 Y149.496 F500
ID=1 WHEN $AC_TIMER[1]>=0 DO M88
X102.000 Y149.496 F300
ID=1 WHEN $AC_TIMER[1]>=0 DO M89
X102 Y150.496 F500
ID=1 WHEN $AC_TIMER[1]>=0 DO M88
X102.004 Y150.496 F300
ID=1 WHEN $AC_TIMER[1]>=0 DO M89
X188.997 Y150.5 F500
ID=1 WHEN $AC_TIMER[1]>=0 DO M88
X189.000 Y150.500 F300
ID=1 WHEN $AC_TIMER[1]>=0 DO M89
X189 Y151.5 F500
ID=1 WHEN $AC_TIMER[1]>=0 DO M88
X188.997 Y151.500 F300
ID=1 WHEN $AC_TIMER[1]>=0 DO M89
X102.004 Y151.496 F500
ID=1 WHEN $AC_TIMER[1]>=0 DO M88
X102.000 Y151.496 F300
ID=1 WHEN $AC_TIMER[1]>=0 DO M89
X102 Y152.496 F500
ID=1 WHEN $AC_TIMER[1]>=0 DO M88
X102.004 Y152.496 F300
ID=1 WHEN $AC_TIMER[1]>=0 DO M89
X188.997 Y152.5 F500
ID=1 WHEN $AC_TIMER[1]>=0 DO M88
X189.000 Y152.500 F300
ID=1 WHEN $AC_TIMER[1]>=0 DO M89
X189 Y153.5 F500
ID=1 WHEN $AC_TIMER[1]>=0 DO M88
X188.997 Y153.500 F300
ID=1 WHEN $AC_TIMER[1]>=0 DO M89
X102.004 Y153.496 F500
ID=1 WHEN $AC_TIMER[1]>=0 DO M88
X102.000 Y153.496 F300
ID=1 WHEN $AC_TIMER[1]>=0 DO M89
X102 Y154.496 F500
ID=1 WHEN $AC_TIMER[1]>=0 DO M88
X102.004 Y154.496 F300
ID=1 WHEN $AC_TIMER[1]>=0 DO M89
X188.998 Y154.5 F500
ID=1 WHEN $AC_TIMER[1]>=0 DO M88
X189.000 Y154.500 F300
ID=1 WHEN $AC_TIMER[1]>=0 DO M89
X189 Y155.5 F500
ID=1 WHEN $AC_TIMER[1]>=0 DO M88
X188.998 Y155.500 F300
ID=1 WHEN $AC_TIMER[1]>=0 DO M89
X102.004 Y155.496 F500
ID=1 WHEN $AC_TIMER[1]>=0 DO M88
X102.000 Y155.496 F300
ID=1 WHEN $AC_TIMER[1]>=0 DO M89
X102 Y156.496 F500
ID=1 WHEN $AC_TIMER[1]>=0 DO M88
X102.004 Y156.496 F300
ID=1 WHEN $AC_TIMER[1]>=0 DO M89
X188.998 Y156.5 F500
ID=1 WHEN $AC_TIMER[1]>=0 DO M88
X189.000 Y156.500 F300
ID=1 WHEN $AC_TIMER[1]>=0 DO M89
X189 Y157.5 F500
ID=1 WHEN $AC_TIMER[1]>=0 DO M88
X188.998 Y157.500 F300
ID=1 WHEN $AC_TIMER[1]>=0 DO M89
X102.004 Y157.496 F500
ID=1 WHEN $AC_TIMER[1]>=0 DO M88
X102.000 Y157.496 F300
ID=1 WHEN $AC_TIMER[1]>=0 DO M89
X102 Y158.496 F500
ID=1 WHEN $AC_TIMER[1]>=0 DO M88
X102.005 Y158.496 F300
ID=1 WHEN $AC_TIMER[1]>=0 DO M89
X188.998 Y158.5 F500
ID=1 WHEN $AC_TIMER[1]>=0 DO M88
X189.000 Y158.500 F300
ID=1 WHEN $AC_TIMER[1]>=0 DO M89
X189 Y159.5 F500
ID=1 WHEN $AC_TIMER[1]>=0 DO M88
X188.998 Y159.500 F300
ID=1 WHEN $AC_TIMER[1]>=0 DO M89
X102.005 Y159.496 F500
ID=1 WHEN $AC_TIMER[1]>=0 DO M88
X102.000 Y159.496 F300
ID=1 WHEN $AC_TIMER[1]>=0 DO M89
X102 Y160.496 F500
ID=1 WHEN $AC_TIMER[1]>=0 DO M88
X102.005 Y160.496 F300
ID=1 WHEN $AC_TIMER[1]>=0 DO M89
X188.998 Y160.5 F500
ID=1 WHEN $AC_TIMER[1]>=0 DO M88
X189.000 Y160.500 F300
ID=1 WHEN $AC_TIMER[1]>=0 DO M89
X189 Y161.5 F500
ID=1 WHEN $AC_TIMER[1]>=0 DO M88
X188.998 Y161.500 F300
ID=1 WHEN $AC_TIMER[1]>=0 DO M89
X102.005 Y161.496 F500
ID=1 WHEN $AC_TIMER[1]>=0 DO M88
X102.000 Y161.496 F300
ID=1 WHEN $AC_TIMER[1]>=0 DO M89
X102 Y162.496 F500
ID=1 WHEN $AC_TIMER[1]>=0 DO M88
X102.005 Y162.496 F300
ID=1 WHEN $AC_TIMER[1]>=0 DO M89
X188.998 Y162.5 F500
ID=1 WHEN $AC_TIMER[1]>=0 DO M88
X189.000 Y162.500 F300
ID=1 WHEN $AC_TIMER[1]>=0 DO M89
X189 Y163.5 F500
ID=1 WHEN $AC_TIMER[1]>=0 DO M88
X188.998 Y163.500 F300
ID=1 WHEN $AC_TIMER[1]>=0 DO M89
X102.005 Y163.496 F500
ID=1 WHEN $AC_TIMER[1]>=0 DO M88
X102.000 Y163.496 F300
ID=1 WHEN $AC_TIMER[1]>=0 DO M89
X102 Y164.496 F500
ID=1 WHEN $AC_TIMER[1]>=0 DO M88
X102.005 Y164.496 F300
ID=1 WHEN $AC_TIMER[1]>=0 DO M89
X188.998 Y164.5 F500
ID=1 WHEN $AC_TIMER[1]>=0 DO M88
X189.000 Y164.500 F300
ID=1 WHEN $AC_TIMER[1]>=0 DO M89
X189 Y165.5 F500
ID=1 WHEN $AC_TIMER[1]>=0 DO M88
X188.999 Y165.500 F300
ID=1 WHEN $AC_TIMER[1]>=0 DO M89
X102.005 Y165.496 F500
ID=1 WHEN $AC_TIMER[1]>=0 DO M88
X102.000 Y165.496 F300
ID=1 WHEN $AC_TIMER[1]>=0 DO M89
X102 Y166.496 F500
ID=1 WHEN $AC_TIMER[1]>=0 DO M88
X102.005 Y166.496 F300
ID=1 WHEN $AC_TIMER[1]>=0 DO M89
X188.999 Y166.5 F500
ID=1 WHEN $AC_TIMER[1]>=0 DO M88
X189.000 Y166.500 F300
ID=1 WHEN $AC_TIMER[1]>=0 DO M89
X189 Y167.5 F500
ID=1 WHEN $AC_TIMER[1]>=0 DO M88
X188.999 Y167.500 F300
ID=1 WHEN $AC_TIMER[1]>=0 DO M89
X102.005 Y167.496 F500
ID=1 WHEN $AC_TIMER[1]>=0 DO M88
X102.000 Y167.496 F300
ID=1 WHEN $AC_TIMER[1]>=0 DO M89
X102 Y168.496 F500
ID=1 WHEN $AC_TIMER[1]>=0 DO M88
X102.006 Y168.496 F300
ID=1 WHEN $AC_TIMER[1]>=0 DO M89
X188.999 Y168.5 F500
ID=1 WHEN $AC_TIMER[1]>=0 DO M88
X189.000 Y168.500 F300
ID=1 WHEN $AC_TIMER[1]>=0 DO M89
X189 Y169.5 F500
ID=1 WHEN $AC_TIMER[1]>=0 DO M88
X188.999 Y169.500 F300
ID=1 WHEN $AC_TIMER[1]>=0 DO M89
X102.006 Y169.496 F500
ID=1 WHEN $AC_TIMER[1]>=0 DO M88
X102.000 Y169.496 F300
ID=1 WHEN $AC_TIMER[1]>=0 DO M89
X102 Y170.496 F500
ID=1 WHEN $AC_TIMER[1]>=0 DO M88
X102.006 Y170.496 F300
ID=1 WHEN $AC_TIMER[1]>=0 DO M89
X188.999 Y170.5 F500
ID=1 WHEN $AC_TIMER[1]>=0 DO M88
X189.000 Y170.500 F300
ID=1 WHEN $AC_TIMER[1]>=0 DO M89
X189 Y171.5 F500
ID=1 WHEN $AC_TIMER[1]>=0 DO M88
X188.999 Y171.500 F300
ID=1 WHEN $AC_TIMER[1]>=0 DO M89
X102.006 Y171.496 F500
ID=1 WHEN $AC_TIMER[1]>=0 DO M88
X102.000 Y171.496 F300
ID=1 WHEN $AC_TIMER[1]>=0 DO M89
X102 Y172.496 F500
ID=1 WHEN $AC_TIMER[1]>=0 DO M88
X102.006 Y172.496 F300
ID=1 WHEN $AC_TIMER[1]>=0 DO M89
X188.999 Y172.5 F500
ID=1 WHEN $AC_TIMER[1]>=0 DO M88
X189.000 Y172.500 F300
ID=1 WHEN $AC_TIMER[1]>=0 DO M89
X189 Y173.5 F500
ID=1 WHEN $AC_TIMER[1]>=0 DO M88
X188.999 Y173.500 F300
ID=1 WHEN $AC_TIMER[1]>=0 DO M89
X102.006 Y173.496 F500
ID=1 WHEN $AC_TIMER[1]>=0 DO M88
X102.000 Y173.496 F300
ID=1 WHEN $AC_TIMER[1]>=0 DO M89
X102 Y174.496 F500
ID=1 WHEN $AC_TIMER[1]>=0 DO M88
X102.006 Y174.496 F300
ID=1 WHEN $AC_TIMER[1]>=0 DO M89
X188.999 Y174.5 F500
ID=1 WHEN $AC_TIMER[1]>=0 DO M88
X189.000 Y174.500 F300
ID=1 WHEN $AC_TIMER[1]>=0 DO M89
X189 Y175.5 F500
ID=1 WHEN $AC_TIMER[1]>=0 DO M88
X189.000 Y175.500 F300
ID=1 WHEN $AC_TIMER[1]>=0 DO M89
X102.006 Y175.496 F500
ID=1 WHEN $AC_TIMER[1]>=0 DO M88
X102.000 Y175.496 F300
ID=1 WHEN $AC_TIMER[1]>=0 DO M89
X102 Y176.496 F500
ID=1 WHEN $AC_TIMER[1]>=0 DO M88
X102.006 Y176.496 F300
ID=1 WHEN $AC_TIMER[1]>=0 DO M89
X189 Y176.5 F500
ID=1 WHEN $AC_TIMER[1]>=0 DO M88
X189.000 Y176.500 F300
ID=1 WHEN $AC_TIMER[1]>=0 DO M89
X189 Y177.5 F500
ID=1 WHEN $AC_TIMER[1]>=0 DO M88
X189.000 Y177.500 F300
ID=1 WHEN $AC_TIMER[1]>=0 DO M89
X102.006 Y177.496 F500
ID=1 WHEN $AC_TIMER[1]>=0 DO M88
X102.000 Y177.496 F300
ID=1 WHEN $AC_TIMER[1]>=0 DO M89
X102 Y178.496 F500
ID=1 WHEN $AC_TIMER[1]>=0 DO M88
X102.007 Y178.496 F300
ID=1 WHEN $AC_TIMER[1]>=0 DO M89
X189 Y178.5 F500
ID=1 WHEN $AC_TIMER[1]>=0 DO M88
X189.000 Y178.500 F300
ID=1 WHEN $AC_TIMER[1]>=0 DO M89
X189 Y179.5 F500
ID=1 WHEN $AC_TIMER[1]>=0 DO M88
X102.007 Y179.496 F300
ID=1 WHEN $AC_TIMER[1]>=0 DO M89
; Final do trecho do raster

; Layer 6
G1 Z6.000 F500
X102.607 Y185.78 F500
ID=1 WHEN $AC_TIMER[1]>=0 DO M88
X101.724 Y184.137 F300
X101.183 Y182.352
X101.000 Y180.476
X101.000 Y110.524
X101.183 Y108.648
X101.724 Y106.863
X102.607 Y105.220
X103.785 Y103.785
X105.220 Y102.607
X106.863 Y101.724
X108.648 Y101.183
X110.524 Y101.000
X180.476 Y101.000
X182.352 Y101.183
X184.137 Y101.724
X185.780 Y102.607
X187.215 Y103.785
X188.393 Y105.220
X189.276 Y106.863
X189.817 Y108.648
X190.000 Y110.524
X190.000 Y180.476
X189.817 Y182.352
X189.276 Y184.137
X188.393 Y185.780
X187.215 Y187.215
X185.780 Y188.393
X184.137 Y189.276
X182.352 Y189.817
X180.476 Y190.000
X110.524 Y190.000
X108.648 Y189.817
X106.863 Y189.276
X105.220 Y188.393
X103.785 Y187.215
X102.671 Y185.858
ID=1 WHEN $AC_TIMER[1]>=0 DO M89
X103 Y110.5 F500
ID=1 WHEN $AC_TIMER[1]>=0 DO M88
X103.002 Y180.547 F300
X103.132 Y181.917
X103.152 Y182.016
X103.552 Y183.326
X103.590 Y183.417
X104.294 Y184.707
X105.164 Y185.767
X105.233 Y185.837
X106.293 Y186.706
X106.373 Y186.760
X107.583 Y187.410
X107.674 Y187.448
X108.984 Y187.848
X109.083 Y187.868
X110.500 Y188.000
X180.547 Y187.998
X181.917 Y187.868
X182.016 Y187.848
X183.326 Y187.448
X183.417 Y187.410
X184.627 Y186.760
X184.707 Y186.706
X185.767 Y185.836
X185.836 Y185.767
X186.706 Y184.707
X186.760 Y184.627
X187.410 Y183.417
X187.448 Y183.326
X187.848 Y182.016
X187.868 Y181.917
X188.000 Y180.500
X187.998 Y110.453
X187.868 Y109.083
X187.848 Y108.984
X187.448 Y107.674
X187.410 Y107.583
X186.760 Y106.373
X186.707 Y106.293
X185.836 Y105.233
X185.767 Y105.164
X184.707 Y104.294
X184.627 Y104.240
X183.417 Y103.590
X183.326 Y103.552
X182.016 Y103.152
X181.917 Y103.132
X180.500 Y103.000
X110.453 Y103.002
X109.083 Y103.132
X108.984 Y103.152
X107.674 Y103.552
X107.583 Y103.590
X106.373 Y104.240
X106.293 Y104.294
X105.233 Y105.164
X105.164 Y105.233
X104.294 Y106.293
X104.240 Y106.373
X103.590 Y107.583
X103.552 Y107.674
X103.152 Y108.984
X103.132 Y109.083
X103.009 Y110.400
ID=1 WHEN $AC_TIMER[1]>=0 DO M89

; Inicio do trecho do raster
X189 Y111.5 F500
ID=1 WHEN $AC_TIMER[1]>=0 DO M88
X188.993 Y111.500 F300
ID=1 WHEN $AC_TIMER[1]>=0 DO M89
X102 Y112.496 F500
ID=1 WHEN $AC_TIMER[1]>=0 DO M88
X102.000 Y112.496 F300
ID=1 WHEN $AC_TIMER[1]>=0 DO M89
X188.993 Y112.5 F500
ID=1 WHEN $AC_TIMER[1]>=0 DO M88
X189.000 Y112.500 F300
ID=1 WHEN $AC_TIMER[1]>=0 DO M89
X189 Y113.5 F500
ID=1 WHEN $AC_TIMER[1]>=0 DO M88
X188.994 Y113.500 F300
ID=1 WHEN $AC_TIMER[1]>=0 DO M89
X102 Y113.496 F500
ID=1 WHEN $AC_TIMER[1]>=0 DO M88
X102.000 Y113.496 F300
ID=1 WHEN $AC_TIMER[1]>=0 DO M89
X102 Y114.496 F500
ID=1 WHEN $AC_TIMER[1]>=0 DO M88
X102.000 Y114.496 F300
ID=1 WHEN $AC_TIMER[1]>=0 DO M89
X188.994 Y114.5 F500
ID=1 WHEN $AC_TIMER[1]>=0 DO M88
X189.000 Y114.500 F300
ID=1 WHEN $AC_TIMER[1]>=0 DO M89
X189 Y115.5 F500
ID=1 WHEN $AC_TIMER[1]>=0 DO M88
X188.994 Y115.500 F300
ID=1 WHEN $AC_TIMER[1]>=0 DO M89
X102 Y115.496 F500
ID=1 WHEN $AC_TIMER[1]>=0 DO M88
X102.000 Y115.496 F300
ID=1 WHEN $AC_TIMER[1]>=0 DO M89
X102 Y116.496 F500
ID=1 WHEN $AC_TIMER[1]>=0 DO M88
X102.001 Y116.496 F300
ID=1 WHEN $AC_TIMER[1]>=0 DO M89
X188.994 Y116.5 F500
ID=1 WHEN $AC_TIMER[1]>=0 DO M88
X189.000 Y116.500 F300
ID=1 WHEN $AC_TIMER[1]>=0 DO M89
X189 Y117.5 F500
ID=1 WHEN $AC_TIMER[1]>=0 DO M88
X188.994 Y117.500 F300
ID=1 WHEN $AC_TIMER[1]>=0 DO M89
X102.001 Y117.496 F500
ID=1 WHEN $AC_TIMER[1]>=0 DO M88
X102.000 Y117.496 F300
ID=1 WHEN $AC_TIMER[1]>=0 DO M89
X102 Y118.496 F500
ID=1 WHEN $AC_TIMER[1]>=0 DO M88
X102.001 Y118.496 F300
ID=1 WHEN $AC_TIMER[1]>=0 DO M89
X188.994 Y118.5 F500
ID=1 WHEN $AC_TIMER[1]>=0 DO M88
X189.000 Y118.500 F300
ID=1 WHEN $AC_TIMER[1]>=0 DO M89
X189 Y119.5 F500
ID=1 WHEN $AC_TIMER[1]>=0 DO M88
X188.994 Y119.500 F300
ID=1 WHEN $AC_TIMER[1]>=0 DO M89
X102.001 Y119.496 F500
ID=1 WHEN $AC_TIMER[1]>=0 DO M88
X102.000 Y119.496 F300
ID=1 WHEN $AC_TIMER[1]>=0 DO M89
X102 Y120.496 F500
ID=1 WHEN $AC_TIMER[1]>=0 DO M88
X102.001 Y120.496 F300
ID=1 WHEN $AC_TIMER[1]>=0 DO M89
X188.994 Y120.5 F500
ID=1 WHEN $AC_TIMER[1]>=0 DO M88
X189.000 Y120.500 F300
ID=1 WHEN $AC_TIMER[1]>=0 DO M89
X189 Y121.5 F500
ID=1 WHEN $AC_TIMER[1]>=0 DO M88
X188.994 Y121.500 F300
ID=1 WHEN $AC_TIMER[1]>=0 DO M89
X102.001 Y121.496 F500
ID=1 WHEN $AC_TIMER[1]>=0 DO M88
X102.000 Y121.496 F300
ID=1 WHEN $AC_TIMER[1]>=0 DO M89
X102 Y122.496 F500
ID=1 WHEN $AC_TIMER[1]>=0 DO M88
X102.001 Y122.496 F300
ID=1 WHEN $AC_TIMER[1]>=0 DO M89
X188.994 Y122.5 F500
ID=1 WHEN $AC_TIMER[1]>=0 DO M88
X189.000 Y122.500 F300
ID=1 WHEN $AC_TIMER[1]>=0 DO M89
X189 Y123.5 F500
ID=1 WHEN $AC_TIMER[1]>=0 DO M88
X188.995 Y123.500 F300
ID=1 WHEN $AC_TIMER[1]>=0 DO M89
X102.001 Y123.496 F500
ID=1 WHEN $AC_TIMER[1]>=0 DO M88
X102.000 Y123.496 F300
ID=1 WHEN $AC_TIMER[1]>=0 DO M89
X102 Y124.496 F500
ID=1 WHEN $AC_TIMER[1]>=0 DO M88
X102.001 Y124.496 F300
ID=1 WHEN $AC_TIMER[1]>=0 DO M89
X188.995 Y124.5 F500
ID=1 WHEN $AC_TIMER[1]>=0 DO M88
X189.000 Y124.500 F300
ID=1 WHEN $AC_TIMER[1]>=0 DO M89
X189 Y125.5 F500
ID=1 WHEN $AC_TIMER[1]>=0 DO M88
X188.995 Y125.500 F300
ID=1 WHEN $AC_TIMER[1]>=0 DO M89
X102.001 Y125.496 F500
ID=1 WHEN $AC_TIMER[1]>=0 DO M88
X102.000 Y125.496 F300
ID=1 WHEN $AC_TIMER[1]>=0 DO M89
X102 Y126.496 F500
ID=1 WHEN $AC_TIMER[1]>=0 DO M88
X102.002 Y126.496 F300
ID=1 WHEN $AC_TIMER[1]>=0 DO M89
X188.995 Y126.5 F500
ID=1 WHEN $AC_TIMER[1]>=0 DO M88
X189.000 Y126.500 F300
ID=1 WHEN $AC_TIMER[1]>=0 DO M89
X189 Y127.5 F500
ID=1 WHEN $AC_TIMER[1]>=0 DO M88
X188.995 Y127.500 F300
ID=1 WHEN $AC_TIMER[1]>=0 DO M89
X102.002 Y127.496 F500
ID=1 WHEN $AC_TIMER[1]>=0 DO M88
X102.000 Y127.496 F300
ID=1 WHEN $AC_TIMER[1]>=0 DO M89
X102 Y128.496 F500
ID=1 WHEN $AC_TIMER[1]>=0 DO M88
X102.002 Y128.496 F300
ID=1 WHEN $AC_TIMER[1]>=0 DO M89
X188.995 Y128.5 F500
ID=1 WHEN $AC_TIMER[1]>=0 DO M88
X189.000 Y128.500 F300
ID=1 WHEN $AC_TIMER[1]>=0 DO M89
X189 Y129.5 F500
ID=1 WHEN $AC_TIMER[1]>=0 DO M88
X188.995 Y129.500 F300
ID=1 WHEN $AC_TIMER[1]>=0 DO M89
X102.002 Y129.496 F500
ID=1 WHEN $AC_TIMER[1]>=0 DO M88
X102.000 Y129.496 F300
ID=1 WHEN $AC_TIMER[1]>=0 DO M89
X102 Y130.496 F500
ID=1 WHEN $AC_TIMER[1]>=0 DO M88
X102.002 Y130.496 F300
ID=1 WHEN $AC_TIMER[1]>=0 DO M89
X188.995 Y130.5 F500
ID=1 WHEN $AC_TIMER[1]>=0 DO M88
X189.000 Y130.500 F300
ID=1 WHEN $AC_TIMER[1]>=0 DO M89
X189 Y131.5 F500
ID=1 WHEN $AC_TIMER[1]>=0 DO M88
X188.995 Y131.500 F300
ID=1 WHEN $AC_TIMER[1]>=0 DO M89
X102.002 Y131.496 F500
ID=1 WHEN $AC_TIMER[1]>=0 DO M88
X102.000 Y131.496 F300
ID=1 WHEN $AC_TIMER[1]>=0 DO M89
X102 Y132.496 F500
ID=1 WHEN $AC_TIMER[1]>=0 DO M88
X102.002 Y132.496 F300
ID=1 WHEN $AC_TIMER[1]>=0 DO M89
X188.995 Y132.5 F500
ID=1 WHEN $AC_TIMER[1]>=0 DO M88
X189.000 Y132.500 F300
ID=1 WHEN $AC_TIMER[1]>=0 DO M89
X189 Y133.5 F500
ID=1 WHEN $AC_TIMER[1]>=0 DO M88
X188.995 Y133.500 F300
ID=1 WHEN $AC_TIMER[1]>=0 DO M89
X102.002 Y133.496 F500
ID=1 WHEN $AC_TIMER[1]>=0 DO M88
X102.000 Y133.496 F300
ID=1 WHEN $AC_TIMER[1]>=0 DO M89
X102 Y134.496 F500
ID=1 WHEN $AC_TIMER[1]>=0 DO M88
X102.002 Y134.496 F300
ID=1 WHEN $AC_TIMER[1]>=0 DO M89
X188.996 Y134.5 F500
ID=1 WHEN $AC_TIMER[1]>=0 DO M88
X189.000 Y134.500 F300
ID=1 WHEN $AC_TIMER[1]>=0 DO M89
X189 Y135.5 F500
ID=1 WHEN $AC_TIMER[1]>=0 DO M88
X188.996 Y135.500 F300
ID=1 WHEN $AC_TIMER[1]>=0 DO M89
X102.002 Y135.496 F500
ID=1 WHEN $AC_TIMER[1]>=0 DO M88
X102.000 Y135.496 F300
ID=1 WHEN $AC_TIMER[1]>=0 DO M89
X102 Y136.496 F500
ID=1 WHEN $AC_TIMER[1]>=0 DO M88
X102.002 Y136.496 F300
ID=1 WHEN $AC_TIMER[1]>=0 DO M89
X188.996 Y136.5 F500
ID=1 WHEN $AC_TIMER[1]>=0 DO M88
X189.000 Y136.500 F300
ID=1 WHEN $AC_TIMER[1]>=0 DO M89
X189 Y137.5 F500
ID=1 WHEN $AC_TIMER[1]>=0 DO M88
X188.996 Y137.500 F300
ID=1 WHEN $AC_TIMER[1]>=0 DO M89
X102.003 Y137.496 F500
ID=1 WHEN $AC_TIMER[1]>=0 DO M88
X102.000 Y137.496 F300
ID=1 WHEN $AC_TIMER[1]>=0 DO M89
X102 Y138.496 F500
ID=1 WHEN $AC_TIMER[1]>=0 DO M88
X102.003 Y138.496 F300
ID=1 WHEN $AC_TIMER[1]>=0 DO M89
X188.996 Y138.5 F500
ID=1 WHEN $AC_TIMER[1]>=0 DO M88
X189.000 Y138.500 F300
ID=1 WHEN $AC_TIMER[1]>=0 DO M89
X189 Y139.5 F500
ID=1 WHEN $AC_TIMER[1]>=0 DO M88
X188.996 Y139.500 F300
ID=1 WHEN $AC_TIMER[1]>=0 DO M89
X102.003 Y139.496 F500
ID=1 WHEN $AC_TIMER[1]>=0 DO M88
X102.000 Y139.496 F300
ID=1 WHEN $AC_TIMER[1]>=0 DO M89
X102 Y140.496 F500
ID=1 WHEN $AC_TIMER[1]>=0 DO M88
X102.003 Y140.496 F300
ID=1 WHEN $AC_TIMER[1]>=0 DO M89
X188.996 Y140.5 F500
ID=1 WHEN $AC_TIMER[1]>=0 DO M88
X189.000 Y140.500 F300
ID=1 WHEN $AC_TIMER[1]>=0 DO M89
X189 Y141.5 F500
ID=1 WHEN $AC_TIMER[1]>=0 DO M88
X188.996 Y141.500 F300
ID=1 WHEN $AC_TIMER[1]>=0 DO M89
X102.003 Y141.496 F500
ID=1 WHEN $AC_TIMER[1]>=0 DO M88
X102.000 Y141.496 F300
ID=1 WHEN $AC_TIMER[1]>=0 DO M89
X102 Y142.496 F500
ID=1 WHEN $AC_TIMER[1]>=0 DO M88
X102.003 Y142.496 F300
ID=1 WHEN $AC_TIMER[1]>=0 DO M89
X188.996 Y142.5 F500
ID=1 WHEN $AC_TIMER[1]>=0 DO M88
X189.000 Y142.500 F300
ID=1 WHEN $AC_TIMER[1]>=0 DO M89
X189 Y143.5 F500
ID=1 WHEN $AC_TIMER[1]>=0 DO M88
X188.996 Y143.500 F300
ID=1 WHEN $AC_TIMER[1]>=0 DO M89
X102.003 Y143.496 F500
ID=1 WHEN $AC_TIMER[1]>=0 DO M88
X102.000 Y143.496 F300
ID=1 WHEN $AC_TIMER[1]>=0 DO M89
X102 Y144.496 F500
ID=1 WHEN $AC_TIMER[1]>=0 DO M88
X102.003 Y144.496 F300
ID=1 WHEN $AC_TIMER[1]>=0 DO M89
X188.997 Y144.5 F500
ID=1 WHEN $AC_TIMER[1]>=0 DO M88
X189.000 Y144.500 F300
ID=1 WHEN $AC_TIMER[1]>=0 DO M89
X189 Y145.5 F500
ID=1 WHEN $AC_TIMER[1]>=0 DO M88
X188.997 Y145.500 F300
ID=1 WHEN $AC_TIMER[1]>=0 DO M89
X102.003 Y145.496 F500
ID=1 WHEN $AC_TIMER[1]>=0 DO M88
X102.000 Y145.496 F300
ID=1 WHEN $AC_TIMER[1]>=0 DO M89
X102 Y146.496 F500
ID=1 WHEN $AC_TIMER[1]>=0 DO M88
X102.003 Y146.496 F300
ID=1 WHEN $AC_TIMER[1]>=0 DO M89
X188.997 Y146.5 F500
ID=1 WHEN $AC_TIMER[1]>=0 DO M88
X189.000 Y146.500 F300
ID=1 WHEN $AC_TIMER[1]>=0 DO M89
X189 Y147.5 F500
ID=1 WHEN $AC_TIMER[1]>=0 DO M88
X188.997 Y147.500 F300
ID=1 WHEN $AC_TIMER[1]>=0 DO M89
X102.004 Y147.496 F500
ID=1 WHEN $AC_TIMER[1]>=0 DO M88
X102.000 Y147.496 F300
ID=1 WHEN $AC_TIMER[1]>=0 DO M89
X102 Y148.496 F500
ID=1 WHEN $AC_TIMER[1]>=0 DO M88
X102.004 Y148.496 F300
ID=1 WHEN $AC_TIMER[1]>=0 DO M89
X188.997 Y148.5 F500
ID=1 WHEN $AC_TIMER[1]>=0 DO M88
X189.000 Y148.500 F300
ID=1 WHEN $AC_TIMER[1]>=0 DO M89
X189 Y149.5 F500
ID=1 WHEN $AC_TIMER[1]>=0 DO M88
X188.997 Y149.500 F300
ID=1 WHEN $AC_TIMER[1]>=0 DO M89
X102.004 Y149.496 F500
ID=1 WHEN $AC_TIMER[1]>=0 DO M88
X102.000 Y149.496 F300
ID=1 WHEN $AC_TIMER[1]>=0 DO M89
X102 Y150.496 F500
ID=1 WHEN $AC_TIMER[1]>=0 DO M88
X102.004 Y150.496 F300
ID=1 WHEN $AC_TIMER[1]>=0 DO M89
X188.997 Y150.5 F500
ID=1 WHEN $AC_TIMER[1]>=0 DO M88
X189.000 Y150.500 F300
ID=1 WHEN $AC_TIMER[1]>=0 DO M89
X189 Y151.5 F500
ID=1 WHEN $AC_TIMER[1]>=0 DO M88
X188.997 Y151.500 F300
ID=1 WHEN $AC_TIMER[1]>=0 DO M89
X102.004 Y151.496 F500
ID=1 WHEN $AC_TIMER[1]>=0 DO M88
X102.000 Y151.496 F300
ID=1 WHEN $AC_TIMER[1]>=0 DO M89
X102 Y152.496 F500
ID=1 WHEN $AC_TIMER[1]>=0 DO M88
X102.004 Y152.496 F300
ID=1 WHEN $AC_TIMER[1]>=0 DO M89
X188.997 Y152.5 F500
ID=1 WHEN $AC_TIMER[1]>=0 DO M88
X189.000 Y152.500 F300
ID=1 WHEN $AC_TIMER[1]>=0 DO M89
X189 Y153.5 F500
ID=1 WHEN $AC_TIMER[1]>=0 DO M88
X188.997 Y153.500 F300
ID=1 WHEN $AC_TIMER[1]>=0 DO M89
X102.004 Y153.496 F500
ID=1 WHEN $AC_TIMER[1]>=0 DO M88
X102.000 Y153.496 F300
ID=1 WHEN $AC_TIMER[1]>=0 DO M89
X102 Y154.496 F500
ID=1 WHEN $AC_TIMER[1]>=0 DO M88
X102.004 Y154.496 F300
ID=1 WHEN $AC_TIMER[1]>=0 DO M89
X188.998 Y154.5 F500
ID=1 WHEN $AC_TIMER[1]>=0 DO M88
X189.000 Y154.500 F300
ID=1 WHEN $AC_TIMER[1]>=0 DO M89
X189 Y155.5 F500
ID=1 WHEN $AC_TIMER[1]>=0 DO M88
X188.998 Y155.500 F300
ID=1 WHEN $AC_TIMER[1]>=0 DO M89
X102.004 Y155.496 F500
ID=1 WHEN $AC_TIMER[1]>=0 DO M88
X102.000 Y155.496 F300
ID=1 WHEN $AC_TIMER[1]>=0 DO M89
X102 Y156.496 F500
ID=1 WHEN $AC_TIMER[1]>=0 DO M88
X102.004 Y156.496 F300
ID=1 WHEN $AC_TIMER[1]>=0 DO M89
X188.998 Y156.5 F500
ID=1 WHEN $AC_TIMER[1]>=0 DO M88
X189.000 Y156.500 F300
ID=1 WHEN $AC_TIMER[1]>=0 DO M89
X189 Y157.5 F500
ID=1 WHEN $AC_TIMER[1]>=0 DO M88
X188.998 Y157.500 F300
ID=1 WHEN $AC_TIMER[1]>=0 DO M89
X102.004 Y157.496 F500
ID=1 WHEN $AC_TIMER[1]>=0 DO M88
X102.000 Y157.496 F300
ID=1 WHEN $AC_TIMER[1]>=0 DO M89
X102 Y158.496 F500
ID=1 WHEN $AC_TIMER[1]>=0 DO M88
X102.005 Y158.496 F300
ID=1 WHEN $AC_TIMER[1]>=0 DO M89
X188.998 Y158.5 F500
ID=1 WHEN $AC_TIMER[1]>=0 DO M88
X189.000 Y158.500 F300
ID=1 WHEN $AC_TIMER[1]>=0 DO M89
X189 Y159.5 F500
ID=1 WHEN $AC_TIMER[1]>=0 DO M88
X188.998 Y159.500 F300
ID=1 WHEN $AC_TIMER[1]>=0 DO M89
X102.005 Y159.496 F500
ID=1 WHEN $AC_TIMER[1]>=0 DO M88
X102.000 Y159.496 F300
ID=1 WHEN $AC_TIMER[1]>=0 DO M89
X102 Y160.496 F500
ID=1 WHEN $AC_TIMER[1]>=0 DO M88
X102.005 Y160.496 F300
ID=1 WHEN $AC_TIMER[1]>=0 DO M89
X188.998 Y160.5 F500
ID=1 WHEN $AC_TIMER[1]>=0 DO M88
X189.000 Y160.500 F300
ID=1 WHEN $AC_TIMER[1]>=0 DO M89
X189 Y161.5 F500
ID=1 WHEN $AC_TIMER[1]>=0 DO M88
X188.998 Y161.500 F300
ID=1 WHEN $AC_TIMER[1]>=0 DO M89
X102.005 Y161.496 F500
ID=1 WHEN $AC_TIMER[1]>=0 DO M88
X102.000 Y161.496 F300
ID=1 WHEN $AC_TIMER[1]>=0 DO M89
X102 Y162.496 F500
ID=1 WHEN $AC_TIMER[1]>=0 DO M88
X102.005 Y162.496 F300
ID=1 WHEN $AC_TIMER[1]>=0 DO M89
X188.998 Y162.5 F500
ID=1 WHEN $AC_TIMER[1]>=0 DO M88
X189.000 Y162.500 F300
ID=1 WHEN $AC_TIMER[1]>=0 DO M89
X189 Y163.5 F500
ID=1 WHEN $AC_TIMER[1]>=0 DO M88
X188.998 Y163.500 F300
ID=1 WHEN $AC_TIMER[1]>=0 DO M89
X102.005 Y163.496 F500
ID=1 WHEN $AC_TIMER[1]>=0 DO M88
X102.000 Y163.496 F300
ID=1 WHEN $AC_TIMER[1]>=0 DO M89
X102 Y164.496 F500
ID=1 WHEN $AC_TIMER[1]>=0 DO M88
X102.005 Y164.496 F300
ID=1 WHEN $AC_TIMER[1]>=0 DO M89
X188.998 Y164.5 F500
ID=1 WHEN $AC_TIMER[1]>=0 DO M88
X189.000 Y164.500 F300
ID=1 WHEN $AC_TIMER[1]>=0 DO M89
X189 Y165.5 F500
ID=1 WHEN $AC_TIMER[1]>=0 DO M88
X188.999 Y165.500 F300
ID=1 WHEN $AC_TIMER[1]>=0 DO M89
X102.005 Y165.496 F500
ID=1 WHEN $AC_TIMER[1]>=0 DO M88
X102.000 Y165.496 F300
ID=1 WHEN $AC_TIMER[1]>=0 DO M89
X102 Y166.496 F500
ID=1 WHEN $AC_TIMER[1]>=0 DO M88
X102.005 Y166.496 F300
ID=1 WHEN $AC_TIMER[1]>=0 DO M89
X188.999 Y166.5 F500
ID=1 WHEN $AC_TIMER[1]>=0 DO M88
X189.000 Y166.500 F300
ID=1 WHEN $AC_TIMER[1]>=0 DO M89
X189 Y167.5 F500
ID=1 WHEN $AC_TIMER[1]>=0 DO M88
X188.999 Y167.500 F300
ID=1 WHEN $AC_TIMER[1]>=0 DO M89
X102.005 Y167.496 F500
ID=1 WHEN $AC_TIMER[1]>=0 DO M88
X102.000 Y167.496 F300
ID=1 WHEN $AC_TIMER[1]>=0 DO M89
X102 Y168.496 F500
ID=1 WHEN $AC_TIMER[1]>=0 DO M88
X102.006 Y168.496 F300
ID=1 WHEN $AC_TIMER[1]>=0 DO M89
X188.999 Y168.5 F500
ID=1 WHEN $AC_TIMER[1]>=0 DO M88
X189.000 Y168.500 F300
ID=1 WHEN $AC_TIMER[1]>=0 DO M89
X189 Y169.5 F500
ID=1 WHEN $AC_TIMER[1]>=0 DO M88
X188.999 Y169.500 F300
ID=1 WHEN $AC_TIMER[1]>=0 DO M89
X102.006 Y169.496 F500
ID=1 WHEN $AC_TIMER[1]>=0 DO M88
X102.000 Y169.496 F300
