; Generated by RP3 on 2021-02-10
; Job 0 - LMD

; General Config.--------------------
$ac_timer[1]=0
G91   ; relative positioning
G641  ;
G603  ;
R0 = 39     ; Laser Power 
R3 = 3      ; Powder feed rate

M55   ; home mirror
G4F4  ; necessary delay for positioning of the mirror
M0    ; wait for user-input

; Process Start-up--------------------
M56   ; set canal 1 as laser-source
G4F4  ; necessary delay for positioning of the mirror

; Start Powder --------------------

N4600 M78     ; GAS 1 ON
N4610 M64		;CARRIER ON
N4620 H2 = R3	;SET POWDER FLOW
N4630 M62		;POWDER MIXER ON
N4640 M66		;POWDER FEED ON
N4650 G4F3

M0    ; wait for user-input

; Laser On and Path------------------
H1 = R0
G54   ; set process starting point (machine zero)
G90   ; use absolute coordinates



; Layer 1
G1 Z1.440 F1000

X98.9 Y98.9 F1000
ID=1 WHEN $AC_TIMER[1]>=0 DO M50
X5.546 Y98.900 F300
X5.148 Y98.877
X4.780 Y98.820
X4.444 Y98.735
X4.130 Y98.610
X3.795 Y98.439
X3.494 Y98.248
X3.220 Y98.028
X2.972 Y97.780
X2.752 Y97.506
X2.561 Y97.205
X2.392 Y96.875
X2.265 Y96.548
X2.179 Y96.216
X2.123 Y95.852
X2.100 Y95.454
X2.100 Y2.100
X4.660 Y2.100
X4.663 Y84.070
X4.709 Y84.758
X4.827 Y85.444
X5.008 Y86.082
X5.188 Y86.572
X5.271 Y86.760
X5.580 Y87.339
X5.860 Y87.779
X5.978 Y87.941
X6.419 Y88.461
X6.902 Y88.934
X7.302 Y89.264
X7.461 Y89.380
X8.032 Y89.735
X8.652 Y90.042
X9.317 Y90.289
X9.977 Y90.451
X10.648 Y90.547
X11.260 Y90.580
X98.900 Y90.580
X98.900 Y98.800
ID=1 WHEN $AC_TIMER[1]>=0 DO M51
X96.02 Y96.02 F1000
ID=1 WHEN $AC_TIMER[1]>=0 DO M50
X5.629 Y96.020 F300
X5.317 Y95.983
X5.147 Y95.881
X5.063 Y95.774
X5.003 Y95.633
X4.980 Y95.371
X4.980 Y91.071
X5.069 Y91.156
X5.609 Y91.594
X5.941 Y91.826
X6.512 Y92.181
X6.754 Y92.316
X7.373 Y92.622
X7.651 Y92.742
X8.317 Y92.989
X8.627 Y93.084
X9.286 Y93.247
X9.569 Y93.302
X10.240 Y93.398
X11.260 Y93.460
X96.020 Y93.460
X96.020 Y95.920
ID=1 WHEN $AC_TIMER[1]>=0 DO M51

; Inicio do trecho do raster
; Final do trecho do raster

; Layer 2
G1 Z2.880 F1000
N4550 M63		;POWDER MIXER OFF
N4560 M67		;POWDER FEED OFF
N4570 M65		;CARRIER OFF
N4580 M79     ;GAS 1 OFF

N4590 M0

N4600 M78     ; GAS 1 ON
N4610 M64		;CARRIER ON
N4620 H2 = R3	;SET POWDER FLOW
N4630 M62		;POWDER MIXER ON
N4640 M66		;POWDER FEED ON
N4650 G4F3

X98.9 Y98.9 F1000
ID=1 WHEN $AC_TIMER[1]>=0 DO M50
X5.546 Y98.900 F300
X5.148 Y98.877
X4.780 Y98.820
X4.444 Y98.735
X4.130 Y98.610
X3.807 Y98.445
X3.494 Y98.239
X3.212 Y98.019
X2.972 Y97.780
X2.752 Y97.506
X2.561 Y97.205
X2.392 Y96.875
X2.265 Y96.548
X2.179 Y96.216
X2.123 Y95.852
X2.100 Y95.454
X2.100 Y2.100
X4.660 Y2.100
X4.663 Y84.082
X4.709 Y84.753
X4.827 Y85.454
X5.022 Y86.129
X5.275 Y86.748
X5.590 Y87.349
X5.870 Y87.789
X5.986 Y87.948
X6.419 Y88.461
X6.917 Y88.946
X7.449 Y89.366
X7.889 Y89.656
X8.067 Y89.757
X8.640 Y90.033
X9.110 Y90.223
X9.322 Y90.292
X9.987 Y90.451
X10.656 Y90.547
X11.260 Y90.580
X98.900 Y90.580
X98.900 Y98.800
ID=1 WHEN $AC_TIMER[1]>=0 DO M51
X96.02 Y96.02 F1000
ID=1 WHEN $AC_TIMER[1]>=0 DO M50
X5.629 Y96.020 F300
X5.317 Y95.983
X5.119 Y95.853
X5.003 Y95.633
X4.980 Y95.371
X4.980 Y91.073
X5.135 Y91.209
X5.865 Y91.771
X6.461 Y92.157
X6.817 Y92.352
X7.561 Y92.703
X8.219 Y92.962
X8.651 Y93.093
X9.316 Y93.252
X9.579 Y93.302
X10.248 Y93.398
X11.260 Y93.460
X96.020 Y93.460
X96.020 Y95.920
ID=1 WHEN $AC_TIMER[1]>=0 DO M51

; Inicio do trecho do raster
; Final do trecho do raster

; Layer 3
G1 Z4.320 F1000
N4550 M63		;POWDER MIXER OFF
N4560 M67		;POWDER FEED OFF
N4570 M65		;CARRIER OFF
N4580 M79     ;GAS 1 OFF

N4590 M0

N4600 M78     ; GAS 1 ON
N4610 M64		;CARRIER ON
N4620 H2 = R3	;SET POWDER FLOW
N4630 M62		;POWDER MIXER ON
N4640 M66		;POWDER FEED ON
N4650 G4F3

X98.9 Y98.9 F1000
ID=1 WHEN $AC_TIMER[1]>=0 DO M50
X5.546 Y98.900 F300
X5.148 Y98.877
X4.780 Y98.820
X4.444 Y98.735
X4.130 Y98.610
X3.807 Y98.445
X3.494 Y98.239
X3.212 Y98.019
X2.983 Y97.790
X2.716 Y97.449
X2.561 Y97.205
X2.392 Y96.875
X2.265 Y96.548
X2.179 Y96.216
X2.123 Y95.852
X2.100 Y95.454
X2.100 Y2.100
X4.660 Y2.100
X4.663 Y84.092
X4.709 Y84.763
X4.789 Y85.283
X4.829 Y85.471
X5.018 Y86.118
X5.275 Y86.758
X5.594 Y87.365
X5.864 Y87.785
X6.275 Y88.310
X6.423 Y88.476
X6.927 Y88.956
X7.481 Y89.390
X8.064 Y89.751
X8.662 Y90.042
X9.152 Y90.232
X9.335 Y90.290
X9.997 Y90.451
X10.664 Y90.547
X11.260 Y90.580
X98.900 Y90.580
X98.900 Y98.800
ID=1 WHEN $AC_TIMER[1]>=0 DO M51
X96.02 Y96.02 F1000
ID=1 WHEN $AC_TIMER[1]>=0 DO M50
X5.629 Y96.020 F300
X5.317 Y95.983
X5.134 Y95.866
X5.063 Y95.774
X5.003 Y95.633
X4.980 Y95.371
X4.980 Y91.076
X5.153 Y91.225
X5.707 Y91.658
X5.965 Y91.839
X6.548 Y92.200
X6.804 Y92.340
X7.620 Y92.727
X8.457 Y93.033
X9.316 Y93.250
X9.588 Y93.302
X10.505 Y93.423
X11.260 Y93.460
X96.020 Y93.460
X96.020 Y95.920
ID=1 WHEN $AC_TIMER[1]>=0 DO M51

; Inicio do trecho do raster
; Final do trecho do raster

; Layer 4
G1 Z5.760 F1000
N4550 M63		;POWDER MIXER OFF
N4560 M67		;POWDER FEED OFF
N4570 M65		;CARRIER OFF
N4580 M79     ;GAS 1 OFF

N4590 M0

N4600 M78     ; GAS 1 ON
N4610 M64		;CARRIER ON
N4620 H2 = R3	;SET POWDER FLOW
N4630 M62		;POWDER MIXER ON
N4640 M66		;POWDER FEED ON
N4650 G4F3

X98.9 Y98.9 F1000
ID=1 WHEN $AC_TIMER[1]>=0 DO M50
X5.546 Y98.900 F300
X5.148 Y98.877
X4.780 Y98.820
X4.444 Y98.735
X4.130 Y98.610
X3.807 Y98.445
X3.494 Y98.239
X3.212 Y98.019
X2.972 Y97.780
X2.752 Y97.506
X2.561 Y97.205
X2.392 Y96.875
X2.265 Y96.548
X2.179 Y96.216
X2.123 Y95.852
X2.100 Y95.454
X2.100 Y2.100
X4.660 Y2.100
X4.663 Y84.102
X4.713 Y84.803
X4.831 Y85.453
X5.018 Y86.128
X5.281 Y86.780
X5.604 Y87.381
X5.977 Y87.936
X6.287 Y88.326
X6.423 Y88.476
X6.934 Y88.963
X7.446 Y89.360
X8.052 Y89.745
X8.667 Y90.050
X9.127 Y90.230
X9.308 Y90.289
X9.848 Y90.429
X10.032 Y90.465
X10.664 Y90.547
X11.260 Y90.580
X98.900 Y90.580
X98.900 Y98.800
ID=1 WHEN $AC_TIMER[1]>=0 DO M51
X96.02 Y96.02 F1000
ID=1 WHEN $AC_TIMER[1]>=0 DO M50
X5.629 Y96.020 F300
X5.317 Y95.983
X5.119 Y95.853
X5.003 Y95.633
X4.980 Y95.371
X4.980 Y91.075
X5.167 Y91.236
X5.678 Y91.634
X5.903 Y91.792
X6.509 Y92.177
X6.772 Y92.325
X7.387 Y92.630
X8.239 Y92.970
X8.586 Y93.077
X9.474 Y93.291
X10.505 Y93.423
X11.260 Y93.460
X96.020 Y93.460
X96.020 Y95.920
ID=1 WHEN $AC_TIMER[1]>=0 DO M51

; Inicio do trecho do raster
; Final do trecho do raster

; Layer 5
G1 Z7.200 F1000
N4550 M63		;POWDER MIXER OFF
N4560 M67		;POWDER FEED OFF
N4570 M65		;CARRIER OFF
N4580 M79     ;GAS 1 OFF

N4590 M0

N4600 M78     ; GAS 1 ON
N4610 M64		;CARRIER ON
N4620 H2 = R3	;SET POWDER FLOW
N4630 M62		;POWDER MIXER ON
N4640 M66		;POWDER FEED ON
N4650 G4F3

X98.9 Y98.9 F1000
ID=1 WHEN $AC_TIMER[1]>=0 DO M50
X5.546 Y98.900 F300
X5.148 Y98.877
X4.796 Y98.823
X4.385 Y98.711
X4.130 Y98.610
X3.807 Y98.445
X3.494 Y98.239
X3.212 Y98.019
X2.972 Y97.780
X2.752 Y97.506
X2.561 Y97.205
X2.392 Y96.875
X2.265 Y96.548
X2.179 Y96.216
X2.123 Y95.852
X2.100 Y95.454
X2.100 Y2.100
X4.660 Y2.100
X4.663 Y84.100
X4.693 Y84.630
X4.714 Y84.818
X4.837 Y85.474
X5.032 Y86.149
X5.285 Y86.768
X5.599 Y87.367
X5.964 Y87.923
X6.294 Y88.333
X6.423 Y88.476
X6.956 Y88.981
X7.469 Y89.376
X7.909 Y89.666
X8.087 Y89.767
X8.666 Y90.046
X9.116 Y90.226
X9.819 Y90.421
X10.037 Y90.466
X10.672 Y90.547
X11.260 Y90.580
X98.900 Y90.580
X98.900 Y98.800
ID=1 WHEN $AC_TIMER[1]>=0 DO M51
X96.02 Y96.02 F1000
ID=1 WHEN $AC_TIMER[1]>=0 DO M50
X5.629 Y96.020 F300
X5.394 Y96.001
X5.258 Y95.953
X5.119 Y95.853
X5.003 Y95.633
X4.980 Y95.371
X4.980 Y91.076
X5.202 Y91.266
X5.885 Y91.781
X6.481 Y92.167
X6.839 Y92.363
X7.596 Y92.720
X8.046 Y92.900
X8.345 Y93.001
X9.237 Y93.241
X9.671 Y93.322
X10.511 Y93.422
X11.260 Y93.460
X96.020 Y93.460
X96.020 Y95.920
ID=1 WHEN $AC_TIMER[1]>=0 DO M51

; Inicio do trecho do raster
; Final do trecho do raster

; Layer 6
G1 Z8.640 F1000
N4550 M63		;POWDER MIXER OFF
N4560 M67		;POWDER FEED OFF
N4570 M65		;CARRIER OFF
N4580 M79     ;GAS 1 OFF

N4590 M0

N4600 M78     ; GAS 1 ON
N4610 M64		;CARRIER ON
N4620 H2 = R3	;SET POWDER FLOW
N4630 M62		;POWDER MIXER ON
N4640 M66		;POWDER FEED ON
N4650 G4F3

X98.9 Y98.9 F1000
ID=1 WHEN $AC_TIMER[1]>=0 DO M50
X5.546 Y98.900 F300
X5.148 Y98.877
X4.780 Y98.820
X4.444 Y98.735
X4.130 Y98.610
X3.807 Y98.445
X3.495 Y98.240
X3.203 Y98.010
X2.972 Y97.780
X2.752 Y97.506
X2.561 Y97.205
X2.392 Y96.875
X2.265 Y96.548
X2.179 Y96.216
X2.123 Y95.852
X2.100 Y95.454
X2.100 Y2.100
X4.660 Y2.100
X4.663 Y84.112
X4.713 Y84.813
X4.839 Y85.491
X5.028 Y86.138
X5.291 Y86.790
X5.599 Y87.367
X5.859 Y87.777
X5.972 Y87.933
X6.439 Y88.491
X6.779 Y88.831
X6.974 Y88.998
X7.501 Y89.400
X8.084 Y89.761
X8.682 Y90.052
X9.172 Y90.242
X9.355 Y90.300
X10.017 Y90.461
X10.713 Y90.559
X11.260 Y90.580
X98.900 Y90.580
X98.900 Y98.800
ID=1 WHEN $AC_TIMER[1]>=0 DO M51
X96.02 Y96.02 F1000
ID=1 WHEN $AC_TIMER[1]>=0 DO M50
X5.629 Y96.020 F300
X5.317 Y95.983
X5.118 Y95.853
X5.003 Y95.633
X4.980 Y95.371
X4.980 Y91.074
X5.227 Y91.287
X5.754 Y91.689
X5.985 Y91.849
X6.568 Y92.210
X6.824 Y92.351
X7.640 Y92.737
X8.477 Y93.043
X9.336 Y93.260
X9.619 Y93.314
X10.315 Y93.411
X10.601 Y93.436
X11.260 Y93.460
X96.020 Y93.460
X96.020 Y95.920
ID=1 WHEN $AC_TIMER[1]>=0 DO M51

; Inicio do trecho do raster
; Final do trecho do raster

; Layer 7
G1 Z10.080 F1000
N4550 M63		;POWDER MIXER OFF
N4560 M67		;POWDER FEED OFF
N4570 M65		;CARRIER OFF
N4580 M79     ;GAS 1 OFF

N4590 M0

N4600 M78     ; GAS 1 ON
N4610 M64		;CARRIER ON
N4620 H2 = R3	;SET POWDER FLOW
N4630 M62		;POWDER MIXER ON
N4640 M66		;POWDER FEED ON
N4650 G4F3

X98.9 Y98.9 F1000
ID=1 WHEN $AC_TIMER[1]>=0 DO M50
X5.546 Y98.900 F300
X5.148 Y98.877
X4.780 Y98.820
X4.444 Y98.735
X4.130 Y98.610
X3.807 Y98.445
X3.494 Y98.239
X3.212 Y98.019
X2.972 Y97.780
X2.752 Y97.506
X2.561 Y97.205
X2.392 Y96.875
X2.265 Y96.548
X2.179 Y96.216
X2.123 Y95.852
X2.100 Y95.454
X2.100 Y2.100
X4.660 Y2.100
X4.663 Y84.122
X4.713 Y84.823
X4.839 Y85.501
X5.028 Y86.148
X5.218 Y86.638
X5.304 Y86.824
X5.603 Y87.368
X5.853 Y87.768
X5.964 Y87.923
X6.294 Y88.333
X6.423 Y88.475
X6.966 Y88.991
X7.501 Y89.400
X8.072 Y89.755
X8.542 Y89.995
X8.718 Y90.072
X9.365 Y90.300
X10.027 Y90.461
X10.722 Y90.559
X11.260 Y90.580
X98.900 Y90.580
X98.900 Y98.800
ID=1 WHEN $AC_TIMER[1]>=0 DO M51
X96.02 Y96.02 F1000
ID=1 WHEN $AC_TIMER[1]>=0 DO M50
X5.629 Y96.020 F300
X5.317 Y95.983
X5.119 Y95.853
X5.003 Y95.633
X4.980 Y95.371
X4.981 Y91.079
X5.219 Y91.281
X5.754 Y91.689
X5.981 Y91.846
X6.763 Y92.320
X7.565 Y92.711
X8.405 Y93.016
X8.684 Y93.099
X9.346 Y93.260
X9.628 Y93.314
X10.323 Y93.411
X10.607 Y93.436
X11.260 Y93.460
X96.020 Y93.460
X96.020 Y95.920
ID=1 WHEN $AC_TIMER[1]>=0 DO M51

; Inicio do trecho do raster
; Final do trecho do raster

; Layer 8
G1 Z11.520 F1000
N4550 M63		;POWDER MIXER OFF
N4560 M67		;POWDER FEED OFF
N4570 M65		;CARRIER OFF
N4580 M79     ;GAS 1 OFF

N4590 M0

N4600 M78     ; GAS 1 ON
N4610 M64		;CARRIER ON
N4620 H2 = R3	;SET POWDER FLOW
N4630 M62		;POWDER MIXER ON
N4640 M66		;POWDER FEED ON
N4650 G4F3

X98.9 Y98.9 F1000
ID=1 WHEN $AC_TIMER[1]>=0 DO M50
X5.546 Y98.900 F300
X5.148 Y98.877
X4.780 Y98.820
X4.444 Y98.735
X4.130 Y98.610
X3.807 Y98.445
X3.494 Y98.239
X3.212 Y98.019
X2.972 Y97.780
X2.752 Y97.506
X2.561 Y97.205
X2.392 Y96.875
X2.265 Y96.548
X2.179 Y96.216
X2.123 Y95.852
X2.100 Y95.454
X2.100 Y2.100
X4.660 Y2.100
X4.665 Y84.163
X4.719 Y84.808
X4.799 Y85.318
X4.845 Y85.521
X5.030 Y86.138
X5.190 Y86.568
X5.270 Y86.747
X5.613 Y87.393
X5.974 Y87.936
X6.449 Y88.501
X6.779 Y88.831
X6.924 Y88.960
X7.511 Y89.410
X8.107 Y89.777
X8.692 Y90.058
X9.122 Y90.228
X9.328 Y90.294
X10.032 Y90.461
X10.722 Y90.559
X11.260 Y90.580
X98.900 Y90.580
X98.900 Y98.800
ID=1 WHEN $AC_TIMER[1]>=0 DO M51
X96.02 Y96.02 F1000
ID=1 WHEN $AC_TIMER[1]>=0 DO M50
X5.629 Y96.020 F300
X5.317 Y95.983
X5.119 Y95.853
X5.003 Y95.633
X4.980 Y95.371
X4.980 Y91.082
X5.172 Y91.246
X5.759 Y91.696
X6.000 Y91.861
X6.595 Y92.229
X6.861 Y92.374
X7.633 Y92.736
X8.247 Y92.972
X8.664 Y93.096
X9.368 Y93.263
X9.628 Y93.312
X10.317 Y93.410
X10.607 Y93.436
X11.260 Y93.460
X96.020 Y93.460
X96.020 Y95.920
ID=1 WHEN $AC_TIMER[1]>=0 DO M51

; Inicio do trecho do raster
; Final do trecho do raster

; Layer 9
G1 Z12.960 F1000
N4550 M63		;POWDER MIXER OFF
N4560 M67		;POWDER FEED OFF
N4570 M65		;CARRIER OFF
N4580 M79     ;GAS 1 OFF

N4590 M0

N4600 M78     ; GAS 1 ON
N4610 M64		;CARRIER ON
N4620 H2 = R3	;SET POWDER FLOW
N4630 M62		;POWDER MIXER ON
N4640 M66		;POWDER FEED ON
N4650 G4F3

X98.9 Y98.9 F1000
ID=1 WHEN $AC_TIMER[1]>=0 DO M50
X5.546 Y98.900 F300
X5.148 Y98.877
X4.780 Y98.820
X4.444 Y98.735
X4.130 Y98.610
X3.807 Y98.445
X3.494 Y98.239
X3.212 Y98.019
X2.972 Y97.780
X2.750 Y97.504
X2.586 Y97.248
X2.390 Y96.870
X2.265 Y96.548
X2.179 Y96.216
X2.123 Y95.852
X2.100 Y95.454
X2.100 Y2.100
X4.660 Y2.100
X4.665 Y84.160
X4.719 Y84.816
X4.789 Y85.266
X4.832 Y85.460
X5.038 Y86.158
X5.301 Y86.810
X5.613 Y87.393
X5.964 Y87.923
X6.294 Y88.333
X6.422 Y88.475
X6.976 Y89.001
X7.525 Y89.418
X8.091 Y89.764
X8.641 Y90.038
X9.121 Y90.228
X9.328 Y90.294
X10.037 Y90.461
X10.730 Y90.558
X11.260 Y90.580
X98.900 Y90.580
X98.900 Y98.800
ID=1 WHEN $AC_TIMER[1]>=0 DO M51
X96.02 Y96.02 F1000
ID=1 WHEN $AC_TIMER[1]>=0 DO M50
X5.629 Y96.020 F300
X5.317 Y95.983
X5.119 Y95.853
X5.003 Y95.633
X4.980 Y95.371
X4.980 Y91.078
X5.233 Y91.295
X5.783 Y91.712
X6.024 Y91.876
X6.809 Y92.343
X7.581 Y92.716
X8.246 Y92.971
X8.665 Y93.096
X9.374 Y93.264
X9.638 Y93.314
X10.331 Y93.411
X10.614 Y93.436
X11.260 Y93.460
X96.020 Y93.460
X96.020 Y95.920
ID=1 WHEN $AC_TIMER[1]>=0 DO M51

; Inicio do trecho do raster
; Final do trecho do raster

; Layer 10
G1 Z14.400 F1000
N4550 M63		;POWDER MIXER OFF
N4560 M67		;POWDER FEED OFF
N4570 M65		;CARRIER OFF
N4580 M79     ;GAS 1 OFF

N4590 M0

N4600 M78     ; GAS 1 ON
N4610 M64		;CARRIER ON
N4620 H2 = R3	;SET POWDER FLOW
N4630 M62		;POWDER MIXER ON
N4640 M66		;POWDER FEED ON
N4650 G4F3

X98.9 Y98.9 F1000
ID=1 WHEN $AC_TIMER[1]>=0 DO M50
X5.546 Y98.900 F300
X5.148 Y98.877
X4.780 Y98.820
X4.444 Y98.735
X4.130 Y98.610
X3.807 Y98.445
X3.494 Y98.239
X3.212 Y98.019
X2.972 Y97.780
X2.752 Y97.506
X2.561 Y97.205
X2.392 Y96.875
X2.265 Y96.548
X2.179 Y96.216
X2.123 Y95.852
X2.100 Y95.454
X2.100 Y2.100
X4.660 Y2.100
X4.665 Y84.173
X4.723 Y84.843
X4.849 Y85.521
X5.038 Y86.168
X5.228 Y86.658
X5.314 Y86.844
X5.617 Y87.394
X5.857 Y87.774
X5.976 Y87.939
X6.459 Y88.511
X6.779 Y88.831
X6.937 Y88.970
X7.521 Y89.410
X8.091 Y89.764
X8.641 Y90.038
X9.121 Y90.228
X9.335 Y90.295
X10.047 Y90.461
X10.739 Y90.558
X11.260 Y90.580
X98.900 Y90.580
X98.900 Y98.800
ID=1 WHEN $AC_TIMER[1]>=0 DO M51
X96.02 Y96.02 F1000
ID=1 WHEN $AC_TIMER[1]>=0 DO M50
X5.629 Y96.020 F300
X5.317 Y95.983
X5.119 Y95.853
X5.003 Y95.633
X4.980 Y95.371
X4.980 Y91.081
X5.205 Y91.271
X5.789 Y91.711
X6.000 Y91.856
X6.570 Y92.210
X6.809 Y92.343
X7.581 Y92.716
X8.251 Y92.973
X8.681 Y93.100
X9.393 Y93.266
X9.647 Y93.314
X10.339 Y93.411
X10.620 Y93.436
X11.260 Y93.460
X96.020 Y93.460
X96.020 Y95.920
ID=1 WHEN $AC_TIMER[1]>=0 DO M51

; Inicio do trecho do raster
; Final do trecho do raster

; Layer 11
G1 Z15.840 F1000
N4550 M63		;POWDER MIXER OFF
N4560 M67		;POWDER FEED OFF
N4570 M65		;CARRIER OFF
N4580 M79     ;GAS 1 OFF

N4590 M0

N4600 M78     ; GAS 1 ON
N4610 M64		;CARRIER ON
N4620 H2 = R3	;SET POWDER FLOW
N4630 M62		;POWDER MIXER ON
N4640 M66		;POWDER FEED ON
N4650 G4F3

X98.9 Y98.9 F1000
ID=1 WHEN $AC_TIMER[1]>=0 DO M50
X5.546 Y98.900 F300
X5.148 Y98.877
X4.780 Y98.820
X4.444 Y98.735
X4.130 Y98.610
X3.807 Y98.445
X3.494 Y98.239
X3.212 Y98.019
X2.972 Y97.780
X2.752 Y97.506
X2.561 Y97.205
X2.392 Y96.875
X2.265 Y96.548
X2.179 Y96.216
X2.123 Y95.852
X2.100 Y95.454
X2.100 Y2.100
X4.660 Y2.100
X4.665 Y84.183
X4.723 Y84.853
X4.849 Y85.531
X5.039 Y86.182
X5.270 Y86.747
X5.550 Y87.287
X6.011 Y87.980
X6.409 Y88.461
X6.779 Y88.831
X6.933 Y88.967
X7.531 Y89.420
X8.127 Y89.787
X8.718 Y90.071
X9.128 Y90.231
X9.315 Y90.290
X9.983 Y90.452
X10.747 Y90.558
X11.260 Y90.580
X98.900 Y90.580
X98.900 Y98.800
ID=1 WHEN $AC_TIMER[1]>=0 DO M51
X96.02 Y96.02 F1000
ID=1 WHEN $AC_TIMER[1]>=0 DO M50
X5.629 Y96.020 F300
X5.317 Y95.983
X5.119 Y95.853
X5.003 Y95.633
X4.980 Y95.371
X4.980 Y91.082
X5.195 Y91.263
X5.792 Y91.716
X6.020 Y91.871
X6.615 Y92.239
X6.883 Y92.385
X7.671 Y92.753
X8.434 Y93.032
X9.304 Y93.251
X9.587 Y93.305
X10.352 Y93.411
X10.626 Y93.436
X11.260 Y93.460
X96.020 Y93.460
X96.020 Y95.920
ID=1 WHEN $AC_TIMER[1]>=0 DO M51

; Inicio do trecho do raster
; Final do trecho do raster

; Layer 12
G1 Z17.280 F1000
N4550 M63		;POWDER MIXER OFF
N4560 M67		;POWDER FEED OFF
N4570 M65		;CARRIER OFF
N4580 M79     ;GAS 1 OFF

N4590 M0

N4600 M78     ; GAS 1 ON
N4610 M64		;CARRIER ON
N4620 H2 = R3	;SET POWDER FLOW
N4630 M62		;POWDER MIXER ON
N4640 M66		;POWDER FEED ON
N4650 G4F3

X98.9 Y98.9 F1000
ID=1 WHEN $AC_TIMER[1]>=0 DO M50
X5.546 Y98.900 F300
X5.148 Y98.877
X4.780 Y98.820
X4.444 Y98.735
X4.130 Y98.610
X3.807 Y98.445
X3.494 Y98.239
X3.212 Y98.019
X2.972 Y97.780
X2.752 Y97.506
X2.561 Y97.205
X2.392 Y96.875
X2.265 Y96.548
X2.179 Y96.216
X2.123 Y95.852
X2.100 Y95.454
X2.100 Y2.100
X4.660 Y2.100
X4.664 Y84.186
X4.724 Y84.868
X4.855 Y85.551
X5.052 Y86.199
X5.306 Y86.820
X5.580 Y87.339
X5.964 Y87.923
X6.409 Y88.461
X6.779 Y88.831
X6.933 Y88.967
X7.519 Y89.412
X8.032 Y89.735
X8.641 Y90.038
X9.121 Y90.228
X9.315 Y90.290
X9.983 Y90.452
X10.747 Y90.558
X11.260 Y90.580
X98.900 Y90.580
X98.900 Y98.800
ID=1 WHEN $AC_TIMER[1]>=0 DO M51
X96.02 Y96.02 F1000
ID=1 WHEN $AC_TIMER[1]>=0 DO M50
X5.629 Y96.020 F300
X5.317 Y95.983
X5.119 Y95.853
X5.003 Y95.633
X4.980 Y95.371
X4.980 Y91.082
X5.191 Y91.261
X5.777 Y91.706
X6.499 Y92.173
X6.750 Y92.314
X7.581 Y92.716
X8.234 Y92.968
X8.636 Y93.089
X9.304 Y93.251
X9.587 Y93.305
X10.352 Y93.411
X10.626 Y93.436
X11.260 Y93.460
X96.020 Y93.460
X96.020 Y95.920
ID=1 WHEN $AC_TIMER[1]>=0 DO M51

; Inicio do trecho do raster
; Final do trecho do raster

; Layer 13
G1 Z18.720 F1000
N4550 M63		;POWDER MIXER OFF
N4560 M67		;POWDER FEED OFF
N4570 M65		;CARRIER OFF
N4580 M79     ;GAS 1 OFF

N4590 M0

N4600 M78     ; GAS 1 ON
N4610 M64		;CARRIER ON
N4620 H2 = R3	;SET POWDER FLOW
N4630 M62		;POWDER MIXER ON
N4640 M66		;POWDER FEED ON
N4650 G4F3

X98.9 Y98.9 F1000
ID=1 WHEN $AC_TIMER[1]>=0 DO M50
X5.546 Y98.900 F300
X5.148 Y98.877
X4.780 Y98.820
X4.444 Y98.735
X4.130 Y98.610
X3.807 Y98.445
X3.494 Y98.239
X3.212 Y98.019
X2.972 Y97.780
X2.752 Y97.506
X2.561 Y97.205
X2.392 Y96.875
X2.265 Y96.548
X2.179 Y96.216
X2.123 Y95.852
X2.100 Y95.454
X2.100 Y2.100
X4.660 Y2.100
X4.665 Y84.190
X4.724 Y84.878
X4.814 Y85.388
X4.857 Y85.570
X5.048 Y86.188
X5.238 Y86.678
X5.324 Y86.864
X5.632 Y87.421
X5.964 Y87.923
X6.409 Y88.461
X6.779 Y88.831
X6.929 Y88.964
X7.563 Y89.444
X8.110 Y89.774
X8.641 Y90.038
X9.121 Y90.228
X9.322 Y90.292
X10.097 Y90.476
X10.756 Y90.558
X11.260 Y90.580
X98.900 Y90.580
X98.900 Y98.800
ID=1 WHEN $AC_TIMER[1]>=0 DO M51
X96.02 Y96.02 F1000
ID=1 WHEN $AC_TIMER[1]>=0 DO M50
X5.629 Y96.020 F300
X5.317 Y95.983
X5.119 Y95.853
X5.003 Y95.633
X4.980 Y95.371
X4.980 Y91.082
X5.192 Y91.261
X5.826 Y91.741
X6.075 Y91.909
X6.828 Y92.353
X7.581 Y92.716
X8.240 Y92.970
X8.658 Y93.095
X9.433 Y93.278
X9.738 Y93.333
X10.632 Y93.436
X11.260 Y93.460
X96.020 Y93.460
X96.020 Y95.920
ID=1 WHEN $AC_TIMER[1]>=0 DO M51

; Inicio do trecho do raster
; Final do trecho do raster

; Layer 14
G1 Z20.160 F1000
N4550 M63		;POWDER MIXER OFF
N4560 M67		;POWDER FEED OFF
N4570 M65		;CARRIER OFF
N4580 M79     ;GAS 1 OFF

N4590 M0

N4600 M78     ; GAS 1 ON
N4610 M64		;CARRIER ON
N4620 H2 = R3	;SET POWDER FLOW
N4630 M62		;POWDER MIXER ON
N4640 M66		;POWDER FEED ON
N4650 G4F3

X98.9 Y98.9 F1000
ID=1 WHEN $AC_TIMER[1]>=0 DO M50
X5.546 Y98.900 F300
X5.148 Y98.877
X4.780 Y98.820
X4.444 Y98.735
X4.130 Y98.610
X3.807 Y98.445
X3.494 Y98.239
X3.212 Y98.019
X2.972 Y97.780
X2.752 Y97.506
X2.561 Y97.205
X2.392 Y96.875
X2.265 Y96.548
X2.179 Y96.216
X2.123 Y95.852
X2.100 Y95.454
X2.100 Y2.100
X4.660 Y2.100
X4.663 Y84.083
X4.722 Y84.863
X4.831 Y85.456
X5.047 Y86.195
X5.265 Y86.738
X5.580 Y87.339
X5.964 Y87.923
X6.409 Y88.461
X6.779 Y88.831
X6.942 Y88.974
X7.551 Y89.430
X8.134 Y89.791
X8.641 Y90.038
X9.121 Y90.228
X9.328 Y90.294
X10.107 Y90.476
X10.764 Y90.558
X11.260 Y90.580
X98.900 Y90.580
X98.900 Y98.800
ID=1 WHEN $AC_TIMER[1]>=0 DO M51
X96.02 Y96.02 F1000
ID=1 WHEN $AC_TIMER[1]>=0 DO M50
X5.629 Y96.020 F300
X5.317 Y95.983
X5.119 Y95.853
X5.003 Y95.633
X4.980 Y95.371
X4.980 Y91.081
X5.216 Y91.279
X5.825 Y91.735
X6.035 Y91.879
X6.618 Y92.240
X6.874 Y92.381
X7.581 Y92.716
X8.245 Y92.971
X8.672 Y93.098
X9.451 Y93.280
X9.748 Y93.333
X10.637 Y93.435
X11.260 Y93.460
X96.020 Y93.460
X96.020 Y95.920
ID=1 WHEN $AC_TIMER[1]>=0 DO M51

; Inicio do trecho do raster
; Final do trecho do raster

; Layer 15
G1 Z21.600 F1000
N4550 M63		;POWDER MIXER OFF
N4560 M67		;POWDER FEED OFF
N4570 M65		;CARRIER OFF
N4580 M79     ;GAS 1 OFF

N4590 M0

N4600 M78     ; GAS 1 ON
N4610 M64		;CARRIER ON
N4620 H2 = R3	;SET POWDER FLOW
N4630 M62		;POWDER MIXER ON
N4640 M66		;POWDER FEED ON
N4650 G4F3

X7.4395 Y89.3559 F1000
ID=1 WHEN $AC_TIMER[1]>=0 DO M50
X8.032 Y89.735 F300
X8.641 Y90.038
X9.121 Y90.228
X9.334 Y90.295
X10.117 Y90.476
X10.772 Y90.558
X11.260 Y90.580
X98.900 Y90.580
X98.900 Y98.900
X5.546 Y98.900
X5.148 Y98.877
X4.780 Y98.820
X4.444 Y98.735
X4.130 Y98.610
X3.807 Y98.445
X3.484 Y98.233
X3.229 Y98.036
X2.972 Y97.780
X2.752 Y97.506
X2.561 Y97.205
X2.392 Y96.875
X2.265 Y96.548
X2.179 Y96.216
X2.123 Y95.852
X2.100 Y95.454
X2.100 Y2.100
X4.660 Y2.100
X4.663 Y84.081
X4.723 Y84.879
X4.829 Y85.450
X4.999 Y86.060
X5.063 Y86.245
X5.317 Y86.841
X5.580 Y87.339
X5.964 Y87.923
X6.409 Y88.461
X6.779 Y88.831
X7.361 Y89.294
ID=1 WHEN $AC_TIMER[1]>=0 DO M51
X96.02 Y96.02 F1000
ID=1 WHEN $AC_TIMER[1]>=0 DO M50
X5.629 Y96.020 F300
X5.317 Y95.983
X5.119 Y95.853
X5.003 Y95.633
X4.980 Y95.371
X4.980 Y91.080
X5.649 Y91.612
X5.888 Y91.782
X6.481 Y92.161
X6.750 Y92.314
X7.581 Y92.716
X8.250 Y92.973
X8.686 Y93.101
X9.469 Y93.282
X9.757 Y93.333
X10.643 Y93.435
X11.260 Y93.460
X96.020 Y93.460
X96.020 Y95.920
ID=1 WHEN $AC_TIMER[1]>=0 DO M51

; Inicio do trecho do raster
; Final do trecho do raster

; Layer 16
G1 Z23.040 F1000
N4550 M63		;POWDER MIXER OFF
N4560 M67		;POWDER FEED OFF
N4570 M65		;CARRIER OFF
N4580 M79     ;GAS 1 OFF

N4590 M0

N4600 M78     ; GAS 1 ON
N4610 M64		;CARRIER ON
N4620 H2 = R3	;SET POWDER FLOW
N4630 M62		;POWDER MIXER ON
N4640 M66		;POWDER FEED ON
N4650 G4F3

X98.9 Y98.9 F1000
ID=1 WHEN $AC_TIMER[1]>=0 DO M50
X5.546 Y98.900 F300
X5.148 Y98.877
X4.780 Y98.820
X4.444 Y98.735
X4.130 Y98.610
X3.807 Y98.445
X3.494 Y98.239
X3.212 Y98.019
X2.972 Y97.780
X2.752 Y97.506
X2.561 Y97.205
X2.392 Y96.875
X2.265 Y96.548
X2.179 Y96.216
X2.123 Y95.852
X2.100 Y95.454
X2.100 Y2.100
X4.660 Y2.100
X4.663 Y84.072
X4.709 Y84.743
X4.789 Y85.263
X4.835 Y85.473
X5.049 Y86.183
X5.189 Y86.563
X5.274 Y86.755
X5.647 Y87.449
X5.964 Y87.923
X6.409 Y88.461
X6.779 Y88.831
X6.938 Y88.971
X7.551 Y89.433
X8.032 Y89.735
X8.641 Y90.038
X9.121 Y90.228
X9.315 Y90.290
X9.994 Y90.454
X10.772 Y90.558
X11.260 Y90.580
X98.900 Y90.580
X98.900 Y98.800
ID=1 WHEN $AC_TIMER[1]>=0 DO M51
X96.02 Y96.02 F1000
ID=1 WHEN $AC_TIMER[1]>=0 DO M50
X5.629 Y96.020 F300
X5.317 Y95.983
X5.119 Y95.853
X5.003 Y95.633
X4.980 Y95.371
X4.980 Y91.081
X5.203 Y91.270
X5.816 Y91.732
X6.503 Y92.176
X6.750 Y92.314
X7.581 Y92.716
X8.234 Y92.968
X8.640 Y93.090
X9.319 Y93.254
X9.612 Y93.308
X10.390 Y93.413
X11.260 Y93.460
X96.020 Y93.460
X96.020 Y95.920
ID=1 WHEN $AC_TIMER[1]>=0 DO M51

; Inicio do trecho do raster
; Final do trecho do raster

; Layer 17
G1 Z24.480 F1000
N4550 M63		;POWDER MIXER OFF
N4560 M67		;POWDER FEED OFF
N4570 M65		;CARRIER OFF
N4580 M79     ;GAS 1 OFF

N4590 M0

N4600 M78     ; GAS 1 ON
N4610 M64		;CARRIER ON
N4620 H2 = R3	;SET POWDER FLOW
N4630 M62		;POWDER MIXER ON
N4640 M66		;POWDER FEED ON
N4650 G4F3

X98.9 Y98.9 F1000
ID=1 WHEN $AC_TIMER[1]>=0 DO M50
X5.546 Y98.900 F300
X5.148 Y98.877
X4.780 Y98.820
X4.444 Y98.735
X4.130 Y98.610
X3.807 Y98.445
X3.494 Y98.239
X3.212 Y98.019
X2.972 Y97.780
X2.752 Y97.506
X2.561 Y97.205
X2.392 Y96.875
X2.265 Y96.548
X2.179 Y96.216
X2.123 Y95.852
X2.100 Y95.454
X2.100 Y2.100
X4.660 Y2.100
X4.663 Y84.072
X4.709 Y84.743
X4.789 Y85.263
X4.833 Y85.466
X5.054 Y86.206
X5.265 Y86.738
X5.580 Y87.339
X5.964 Y87.923
X6.409 Y88.461
X6.779 Y88.831
X6.926 Y88.961
X7.439 Y89.356
X8.032 Y89.735
X8.641 Y90.038
X9.121 Y90.228
X9.315 Y90.290
X9.997 Y90.454
X10.780 Y90.558
X11.260 Y90.580
X98.900 Y90.580
X98.900 Y98.800
ID=1 WHEN $AC_TIMER[1]>=0 DO M51
X96.02 Y96.02 F1000
ID=1 WHEN $AC_TIMER[1]>=0 DO M50
X5.629 Y96.020 F300
X5.317 Y95.983
X5.119 Y95.853
X5.003 Y95.633
X4.980 Y95.371
X4.980 Y91.082
X5.172 Y91.246
X5.888 Y91.782
X6.481 Y92.161
X6.750 Y92.314
X7.581 Y92.716
X8.234 Y92.968
X8.642 Y93.091
X9.324 Y93.255
X9.619 Y93.310
X10.402 Y93.413
X11.260 Y93.460
X96.020 Y93.460
X96.020 Y95.920
ID=1 WHEN $AC_TIMER[1]>=0 DO M51

; Inicio do trecho do raster
; Final do trecho do raster

; Layer 18
G1 Z25.920 F1000
N4550 M63		;POWDER MIXER OFF
N4560 M67		;POWDER FEED OFF
N4570 M65		;CARRIER OFF
N4580 M79     ;GAS 1 OFF

N4590 M0

N4600 M78     ; GAS 1 ON
N4610 M64		;CARRIER ON
N4620 H2 = R3	;SET POWDER FLOW
N4630 M62		;POWDER MIXER ON
N4640 M66		;POWDER FEED ON
N4650 G4F3

X98.9 Y98.9 F1000
ID=1 WHEN $AC_TIMER[1]>=0 DO M50
X5.546 Y98.900 F300
X5.148 Y98.877
X4.780 Y98.820
X4.444 Y98.735
X4.130 Y98.610
X3.807 Y98.445
X3.494 Y98.239
X3.212 Y98.019
X2.972 Y97.780
X2.752 Y97.506
X2.561 Y97.205
X2.392 Y96.875
X2.265 Y96.548
X2.179 Y96.216
X2.123 Y95.852
X2.100 Y95.454
X2.100 Y2.100
X4.660 Y2.100
X4.662 Y84.065
X4.712 Y84.767
X4.822 Y85.417
X4.867 Y85.610
X5.059 Y86.230
X5.265 Y86.738
X5.580 Y87.339
X5.964 Y87.923
X6.409 Y88.461
X6.779 Y88.831
X6.934 Y88.968
X7.571 Y89.450
X8.032 Y89.735
X8.641 Y90.038
X9.121 Y90.228
X9.315 Y90.290
X10.001 Y90.455
X10.788 Y90.558
X11.260 Y90.580
X98.900 Y90.580
X98.900 Y98.800
ID=1 WHEN $AC_TIMER[1]>=0 DO M51
X96.02 Y96.02 F1000
ID=1 WHEN $AC_TIMER[1]>=0 DO M50
X5.629 Y96.020 F300
X5.317 Y95.983
X5.119 Y95.853
X5.003 Y95.633
X4.980 Y95.371
X4.980 Y91.081
X5.197 Y91.265
X5.833 Y91.746
X6.057 Y91.900
X6.518 Y92.185
X6.750 Y92.314
X7.581 Y92.716
X8.234 Y92.968
X8.643 Y93.091
X9.329 Y93.255
X9.627 Y93.311
X10.653 Y93.435
X11.260 Y93.460
X96.020 Y93.460
X96.020 Y95.920
ID=1 WHEN $AC_TIMER[1]>=0 DO M51

; Inicio do trecho do raster
; Final do trecho do raster

; Layer 19
G1 Z27.360 F1000
N4550 M63		;POWDER MIXER OFF
N4560 M67		;POWDER FEED OFF
N4570 M65		;CARRIER OFF
N4580 M79     ;GAS 1 OFF

N4590 M0

N4600 M78     ; GAS 1 ON
N4610 M64		;CARRIER ON
N4620 H2 = R3	;SET POWDER FLOW
N4630 M62		;POWDER MIXER ON
N4640 M66		;POWDER FEED ON
N4650 G4F3

X98.9 Y98.9 F1000
ID=1 WHEN $AC_TIMER[1]>=0 DO M50
X5.546 Y98.900 F300
X5.148 Y98.877
X4.780 Y98.820
X4.444 Y98.735
X4.130 Y98.610
X3.807 Y98.445
X3.494 Y98.239
X3.212 Y98.019
X2.972 Y97.780
X2.752 Y97.506
X2.561 Y97.205
X2.392 Y96.875
X2.265 Y96.548
X2.179 Y96.216
X2.123 Y95.852
X2.100 Y95.454
X2.100 Y2.100
X4.660 Y2.100
X4.663 Y84.072
X4.709 Y84.743
X4.789 Y85.263
X4.830 Y85.453
X5.064 Y86.254
X5.265 Y86.738
X5.580 Y87.339
X5.964 Y87.923
X6.409 Y88.461
X6.779 Y88.831
X6.926 Y88.961
X7.439 Y89.356
X8.032 Y89.735
X8.641 Y90.038
X9.121 Y90.228
X9.315 Y90.290
X9.977 Y90.451
X10.648 Y90.547
X11.260 Y90.580
X98.900 Y90.580
X98.900 Y98.800
ID=1 WHEN $AC_TIMER[1]>=0 DO M51
X96.02 Y96.02 F1000
ID=1 WHEN $AC_TIMER[1]>=0 DO M50
X5.629 Y96.020 F300
X5.317 Y95.983
X5.119 Y95.853
X5.003 Y95.633
X4.980 Y95.371
X4.980 Y91.082
X5.172 Y91.246
X5.888 Y91.782
X6.481 Y92.161
X6.750 Y92.314
X7.581 Y92.716
X8.234 Y92.968
X8.634 Y93.089
X9.296 Y93.250
X9.569 Y93.302
X10.240 Y93.398
X11.260 Y93.460
X96.020 Y93.460
X96.020 Y95.920
ID=1 WHEN $AC_TIMER[1]>=0 DO M51

; Inicio do trecho do raster
; Final do trecho do raster

; Layer 20
G1 Z28.800 F1000
N4550 M63		;POWDER MIXER OFF
N4560 M67		;POWDER FEED OFF
N4570 M65		;CARRIER OFF
N4580 M79     ;GAS 1 OFF

N4590 M0

N4600 M78     ; GAS 1 ON
N4610 M64		;CARRIER ON
N4620 H2 = R3	;SET POWDER FLOW
N4630 M62		;POWDER MIXER ON
N4640 M66		;POWDER FEED ON
N4650 G4F3

X98.9 Y98.9 F1000
ID=1 WHEN $AC_TIMER[1]>=0 DO M50
X5.546 Y98.900 F300
X5.148 Y98.877
X4.780 Y98.820
X4.444 Y98.735
X4.130 Y98.610
X3.789 Y98.437
X3.596 Y98.316
X3.209 Y98.017
X2.979 Y97.786
X2.726 Y97.465
X2.561 Y97.205
X2.392 Y96.875
X2.265 Y96.548
X2.179 Y96.216
X2.123 Y95.852
X2.100 Y95.454
X2.100 Y2.100
X4.660 Y2.100
X4.663 Y84.072
X4.709 Y84.743
X4.789 Y85.263
X4.829 Y85.451
X5.008 Y86.072
X5.188 Y86.562
X5.265 Y86.738
X5.580 Y87.339
X5.860 Y87.779
X6.270 Y88.303
X6.409 Y88.461
X6.779 Y88.831
X6.931 Y88.966
X7.461 Y89.376
X7.617 Y89.482
X8.174 Y89.811
X8.641 Y90.038
X9.121 Y90.228
X9.315 Y90.290
X9.977 Y90.451
X10.648 Y90.547
X11.260 Y90.580
X98.900 Y90.580
X98.900 Y98.800
ID=1 WHEN $AC_TIMER[1]>=0 DO M51
X96.02 Y96.02 F1000
ID=1 WHEN $AC_TIMER[1]>=0 DO M50
X5.629 Y96.020 F300
X5.317 Y95.983
X5.229 Y95.938
X5.127 Y95.859
X5.063 Y95.774
X5.003 Y95.633
X4.980 Y95.371
X4.980 Y91.082
X5.169 Y91.243
X5.836 Y91.753
X6.153 Y91.962
X6.916 Y92.402
X7.581 Y92.716
X8.234 Y92.968
X8.634 Y93.089
X9.296 Y93.250
X9.569 Y93.302
X10.240 Y93.398
X11.260 Y93.460
X96.020 Y93.460
X96.020 Y95.920
ID=1 WHEN $AC_TIMER[1]>=0 DO M51

; Inicio do trecho do raster
; Final do trecho do raster

; Layer 21
G1 Z30.240 F1000
N4550 M63		;POWDER MIXER OFF
N4560 M67		;POWDER FEED OFF
N4570 M65		;CARRIER OFF
N4580 M79     ;GAS 1 OFF

N4590 M0

N4600 M78     ; GAS 1 ON
N4610 M64		;CARRIER ON
N4620 H2 = R3	;SET POWDER FLOW
N4630 M62		;POWDER MIXER ON
N4640 M66		;POWDER FEED ON
N4650 G4F3

X98.9 Y98.9 F1000
ID=1 WHEN $AC_TIMER[1]>=0 DO M50
X5.546 Y98.900 F300
X5.148 Y98.877
X4.780 Y98.820
X4.444 Y98.735
X4.130 Y98.610
X3.807 Y98.445
X3.494 Y98.239
X3.212 Y98.019
X2.972 Y97.780
X2.752 Y97.506
X2.561 Y97.205
X2.392 Y96.875
X2.265 Y96.548
X2.179 Y96.216
X2.123 Y95.852
X2.100 Y95.454
X2.100 Y2.100
X4.660 Y2.100
X4.663 Y84.072
X4.709 Y84.743
X4.789 Y85.263
X4.834 Y85.469
X5.066 Y86.241
X5.265 Y86.738
X5.580 Y87.339
X5.964 Y87.923
X6.409 Y88.461
X6.779 Y88.831
X6.942 Y88.974
X7.583 Y89.454
X8.032 Y89.735
X8.641 Y90.038
X9.121 Y90.228
X9.333 Y90.295
X9.993 Y90.455
X10.187 Y90.489
X10.804 Y90.558
X11.260 Y90.580
X98.900 Y90.580
X98.900 Y98.800
ID=1 WHEN $AC_TIMER[1]>=0 DO M51
X96.02 Y96.02 F1000
ID=1 WHEN $AC_TIMER[1]>=0 DO M50
X5.629 Y96.020 F300
X5.317 Y95.983
X5.119 Y95.853
X5.003 Y95.633
X4.980 Y95.371
X4.980 Y91.081
X5.214 Y91.278
X5.854 Y91.758
X6.508 Y92.179
X6.750 Y92.314
X7.581 Y92.716
X8.250 Y92.973
X8.654 Y93.094
X9.488 Y93.290
X9.870 Y93.352
X10.663 Y93.434
X11.260 Y93.460
X96.020 Y93.460
X96.020 Y95.920
ID=1 WHEN $AC_TIMER[1]>=0 DO M51

; Inicio do trecho do raster
; Final do trecho do raster

; Layer 22
G1 Z31.680 F1000
N4550 M63		;POWDER MIXER OFF
N4560 M67		;POWDER FEED OFF
N4570 M65		;CARRIER OFF
N4580 M79     ;GAS 1 OFF

N4590 M0

N4600 M78     ; GAS 1 ON
N4610 M64		;CARRIER ON
N4620 H2 = R3	;SET POWDER FLOW
N4630 M62		;POWDER MIXER ON
N4640 M66		;POWDER FEED ON
N4650 G4F3

X98.9 Y98.9 F1000
ID=1 WHEN $AC_TIMER[1]>=0 DO M50
X5.546 Y98.900 F300
X5.148 Y98.877
X4.780 Y98.820
X4.444 Y98.735
X4.130 Y98.610
X3.807 Y98.445
X3.494 Y98.239
X3.212 Y98.019
X2.972 Y97.780
X2.752 Y97.506
X2.561 Y97.205
X2.392 Y96.875
X2.265 Y96.548
X2.179 Y96.216
X2.123 Y95.852
X2.100 Y95.454
X2.100 Y2.100
X4.660 Y2.100
X4.663 Y84.072
X4.709 Y84.743
X4.789 Y85.263
X4.832 Y85.463
X5.071 Y86.266
X5.265 Y86.738
X5.580 Y87.339
X5.964 Y87.923
X6.409 Y88.461
X6.779 Y88.831
X6.926 Y88.961
X7.439 Y89.356
X8.032 Y89.735
X8.641 Y90.038
X9.121 Y90.228
X9.338 Y90.296
X10.160 Y90.485
X10.648 Y90.547
X11.260 Y90.580
X98.900 Y90.580
X98.900 Y98.800
ID=1 WHEN $AC_TIMER[1]>=0 DO M51
X96.02 Y96.02 F1000
ID=1 WHEN $AC_TIMER[1]>=0 DO M50
X5.629 Y96.020 F300
X5.317 Y95.983
X5.119 Y95.853
X5.003 Y95.633
X4.980 Y95.371
X4.980 Y91.082
X5.172 Y91.246
X5.888 Y91.782
X6.481 Y92.161
X6.750 Y92.314
X7.581 Y92.716
X8.254 Y92.974
X8.694 Y93.103
X9.516 Y93.292
X9.794 Y93.341
X10.494 Y93.423
X11.260 Y93.460
X96.020 Y93.460
X96.020 Y95.920
ID=1 WHEN $AC_TIMER[1]>=0 DO M51

; Inicio do trecho do raster
; Final do trecho do raster

; Layer 23
G1 Z33.120 F1000
N4550 M63		;POWDER MIXER OFF
N4560 M67		;POWDER FEED OFF
N4570 M65		;CARRIER OFF
N4580 M79     ;GAS 1 OFF

N4590 M0

N4600 M78     ; GAS 1 ON
N4610 M64		;CARRIER ON
N4620 H2 = R3	;SET POWDER FLOW
N4630 M62		;POWDER MIXER ON
N4640 M66		;POWDER FEED ON
N4650 G4F3

X98.9 Y98.9 F1000
ID=1 WHEN $AC_TIMER[1]>=0 DO M50
X5.546 Y98.900 F300
X5.148 Y98.877
X4.780 Y98.820
X4.444 Y98.735
X4.130 Y98.610
X3.807 Y98.445
X3.494 Y98.239
X3.212 Y98.019
X2.972 Y97.780
X2.752 Y97.506
X2.561 Y97.205
X2.392 Y96.875
X2.265 Y96.548
X2.179 Y96.216
X2.123 Y95.852
X2.100 Y95.454
X2.100 Y2.100
X4.660 Y2.100
X4.664 Y84.096
X4.733 Y84.940
X4.829 Y85.451
X5.008 Y86.072
X5.188 Y86.562
X5.265 Y86.738
X5.580 Y87.339
X5.964 Y87.923
X6.409 Y88.461
X6.779 Y88.831
X6.939 Y88.972
X7.604 Y89.472
X8.032 Y89.735
X8.641 Y90.038
X9.121 Y90.228
X9.315 Y90.290
X9.977 Y90.451
X10.648 Y90.547
X11.260 Y90.580
X98.900 Y90.580
X98.900 Y98.800
ID=1 WHEN $AC_TIMER[1]>=0 DO M51
X96.02 Y96.02 F1000
ID=1 WHEN $AC_TIMER[1]>=0 DO M50
X5.629 Y96.020 F300
X5.317 Y95.983
X5.119 Y95.853
X5.003 Y95.633
X4.980 Y95.371
X4.980 Y91.081
X5.208 Y91.273
X5.873 Y91.773
X6.096 Y91.926
X6.750 Y92.314
X7.581 Y92.716
X8.234 Y92.968
X8.634 Y93.089
X9.296 Y93.250
X9.569 Y93.302
X10.240 Y93.398
X11.260 Y93.460
X96.020 Y93.460
X96.020 Y95.920
ID=1 WHEN $AC_TIMER[1]>=0 DO M51

; Inicio do trecho do raster
; Final do trecho do raster

; Layer 24
G1 Z34.560 F1000
N4550 M63		;POWDER MIXER OFF
N4560 M67		;POWDER FEED OFF
N4570 M65		;CARRIER OFF
N4580 M79     ;GAS 1 OFF

N4590 M0

N4600 M78     ; GAS 1 ON
N4610 M64		;CARRIER ON
N4620 H2 = R3	;SET POWDER FLOW
N4630 M62		;POWDER MIXER ON
N4640 M66		;POWDER FEED ON
N4650 G4F3

X98.9 Y98.9 F1000
ID=1 WHEN $AC_TIMER[1]>=0 DO M50
X5.546 Y98.900 F300
X5.148 Y98.877
X4.780 Y98.820
X4.444 Y98.735
X4.130 Y98.610
X3.807 Y98.445
X3.494 Y98.239
X3.212 Y98.019
X2.972 Y97.780
X2.752 Y97.506
X2.561 Y97.205
X2.392 Y96.875
X2.265 Y96.548
X2.179 Y96.216
X2.123 Y95.852
X2.100 Y95.454
X2.100 Y2.100
X4.660 Y2.100
X4.664 Y84.094
X4.734 Y84.958
X4.829 Y85.451
X5.008 Y86.072
X5.188 Y86.562
X5.265 Y86.738
X5.580 Y87.339
X5.964 Y87.923
X6.409 Y88.461
X6.779 Y88.831
X6.926 Y88.961
X7.439 Y89.356
X8.032 Y89.735
X8.641 Y90.038
X9.121 Y90.228
X9.315 Y90.290
X9.977 Y90.451
X10.648 Y90.547
X11.260 Y90.580
X98.900 Y90.580
X98.900 Y98.800
ID=1 WHEN $AC_TIMER[1]>=0 DO M51
X96.02 Y96.02 F1000
ID=1 WHEN $AC_TIMER[1]>=0 DO M50
X5.629 Y96.020 F300
X5.317 Y95.983
X5.119 Y95.853
X5.003 Y95.633
X4.980 Y95.371
X4.980 Y91.082
X5.172 Y91.246
X5.888 Y91.782
X6.481 Y92.161
X6.750 Y92.314
X7.581 Y92.716
X8.234 Y92.968
X8.634 Y93.089
X9.296 Y93.250
X9.569 Y93.302
X10.240 Y93.398
X11.260 Y93.460
X96.020 Y93.460
X96.020 Y95.920
ID=1 WHEN $AC_TIMER[1]>=0 DO M51

; Inicio do trecho do raster
; Final do trecho do raster

; Layer 25
G1 Z36.000 F1000
N4550 M63		;POWDER MIXER OFF
N4560 M67		;POWDER FEED OFF
N4570 M65		;CARRIER OFF
N4580 M79     ;GAS 1 OFF

N4590 M0

N4600 M78     ; GAS 1 ON
N4610 M64		;CARRIER ON
N4620 H2 = R3	;SET POWDER FLOW
N4630 M62		;POWDER MIXER ON
N4640 M66		;POWDER FEED ON
N4650 G4F3

X98.9 Y98.9 F1000
ID=1 WHEN $AC_TIMER[1]>=0 DO M50
X5.546 Y98.900 F300
X5.148 Y98.877
X4.780 Y98.820
X4.444 Y98.735
X4.130 Y98.610
X3.807 Y98.445
X3.494 Y98.239
X3.212 Y98.019
X2.972 Y97.780
X2.752 Y97.506
X2.561 Y97.205
X2.392 Y96.875
X2.265 Y96.548
X2.179 Y96.216
X2.123 Y95.852
X2.100 Y95.454
X2.100 Y2.100
X4.660 Y2.100
X4.663 Y84.072
X4.709 Y84.743
X4.789 Y85.263
X4.835 Y85.471
X5.078 Y86.278
X5.265 Y86.738
X5.580 Y87.339
X5.964 Y87.923
X6.409 Y88.461
X6.779 Y88.831
X6.926 Y88.961
X7.439 Y89.356
X8.032 Y89.735
X8.641 Y90.038
X9.121 Y90.228
X9.315 Y90.290
X9.977 Y90.451
X10.648 Y90.547
X11.260 Y90.580
X98.900 Y90.580
X98.900 Y98.800
ID=1 WHEN $AC_TIMER[1]>=0 DO M51
X96.02 Y96.02 F1000
ID=1 WHEN $AC_TIMER[1]>=0 DO M50
X5.629 Y96.020 F300
X5.317 Y95.983
X5.119 Y95.853
X5.003 Y95.633
X4.980 Y95.371
X4.980 Y91.082
X5.172 Y91.246
X5.888 Y91.782
X6.481 Y92.161
X6.750 Y92.314
X7.581 Y92.716
X8.234 Y92.968
X8.634 Y93.089
X9.296 Y93.250
X9.569 Y93.302
X10.240 Y93.398
X11.260 Y93.460
X96.020 Y93.460
X96.020 Y95.920
ID=1 WHEN $AC_TIMER[1]>=0 DO M51

; Inicio do trecho do raster
; Final do trecho do raster

; Layer 26
G1 Z37.440 F1000
N4550 M63		;POWDER MIXER OFF
N4560 M67		;POWDER FEED OFF
N4570 M65		;CARRIER OFF
N4580 M79     ;GAS 1 OFF

N4590 M0

N4600 M78     ; GAS 1 ON
N4610 M64		;CARRIER ON
N4620 H2 = R3	;SET POWDER FLOW
N4630 M62		;POWDER MIXER ON
N4640 M66		;POWDER FEED ON
N4650 G4F3

X98.9 Y98.9 F1000
ID=1 WHEN $AC_TIMER[1]>=0 DO M50
X5.546 Y98.900 F300
X5.148 Y98.877
X4.773 Y98.819
X4.452 Y98.738
X4.130 Y98.610
X3.807 Y98.445
X3.494 Y98.239
X3.212 Y98.019
X2.972 Y97.780
X2.752 Y97.506
X2.561 Y97.205
X2.392 Y96.875
X2.265 Y96.548
X2.179 Y96.216
X2.123 Y95.852
X2.100 Y95.454
X2.100 Y2.100
X4.660 Y2.100
X4.663 Y84.072
X4.709 Y84.743
X4.789 Y85.263
X4.835 Y85.471
X5.078 Y86.278
X5.265 Y86.738
X5.580 Y87.339
X5.964 Y87.923
X6.409 Y88.461
X6.779 Y88.831
X6.926 Y88.961
X7.439 Y89.356
X8.032 Y89.735
X8.641 Y90.038
X9.121 Y90.228
X9.380 Y90.306
X9.977 Y90.451
X10.648 Y90.547
X11.260 Y90.580
X98.900 Y90.580
X98.900 Y98.800
ID=1 WHEN $AC_TIMER[1]>=0 DO M51
X96.02 Y96.02 F1000
ID=1 WHEN $AC_TIMER[1]>=0 DO M50
X5.629 Y96.020 F300
X5.317 Y95.983
X5.119 Y95.853
X5.003 Y95.633
X4.980 Y95.371
X4.980 Y91.082
X5.172 Y91.246
X5.888 Y91.782
X6.481 Y92.161
X6.750 Y92.314
X7.581 Y92.716
X8.291 Y92.986
X8.697 Y93.103
X9.293 Y93.249
X9.569 Y93.302
X10.240 Y93.398
X11.260 Y93.460
X96.020 Y93.460
X96.020 Y95.920
ID=1 WHEN $AC_TIMER[1]>=0 DO M51

; Inicio do trecho do raster
; Final do trecho do raster

; Layer 27
G1 Z38.880 F1000
N4550 M63		;POWDER MIXER OFF
N4560 M67		;POWDER FEED OFF
N4570 M65		;CARRIER OFF
N4580 M79     ;GAS 1 OFF

N4590 M0

N4600 M78     ; GAS 1 ON
N4610 M64		;CARRIER ON
N4620 H2 = R3	;SET POWDER FLOW
N4630 M62		;POWDER MIXER ON
N4640 M66		;POWDER FEED ON
N4650 G4F3

X98.9 Y98.9 F1000
ID=1 WHEN $AC_TIMER[1]>=0 DO M50
X5.546 Y98.900 F300
X5.148 Y98.877
X4.780 Y98.820
X4.444 Y98.735
X4.130 Y98.610
X3.807 Y98.445
X3.494 Y98.239
X3.212 Y98.019
X2.972 Y97.780
X2.752 Y97.506
X2.561 Y97.205
X2.392 Y96.875
X2.265 Y96.548
X2.179 Y96.216
X2.123 Y95.852
X2.100 Y95.454
X2.100 Y2.100
X4.660 Y2.100
X4.663 Y84.072
X4.709 Y84.743
X4.789 Y85.263
X4.829 Y85.451
X5.008 Y86.072
X5.188 Y86.562
X5.265 Y86.738
X5.580 Y87.339
X5.964 Y87.923
X6.409 Y88.461
X6.779 Y88.831
X6.926 Y88.961
X7.439 Y89.356
X8.032 Y89.735
X8.641 Y90.038
X9.121 Y90.228
X9.315 Y90.290
X9.977 Y90.451
X10.648 Y90.547
X11.260 Y90.580
X98.900 Y90.580
X98.900 Y98.800
ID=1 WHEN $AC_TIMER[1]>=0 DO M51
X96.02 Y96.02 F1000
ID=1 WHEN $AC_TIMER[1]>=0 DO M50
X5.629 Y96.020 F300
X5.317 Y95.983
X5.119 Y95.853
X5.003 Y95.633
X4.980 Y95.371
X4.980 Y91.082
X5.172 Y91.246
X5.888 Y91.782
X6.481 Y92.161
X6.750 Y92.314
X7.581 Y92.716
X8.234 Y92.968
X8.634 Y93.089
X9.296 Y93.250
X9.569 Y93.302
X10.240 Y93.398
X11.260 Y93.460
X96.020 Y93.460
X96.020 Y95.920
ID=1 WHEN $AC_TIMER[1]>=0 DO M51

; Inicio do trecho do raster
; Final do trecho do raster

; Layer 28
G1 Z40.320 F1000
N4550 M63		;POWDER MIXER OFF
N4560 M67		;POWDER FEED OFF
N4570 M65		;CARRIER OFF
N4580 M79     ;GAS 1 OFF

N4590 M0

N4600 M78     ; GAS 1 ON
N4610 M64		;CARRIER ON
N4620 H2 = R3	;SET POWDER FLOW
N4630 M62		;POWDER MIXER ON
N4640 M66		;POWDER FEED ON
N4650 G4F3

X98.9 Y98.9 F1000
ID=1 WHEN $AC_TIMER[1]>=0 DO M50
X5.546 Y98.900 F300
X5.148 Y98.877
X4.780 Y98.820
X4.444 Y98.735
X4.130 Y98.610
X3.807 Y98.445
X3.494 Y98.239
X3.212 Y98.019
X2.983 Y97.790
X2.734 Y97.478
X2.561 Y97.205
X2.392 Y96.875
X2.265 Y96.548
X2.179 Y96.216
X2.123 Y95.852
X2.100 Y95.454
X2.100 Y2.100
X4.660 Y2.100
X4.663 Y84.072
X4.709 Y84.743
X4.789 Y85.263
X4.829 Y85.451
X5.008 Y86.072
X5.188 Y86.562
X5.265 Y86.738
X5.580 Y87.339
X5.860 Y87.779
X6.266 Y88.298
X6.409 Y88.461
X6.779 Y88.831
X6.943 Y88.975
X7.638 Y89.494
X8.032 Y89.735
X8.641 Y90.038
X9.121 Y90.228
X9.315 Y90.290
X9.977 Y90.451
X10.648 Y90.547
X11.260 Y90.580
X98.900 Y90.580
X98.900 Y98.800
ID=1 WHEN $AC_TIMER[1]>=0 DO M51
X96.02 Y96.02 F1000
ID=1 WHEN $AC_TIMER[1]>=0 DO M50
X5.629 Y96.020 F300
X5.317 Y95.983
X5.129 Y95.862
X5.063 Y95.774
X5.003 Y95.633
X4.980 Y95.371
X4.980 Y91.081
X5.218 Y91.281
X5.913 Y91.801
X6.532 Y92.193
X7.359 Y92.616
X8.234 Y92.968
X8.634 Y93.089
X9.296 Y93.250
X9.569 Y93.302
X10.240 Y93.398
X11.260 Y93.460
X96.020 Y93.460
X96.020 Y95.920
ID=1 WHEN $AC_TIMER[1]>=0 DO M51

; Inicio do trecho do raster
; Final do trecho do raster

; Layer 29
G1 Z41.760 F1000
N4550 M63		;POWDER MIXER OFF
N4560 M67		;POWDER FEED OFF
N4570 M65		;CARRIER OFF
N4580 M79     ;GAS 1 OFF

N4590 M0

N4600 M78     ; GAS 1 ON
N4610 M64		;CARRIER ON
N4620 H2 = R3	;SET POWDER FLOW
N4630 M62		;POWDER MIXER ON
N4640 M66		;POWDER FEED ON
N4650 G4F3

X9.07975 Y90.2106 F1000
ID=1 WHEN $AC_TIMER[1]>=0 DO M50
X9.315 Y90.290 F300
X9.977 Y90.451
X10.648 Y90.547
X11.260 Y90.580
X98.900 Y90.580
X98.900 Y98.900
X5.546 Y98.900
X5.148 Y98.877
X4.780 Y98.820
X4.458 Y98.738
X4.101 Y98.596
X3.807 Y98.445
X3.494 Y98.239
X3.212 Y98.019
X2.972 Y97.780
X2.752 Y97.506
X2.561 Y97.205
X2.392 Y96.875
X2.265 Y96.548
X2.179 Y96.216
X2.123 Y95.852
X2.100 Y95.454
X2.100 Y2.100
X4.660 Y2.100
X4.663 Y84.072
X4.709 Y84.743
X4.814 Y85.391
X4.896 Y85.718
X5.091 Y86.315
X5.265 Y86.738
X5.580 Y87.339
X5.964 Y87.923
X6.409 Y88.461
X6.779 Y88.831
X6.926 Y88.961
X7.439 Y89.356
X8.032 Y89.735
X8.502 Y89.975
X8.987 Y90.173
ID=1 WHEN $AC_TIMER[1]>=0 DO M51
X96.02 Y96.02 F1000
ID=1 WHEN $AC_TIMER[1]>=0 DO M50
X5.629 Y96.020 F300
X5.352 Y95.994
X5.258 Y95.953
X5.096 Y95.825
X5.003 Y95.633
X4.980 Y95.371
X4.980 Y91.082
X5.172 Y91.246
X5.888 Y91.782
X6.481 Y92.161
X6.723 Y92.300
X7.414 Y92.641
X8.154 Y92.938
X8.634 Y93.089
X9.296 Y93.250
X9.569 Y93.302
X10.240 Y93.398
X11.260 Y93.460
X96.020 Y93.460
X96.020 Y95.920
ID=1 WHEN $AC_TIMER[1]>=0 DO M51

; Inicio do trecho do raster
; Final do trecho do raster

; Layer 30
G1 Z43.200 F1000
N4550 M63		;POWDER MIXER OFF
N4560 M67		;POWDER FEED OFF
N4570 M65		;CARRIER OFF
N4580 M79     ;GAS 1 OFF

N4590 M0

N4600 M78     ; GAS 1 ON
N4610 M64		;CARRIER ON
N4620 H2 = R3	;SET POWDER FLOW
N4630 M62		;POWDER MIXER ON
N4640 M66		;POWDER FEED ON
N4650 G4F3

X98.9 Y98.9 F1000
ID=1 WHEN $AC_TIMER[1]>=0 DO M50
X5.546 Y98.900 F300
X5.148 Y98.877
X4.780 Y98.820
X4.444 Y98.735
X4.130 Y98.610
X3.807 Y98.445
X3.494 Y98.239
X3.212 Y98.019
X2.972 Y97.780
X2.752 Y97.506
X2.561 Y97.205
X2.392 Y96.875
X2.265 Y96.548
X2.179 Y96.216
X2.123 Y95.852
X2.100 Y95.454
X2.100 Y2.100
X4.660 Y2.100
X4.663 Y84.072
X4.709 Y84.743
X4.789 Y85.263
X4.836 Y85.474
X5.091 Y86.315
X5.265 Y86.738
X5.580 Y87.339
X5.964 Y87.923
X6.409 Y88.461
X6.779 Y88.831
X6.926 Y88.961
X7.439 Y89.356
X8.032 Y89.735
X8.641 Y90.038
X9.121 Y90.228
X9.315 Y90.290
X9.977 Y90.451
X10.648 Y90.547
X11.260 Y90.580
X98.900 Y90.580
X98.900 Y98.800
ID=1 WHEN $AC_TIMER[1]>=0 DO M51
X96.02 Y96.02 F1000
ID=1 WHEN $AC_TIMER[1]>=0 DO M50
X5.629 Y96.020 F300
X5.317 Y95.983
X5.119 Y95.853
X5.003 Y95.633
X4.980 Y95.371
X4.980 Y91.082
X5.172 Y91.246
X5.888 Y91.782
X6.481 Y92.161
X6.750 Y92.314
X7.581 Y92.716
X8.234 Y92.968
X8.634 Y93.089
X9.296 Y93.250
X9.569 Y93.302
X10.240 Y93.398
X11.260 Y93.460
X96.020 Y93.460
X96.020 Y95.920
ID=1 WHEN $AC_TIMER[1]>=0 DO M51

; Inicio do trecho do raster
; Final do trecho do raster

; Layer 31
G1 Z44.640 F1000
N4550 M63		;POWDER MIXER OFF
N4560 M67		;POWDER FEED OFF
N4570 M65		;CARRIER OFF
N4580 M79     ;GAS 1 OFF

N4590 M0

N4600 M78     ; GAS 1 ON
N4610 M64		;CARRIER ON
N4620 H2 = R3	;SET POWDER FLOW
N4630 M62		;POWDER MIXER ON
N4640 M66		;POWDER FEED ON
N4650 G4F3

X98.9 Y98.9 F1000
ID=1 WHEN $AC_TIMER[1]>=0 DO M50
X5.546 Y98.900 F300
X5.148 Y98.877
X4.796 Y98.823
X4.417 Y98.724
X4.130 Y98.610
X3.807 Y98.445
X3.494 Y98.239
X3.212 Y98.019
X2.972 Y97.780
X2.752 Y97.506
X2.561 Y97.205
X2.392 Y96.875
X2.265 Y96.548
X2.179 Y96.216
X2.123 Y95.852
X2.100 Y95.454
X2.100 Y2.100
X4.660 Y2.100
X4.663 Y84.072
X4.709 Y84.743
X4.789 Y85.263
X4.829 Y85.451
X5.008 Y86.072
X5.188 Y86.562
X5.265 Y86.738
X5.580 Y87.339
X5.964 Y87.923
X6.409 Y88.461
X6.779 Y88.831
X6.926 Y88.961
X7.439 Y89.356
X8.032 Y89.735
X8.641 Y90.038
X9.121 Y90.228
X9.370 Y90.303
X9.977 Y90.451
X10.648 Y90.547
X11.260 Y90.580
X98.900 Y90.580
X98.900 Y98.800
ID=1 WHEN $AC_TIMER[1]>=0 DO M51
X96.02 Y96.02 F1000
ID=1 WHEN $AC_TIMER[1]>=0 DO M50
X5.629 Y96.020 F300
X5.379 Y95.999
X5.258 Y95.953
X5.119 Y95.853
X5.003 Y95.633
X4.980 Y95.371
X4.980 Y91.082
X5.172 Y91.246
X5.888 Y91.782
X6.481 Y92.161
X6.750 Y92.314
X7.581 Y92.716
X8.282 Y92.983
X8.688 Y93.101
X9.294 Y93.249
X9.569 Y93.302
X10.240 Y93.398
X11.260 Y93.460
X96.020 Y93.460
X96.020 Y95.920
ID=1 WHEN $AC_TIMER[1]>=0 DO M51

; Inicio do trecho do raster
; Final do trecho do raster

; Layer 32
G1 Z46.080 F1000
N4550 M63		;POWDER MIXER OFF
N4560 M67		;POWDER FEED OFF
N4570 M65		;CARRIER OFF
N4580 M79     ;GAS 1 OFF

N4590 M0

N4600 M78     ; GAS 1 ON
N4610 M64		;CARRIER ON
N4620 H2 = R3	;SET POWDER FLOW
N4630 M62		;POWDER MIXER ON
N4640 M66		;POWDER FEED ON
N4650 G4F3

X98.9 Y98.9 F1000
ID=1 WHEN $AC_TIMER[1]>=0 DO M50
X5.546 Y98.900 F300
X5.148 Y98.877
X4.780 Y98.820
X4.444 Y98.735
X4.130 Y98.610
X3.807 Y98.445
X3.494 Y98.239
X3.212 Y98.019
X2.972 Y97.780
X2.752 Y97.506
X2.561 Y97.205
X2.392 Y96.875
X2.265 Y96.548
X2.179 Y96.216
X2.123 Y95.852
X2.100 Y95.454
X2.100 Y2.100
X4.660 Y2.100
X4.663 Y84.072
X4.709 Y84.743
X4.789 Y85.263
X4.829 Y85.451
X5.008 Y86.072
X5.188 Y86.562
X5.265 Y86.738
X5.580 Y87.339
X5.964 Y87.923
X6.409 Y88.461
X6.779 Y88.831
X6.926 Y88.961
X7.439 Y89.356
X8.032 Y89.735
X8.641 Y90.038
X9.121 Y90.228
X9.315 Y90.290
X9.977 Y90.451
X10.648 Y90.547
X11.260 Y90.580
X98.900 Y90.580
X98.900 Y98.800
ID=1 WHEN $AC_TIMER[1]>=0 DO M51
X96.02 Y96.02 F1000
ID=1 WHEN $AC_TIMER[1]>=0 DO M50
X5.629 Y96.020 F300
X5.317 Y95.983
X5.119 Y95.853
X5.003 Y95.633
X4.980 Y95.371
X4.980 Y91.082
X5.172 Y91.246
X5.888 Y91.782
X6.481 Y92.161
X6.750 Y92.314
X7.581 Y92.716
X8.234 Y92.968
X8.634 Y93.089
X9.296 Y93.250
X9.569 Y93.302
X10.240 Y93.398
X11.260 Y93.460
X96.020 Y93.460
X96.020 Y95.920
ID=1 WHEN $AC_TIMER[1]>=0 DO M51

; Inicio do trecho do raster
; Final do trecho do raster

; Layer 33
G1 Z47.520 F1000
N4550 M63		;POWDER MIXER OFF
N4560 M67		;POWDER FEED OFF
N4570 M65		;CARRIER OFF
N4580 M79     ;GAS 1 OFF

N4590 M0

N4600 M78     ; GAS 1 ON
N4610 M64		;CARRIER ON
N4620 H2 = R3	;SET POWDER FLOW
N4630 M62		;POWDER MIXER ON
N4640 M66		;POWDER FEED ON
N4650 G4F3

X98.9 Y98.9 F1000
ID=1 WHEN $AC_TIMER[1]>=0 DO M50
X5.546 Y98.900 F300
X5.148 Y98.877
X4.780 Y98.820
X4.444 Y98.735
X4.130 Y98.610
X3.807 Y98.445
X3.494 Y98.239
X3.212 Y98.019
X2.972 Y97.780
X2.752 Y97.506
X2.561 Y97.205
X2.392 Y96.875
X2.265 Y96.548
X2.179 Y96.216
X2.123 Y95.852
X2.100 Y95.454
X2.100 Y2.100
X4.660 Y2.100
X4.663 Y84.072
X4.709 Y84.743
X4.789 Y85.263
X4.829 Y85.451
X5.008 Y86.072
X5.188 Y86.562
X5.265 Y86.738
X5.580 Y87.339
X5.964 Y87.923
X6.409 Y88.461
X6.779 Y88.831
X6.926 Y88.961
X7.439 Y89.356
X8.032 Y89.735
X8.641 Y90.038
X9.121 Y90.228
X9.315 Y90.290
X9.977 Y90.451
X10.648 Y90.547
X11.260 Y90.580
X98.900 Y90.580
X98.900 Y98.800
ID=1 WHEN $AC_TIMER[1]>=0 DO M51
X96.02 Y96.02 F1000
ID=1 WHEN $AC_TIMER[1]>=0 DO M50
X5.629 Y96.020 F300
X5.317 Y95.983
X5.119 Y95.853
X5.003 Y95.633
X4.980 Y95.371
X4.980 Y91.082
X5.172 Y91.246
X5.888 Y91.782
X6.481 Y92.161
X6.750 Y92.314
X7.581 Y92.716
X8.234 Y92.968
X8.634 Y93.089
X9.296 Y93.250
X9.569 Y93.302
X10.240 Y93.398
X11.260 Y93.460
X96.020 Y93.460
X96.020 Y95.920
ID=1 WHEN $AC_TIMER[1]>=0 DO M51

; Inicio do trecho do raster
; Final do trecho do raster

; Layer 34
G1 Z48.960 F1000
N4550 M63		;POWDER MIXER OFF
N4560 M67		;POWDER FEED OFF
N4570 M65		;CARRIER OFF
N4580 M79     ;GAS 1 OFF

N4590 M0

N4600 M78     ; GAS 1 ON
N4610 M64		;CARRIER ON
N4620 H2 = R3	;SET POWDER FLOW
N4630 M62		;POWDER MIXER ON
N4640 M66		;POWDER FEED ON
N4650 G4F3

X98.9 Y98.9 F1000
ID=1 WHEN $AC_TIMER[1]>=0 DO M50
X5.546 Y98.900 F300
X5.148 Y98.877
X4.780 Y98.820
X4.444 Y98.735
X4.130 Y98.610
X3.807 Y98.445
X3.494 Y98.239
X3.212 Y98.019
X2.972 Y97.780
X2.752 Y97.506
X2.561 Y97.205
X2.392 Y96.875
X2.265 Y96.548
X2.179 Y96.216
X2.123 Y95.852
X2.100 Y95.454
X2.100 Y2.100
X4.660 Y2.100
X4.663 Y84.072
X4.709 Y84.743
X4.789 Y85.263
X4.829 Y85.451
X5.008 Y86.072
X5.188 Y86.562
X5.265 Y86.738
X5.580 Y87.339
X5.964 Y87.923
X6.409 Y88.461
X6.779 Y88.831
X6.926 Y88.961
X7.439 Y89.356
X8.032 Y89.735
X8.641 Y90.038
X9.121 Y90.228
X9.315 Y90.290
X9.977 Y90.451
X10.648 Y90.547
X11.260 Y90.580
X98.900 Y90.580
X98.900 Y98.800
ID=1 WHEN $AC_TIMER[1]>=0 DO M51
X96.02 Y96.02 F1000
ID=1 WHEN $AC_TIMER[1]>=0 DO M50
X5.629 Y96.020 F300
X5.317 Y95.983
X5.119 Y95.853
X5.003 Y95.633
X4.980 Y95.371
X4.980 Y91.082
X5.172 Y91.246
X5.888 Y91.782
X6.481 Y92.161
X6.750 Y92.314
X7.581 Y92.716
X8.234 Y92.968
X8.634 Y93.089
X9.296 Y93.250
X9.569 Y93.302
X10.240 Y93.398
X11.260 Y93.460
X96.020 Y93.460
X96.020 Y95.920
ID=1 WHEN $AC_TIMER[1]>=0 DO M51

; Inicio do trecho do raster
; Final do trecho do raster

; Layer 35
G1 Z50.400 F1000
N4550 M63		;POWDER MIXER OFF
N4560 M67		;POWDER FEED OFF
N4570 M65		;CARRIER OFF
N4580 M79     ;GAS 1 OFF

N4590 M0

N4600 M78     ; GAS 1 ON
N4610 M64		;CARRIER ON
N4620 H2 = R3	;SET POWDER FLOW
N4630 M62		;POWDER MIXER ON
N4640 M66		;POWDER FEED ON
N4650 G4F3

X98.9 Y98.9 F1000
ID=1 WHEN $AC_TIMER[1]>=0 DO M50
X5.546 Y98.900 F300
X5.148 Y98.877
X4.780 Y98.820
X4.444 Y98.735
X4.130 Y98.610
X3.807 Y98.445
X3.494 Y98.239
X3.212 Y98.019
X2.972 Y97.780
X2.752 Y97.506
X2.561 Y97.205
X2.392 Y96.875
X2.265 Y96.548
X2.179 Y96.216
X2.123 Y95.852
X2.100 Y95.454
X2.100 Y2.100
X4.660 Y2.100
X4.663 Y84.072
X4.709 Y84.743
X4.789 Y85.263
X4.829 Y85.451
X5.008 Y86.072
X5.188 Y86.562
X5.265 Y86.738
X5.580 Y87.339
X5.964 Y87.923
X6.409 Y88.461
X6.779 Y88.831
X6.926 Y88.961
X7.439 Y89.356
X8.032 Y89.735
X8.641 Y90.038
X9.121 Y90.228
X9.315 Y90.290
X9.977 Y90.451
X10.648 Y90.547
X11.260 Y90.580
X98.900 Y90.580
X98.900 Y98.800
ID=1 WHEN $AC_TIMER[1]>=0 DO M51
X96.02 Y96.02 F1000
ID=1 WHEN $AC_TIMER[1]>=0 DO M50
X5.629 Y96.020 F300
X5.317 Y95.983
X5.119 Y95.853
X5.003 Y95.633
X4.980 Y95.371
X4.980 Y91.082
X5.172 Y91.246
X5.888 Y91.782
X6.481 Y92.161
X6.750 Y92.314
X7.581 Y92.716
X8.234 Y92.968
X8.634 Y93.089
X9.296 Y93.250
X9.569 Y93.302
X10.240 Y93.398
X11.260 Y93.460
X96.020 Y93.460
X96.020 Y95.920
ID=1 WHEN $AC_TIMER[1]>=0 DO M51

; Inicio do trecho do raster
; Final do trecho do raster

; Layer 36
G1 Z51.840 F1000
N4550 M63		;POWDER MIXER OFF
N4560 M67		;POWDER FEED OFF
N4570 M65		;CARRIER OFF
N4580 M79     ;GAS 1 OFF

N4590 M0

N4600 M78     ; GAS 1 ON
N4610 M64		;CARRIER ON
N4620 H2 = R3	;SET POWDER FLOW
N4630 M62		;POWDER MIXER ON
N4640 M66		;POWDER FEED ON
N4650 G4F3

X98.9 Y98.9 F1000
ID=1 WHEN $AC_TIMER[1]>=0 DO M50
X5.546 Y98.900 F300
X5.148 Y98.877
X4.780 Y98.820
X4.462 Y98.739
X4.107 Y98.599
X3.807 Y98.445
X3.494 Y98.239
X3.212 Y98.019
X2.972 Y97.780
X2.764 Y97.520
X2.549 Y97.182
X2.392 Y96.875
X2.265 Y96.548
X2.179 Y96.216
X2.123 Y95.852
X2.100 Y95.454
X2.100 Y2.100
X4.660 Y2.100
X4.663 Y84.072
X4.709 Y84.743
X4.789 Y85.263
X4.829 Y85.451
X5.008 Y86.072
X5.188 Y86.562
X5.265 Y86.738
X5.505 Y87.208
X5.833 Y87.734
X5.964 Y87.923
X6.409 Y88.461
X6.779 Y88.831
X6.926 Y88.961
X7.439 Y89.356
X8.032 Y89.735
X8.502 Y89.975
X9.072 Y90.207
X9.315 Y90.290
X9.977 Y90.451
X10.648 Y90.547
X11.260 Y90.580
X98.900 Y90.580
X98.900 Y98.800
ID=1 WHEN $AC_TIMER[1]>=0 DO M51
X96.02 Y96.02 F1000
ID=1 WHEN $AC_TIMER[1]>=0 DO M50
X5.629 Y96.020 F300
X5.351 Y95.994
X5.258 Y95.953
X5.108 Y95.840
X5.003 Y95.633
X4.980 Y95.371
X4.980 Y91.082
X5.172 Y91.246
X5.888 Y91.782
X6.481 Y92.161
X6.723 Y92.300
X7.415 Y92.642
X8.139 Y92.932
X8.634 Y93.089
X9.296 Y93.250
X9.569 Y93.302
X10.240 Y93.398
X11.260 Y93.460
X96.020 Y93.460
X96.020 Y95.920
ID=1 WHEN $AC_TIMER[1]>=0 DO M51

; Inicio do trecho do raster
; Final do trecho do raster

; Layer 37
G1 Z53.280 F1000
N4550 M63		;POWDER MIXER OFF
N4560 M67		;POWDER FEED OFF
N4570 M65		;CARRIER OFF
N4580 M79     ;GAS 1 OFF

N4590 M0

N4600 M78     ; GAS 1 ON
N4610 M64		;CARRIER ON
N4620 H2 = R3	;SET POWDER FLOW
N4630 M62		;POWDER MIXER ON
N4640 M66		;POWDER FEED ON
N4650 G4F3

X98.9 Y98.9 F1000
ID=1 WHEN $AC_TIMER[1]>=0 DO M50
X5.546 Y98.900 F300
X5.148 Y98.877
X4.780 Y98.820
X4.444 Y98.735
X4.130 Y98.610
X3.807 Y98.445
X3.494 Y98.239
X3.212 Y98.019
X2.986 Y97.793
X2.739 Y97.485
X2.561 Y97.205
X2.392 Y96.875
X2.265 Y96.548
X2.179 Y96.216
X2.123 Y95.852
X2.100 Y95.454
X2.100 Y2.100
X4.660 Y2.100
X4.663 Y84.072
X4.709 Y84.743
X4.789 Y85.263
X4.829 Y85.451
X5.008 Y86.072
X5.188 Y86.562
X5.265 Y86.738
X5.580 Y87.339
X5.860 Y87.779
X6.260 Y88.290
X6.409 Y88.461
X6.779 Y88.831
X6.926 Y88.961
X7.439 Y89.356
X8.032 Y89.735
X8.641 Y90.038
X9.121 Y90.228
X9.315 Y90.290
X9.977 Y90.451
X10.648 Y90.547
X11.260 Y90.580
X98.900 Y90.580
X98.900 Y98.800
ID=1 WHEN $AC_TIMER[1]>=0 DO M51
X96.02 Y96.02 F1000
ID=1 WHEN $AC_TIMER[1]>=0 DO M50
X5.629 Y96.020 F300
X5.317 Y95.983
X5.129 Y95.862
X5.063 Y95.774
X5.003 Y95.633
X4.980 Y95.371
X4.980 Y91.082
X5.172 Y91.246
X5.888 Y91.782
X6.481 Y92.161
X6.750 Y92.314
X7.581 Y92.716
X8.234 Y92.968
X8.634 Y93.089
X9.296 Y93.250
X9.569 Y93.302
X10.240 Y93.398
X11.260 Y93.460
X96.020 Y93.460
X96.020 Y95.920
ID=1 WHEN $AC_TIMER[1]>=0 DO M51

; Inicio do trecho do raster
; Final do trecho do raster

; Layer 38
G1 Z54.720 F1000
N4550 M63		;POWDER MIXER OFF
N4560 M67		;POWDER FEED OFF
N4570 M65		;CARRIER OFF
N4580 M79     ;GAS 1 OFF

N4590 M0

N4600 M78     ; GAS 1 ON
N4610 M64		;CARRIER ON
N4620 H2 = R3	;SET POWDER FLOW
N4630 M62		;POWDER MIXER ON
N4640 M66		;POWDER FEED ON
N4650 G4F3

X98.9 Y98.9 F1000
ID=1 WHEN $AC_TIMER[1]>=0 DO M50
X5.546 Y98.900 F300
X5.148 Y98.877
X4.780 Y98.820
X4.444 Y98.735
X4.130 Y98.610
X3.807 Y98.445
X3.494 Y98.239
X3.212 Y98.019
X2.972 Y97.780
X2.752 Y97.506
X2.561 Y97.205
X2.392 Y96.875
X2.265 Y96.548
X2.179 Y96.216
X2.123 Y95.852
X2.100 Y95.454
X2.100 Y2.100
X4.660 Y2.100
X4.663 Y84.072
X4.709 Y84.743
X4.789 Y85.263
X4.829 Y85.451
X5.008 Y86.072
X5.188 Y86.562
X5.265 Y86.738
X5.580 Y87.339
X5.964 Y87.923
X6.409 Y88.461
X6.779 Y88.831
X6.926 Y88.961
X7.439 Y89.356
X8.032 Y89.735
X8.641 Y90.038
X9.121 Y90.228
X9.315 Y90.290
X9.977 Y90.451
X10.648 Y90.547
X11.260 Y90.580
X98.900 Y90.580
X98.900 Y98.800
ID=1 WHEN $AC_TIMER[1]>=0 DO M51
X96.02 Y96.02 F1000
ID=1 WHEN $AC_TIMER[1]>=0 DO M50
X5.629 Y96.020 F300
X5.317 Y95.983
X5.119 Y95.853
X5.003 Y95.633
X4.980 Y95.371
X4.980 Y91.082
X5.172 Y91.246
X5.888 Y91.782
X6.481 Y92.161
X6.750 Y92.314
X7.581 Y92.716
X8.234 Y92.968
X8.634 Y93.089
X9.296 Y93.250
X9.569 Y93.302
X10.240 Y93.398
X11.260 Y93.460
X96.020 Y93.460
X96.020 Y95.920
ID=1 WHEN $AC_TIMER[1]>=0 DO M51

; Inicio do trecho do raster
; Final do trecho do raster

; Layer 39
G1 Z56.160 F1000
N4550 M63		;POWDER MIXER OFF
N4560 M67		;POWDER FEED OFF
N4570 M65		;CARRIER OFF
N4580 M79     ;GAS 1 OFF

N4590 M0

N4600 M78     ; GAS 1 ON
N4610 M64		;CARRIER ON
N4620 H2 = R3	;SET POWDER FLOW
N4630 M62		;POWDER MIXER ON
N4640 M66		;POWDER FEED ON
N4650 G4F3

X98.9 Y98.9 F1000
ID=1 WHEN $AC_TIMER[1]>=0 DO M50
X5.546 Y98.900 F300
X5.148 Y98.877
X4.780 Y98.820
X4.444 Y98.735
X4.130 Y98.610
X3.807 Y98.445
X3.494 Y98.239
X3.212 Y98.019
X2.988 Y97.796
X2.737 Y97.483
X2.561 Y97.205
X2.392 Y96.875
X2.265 Y96.548
X2.179 Y96.216
X2.123 Y95.852
X2.100 Y95.454
X2.100 Y2.100
X4.660 Y2.100
X4.663 Y84.072
X4.709 Y84.743
X4.818 Y85.408
X4.931 Y85.831
X5.181 Y86.541
X5.265 Y86.738
X5.580 Y87.339
X5.860 Y87.779
X5.999 Y87.966
X6.409 Y88.461
X6.779 Y88.831
X6.926 Y88.961
X7.439 Y89.356
X8.032 Y89.735
X8.641 Y90.038
X9.121 Y90.228
X9.315 Y90.290
X9.977 Y90.451
X10.648 Y90.547
X11.260 Y90.580
X98.900 Y90.580
X98.900 Y98.800
ID=1 WHEN $AC_TIMER[1]>=0 DO M51
X96.02 Y96.02 F1000
ID=1 WHEN $AC_TIMER[1]>=0 DO M50
X5.629 Y96.020 F300
X5.317 Y95.983
X5.130 Y95.863
X5.063 Y95.774
X5.003 Y95.633
X4.980 Y95.371
X4.980 Y91.082
X5.172 Y91.246
X5.888 Y91.782
X6.481 Y92.161
X6.750 Y92.314
X7.581 Y92.716
X8.234 Y92.968
X8.634 Y93.089
X9.296 Y93.250
X9.569 Y93.302
X10.240 Y93.398
X11.260 Y93.460
X96.020 Y93.460
X96.020 Y95.920
ID=1 WHEN $AC_TIMER[1]>=0 DO M51

; Inicio do trecho do raster
; Final do trecho do raster

; Layer 40
G1 Z57.600 F1000
N4550 M63		;POWDER MIXER OFF
N4560 M67		;POWDER FEED OFF
N4570 M65		;CARRIER OFF
N4580 M79     ;GAS 1 OFF

N4590 M0

N4600 M78     ; GAS 1 ON
N4610 M64		;CARRIER ON
N4620 H2 = R3	;SET POWDER FLOW
N4630 M62		;POWDER MIXER ON
N4640 M66		;POWDER FEED ON
N4650 G4F3

X98.9 Y98.9 F1000
ID=1 WHEN $AC_TIMER[1]>=0 DO M50
X5.546 Y98.900 F300
X5.148 Y98.877
X4.780 Y98.820
X4.444 Y98.735
X4.130 Y98.610
X3.807 Y98.445
X3.494 Y98.239
X3.212 Y98.019
X2.972 Y97.780
X2.752 Y97.506
X2.561 Y97.205
X2.392 Y96.875
X2.265 Y96.548
X2.179 Y96.216
X2.123 Y95.852
X2.100 Y95.454
X2.100 Y2.100
X4.660 Y2.100
X4.663 Y84.072
X4.709 Y84.743
X4.789 Y85.263
X4.829 Y85.451
X5.008 Y86.072
X5.188 Y86.562
X5.265 Y86.738
X5.580 Y87.339
X5.964 Y87.923
X6.409 Y88.461
X6.779 Y88.831
X6.926 Y88.961
X7.439 Y89.356
X8.032 Y89.735
X8.641 Y90.038
X9.121 Y90.228
X9.315 Y90.290
X9.977 Y90.451
X10.648 Y90.547
X11.260 Y90.580
X98.900 Y90.580
X98.900 Y98.800
ID=1 WHEN $AC_TIMER[1]>=0 DO M51
X96.02 Y96.02 F1000
ID=1 WHEN $AC_TIMER[1]>=0 DO M50
X5.629 Y96.020 F300
X5.317 Y95.983
X5.119 Y95.853
X5.003 Y95.633
X4.980 Y95.371
X4.980 Y91.082
X5.172 Y91.246
X5.888 Y91.782
X6.481 Y92.161
X6.750 Y92.314
X7.581 Y92.716
X8.234 Y92.968
X8.634 Y93.089
X9.296 Y93.250
X9.569 Y93.302
X10.240 Y93.398
X11.260 Y93.460
X96.020 Y93.460
X96.020 Y95.920
ID=1 WHEN $AC_TIMER[1]>=0 DO M51

; Inicio do trecho do raster
; Final do trecho do raster

; Layer 41
G1 Z59.040 F1000
N4550 M63		;POWDER MIXER OFF
N4560 M67		;POWDER FEED OFF
N4570 M65		;CARRIER OFF
N4580 M79     ;GAS 1 OFF

N4590 M0

N4600 M78     ; GAS 1 ON
N4610 M64		;CARRIER ON
N4620 H2 = R3	;SET POWDER FLOW
N4630 M62		;POWDER MIXER ON
N4640 M66		;POWDER FEED ON
N4650 G4F3

X98.9 Y98.9 F1000
ID=1 WHEN $AC_TIMER[1]>=0 DO M50
X5.546 Y98.900 F300
X5.148 Y98.877
X4.780 Y98.820
X4.444 Y98.735
X4.130 Y98.610
X3.807 Y98.445
X3.494 Y98.239
X3.212 Y98.019
X2.972 Y97.780
X2.752 Y97.506
X2.561 Y97.205
X2.392 Y96.875
X2.265 Y96.548
X2.179 Y96.216
X2.123 Y95.852
X2.100 Y95.454
X2.100 Y2.100
X4.660 Y2.100
X4.663 Y84.072
X4.709 Y84.743
X4.789 Y85.263
X4.829 Y85.451
X5.008 Y86.072
X5.188 Y86.562
X5.265 Y86.738
X5.580 Y87.339
X5.964 Y87.923
X6.409 Y88.461
X6.779 Y88.831
X6.926 Y88.961
X7.439 Y89.356
X8.032 Y89.735
X8.641 Y90.038
X9.121 Y90.228
X9.315 Y90.290
X9.977 Y90.451
X10.648 Y90.547
X11.260 Y90.580
X98.900 Y90.580
X98.900 Y98.800
ID=1 WHEN $AC_TIMER[1]>=0 DO M51
X96.02 Y96.02 F1000
ID=1 WHEN $AC_TIMER[1]>=0 DO M50
X5.629 Y96.020 F300
X5.317 Y95.983
X5.119 Y95.853
X5.003 Y95.633
X4.980 Y95.371
X4.980 Y91.082
X5.172 Y91.246
X5.888 Y91.782
X6.481 Y92.161
X6.750 Y92.314
X7.581 Y92.716
X8.234 Y92.968
X8.634 Y93.089
X9.296 Y93.250
X9.569 Y93.302
X10.240 Y93.398
X11.260 Y93.460
X96.020 Y93.460
X96.020 Y95.920
ID=1 WHEN $AC_TIMER[1]>=0 DO M51

; Inicio do trecho do raster
; Final do trecho do raster

; Layer 42
G1 Z60.480 F1000
N4550 M63		;POWDER MIXER OFF
N4560 M67		;POWDER FEED OFF
N4570 M65		;CARRIER OFF
N4580 M79     ;GAS 1 OFF

N4590 M0

N4600 M78     ; GAS 1 ON
N4610 M64		;CARRIER ON
N4620 H2 = R3	;SET POWDER FLOW
N4630 M62		;POWDER MIXER ON
N4640 M66		;POWDER FEED ON
N4650 G4F3

X98.9 Y98.9 F1000
ID=1 WHEN $AC_TIMER[1]>=0 DO M50
X5.546 Y98.900 F300
X5.148 Y98.877
X4.780 Y98.820
X4.444 Y98.735
X4.130 Y98.610
X3.807 Y98.445
X3.494 Y98.239
X3.212 Y98.019
X2.972 Y97.780
X2.752 Y97.506
X2.561 Y97.205
X2.392 Y96.875
X2.265 Y96.548
X2.179 Y96.216
X2.123 Y95.852
X2.100 Y95.454
X2.100 Y2.100
X4.660 Y2.100
X4.663 Y84.072
X4.709 Y84.743
X4.789 Y85.263
X4.829 Y85.451
X5.008 Y86.072
X5.188 Y86.562
X5.265 Y86.738
X5.580 Y87.339
X5.964 Y87.923
X6.409 Y88.461
X6.779 Y88.831
X6.926 Y88.961
X7.439 Y89.356
X8.032 Y89.735
X8.641 Y90.038
X9.121 Y90.228
X9.315 Y90.290
X9.977 Y90.451
X10.648 Y90.547
X11.260 Y90.580
X98.900 Y90.580
X98.900 Y98.800
ID=1 WHEN $AC_TIMER[1]>=0 DO M51
X96.02 Y96.02 F1000
ID=1 WHEN $AC_TIMER[1]>=0 DO M50
X5.629 Y96.020 F300
X5.317 Y95.983
X5.119 Y95.853
X5.003 Y95.633
X4.980 Y95.371
X4.980 Y91.082
X5.172 Y91.246
X5.888 Y91.782
X6.481 Y92.161
X6.750 Y92.314
X7.581 Y92.716
X8.234 Y92.968
X8.634 Y93.089
X9.296 Y93.250
X9.569 Y93.302
X10.240 Y93.398
X11.260 Y93.460
X96.020 Y93.460
X96.020 Y95.920
ID=1 WHEN $AC_TIMER[1]>=0 DO M51

; Inicio do trecho do raster
; Final do trecho do raster

; Layer 43
G1 Z61.920 F1000
N4550 M63		;POWDER MIXER OFF
N4560 M67		;POWDER FEED OFF
N4570 M65		;CARRIER OFF
N4580 M79     ;GAS 1 OFF

N4590 M0

N4600 M78     ; GAS 1 ON
N4610 M64		;CARRIER ON
N4620 H2 = R3	;SET POWDER FLOW
N4630 M62		;POWDER MIXER ON
N4640 M66		;POWDER FEED ON
N4650 G4F3

X98.9 Y98.9 F1000
ID=1 WHEN $AC_TIMER[1]>=0 DO M50
X5.546 Y98.900 F300
X5.148 Y98.877
X4.780 Y98.820
X4.466 Y98.740
X4.112 Y98.601
X3.807 Y98.445
X3.494 Y98.239
X3.212 Y98.019
X2.972 Y97.780
X2.752 Y97.506
X2.561 Y97.205
X2.392 Y96.875
X2.265 Y96.548
X2.179 Y96.216
X2.123 Y95.852
X2.100 Y95.454
X2.100 Y2.100
X4.660 Y2.100
X4.662 Y84.065
X4.709 Y84.743
X4.789 Y85.263
X4.829 Y85.451
X5.008 Y86.072
X5.188 Y86.562
X5.265 Y86.738
X5.580 Y87.339
X5.964 Y87.923
X6.409 Y88.461
X6.779 Y88.831
X6.926 Y88.961
X7.439 Y89.356
X8.032 Y89.735
X8.502 Y89.975
X9.060 Y90.202
X9.315 Y90.290
X9.977 Y90.451
X10.648 Y90.547
X11.260 Y90.580
X98.900 Y90.580
X98.900 Y98.800
ID=1 WHEN $AC_TIMER[1]>=0 DO M51
X96.02 Y96.02 F1000
ID=1 WHEN $AC_TIMER[1]>=0 DO M50
X5.629 Y96.020 F300
X5.352 Y95.994
X5.258 Y95.953
X5.119 Y95.853
X5.003 Y95.633
X4.980 Y95.371
X4.980 Y91.082
X5.172 Y91.246
X5.888 Y91.782
X6.481 Y92.161
X6.723 Y92.300
X7.416 Y92.642
X8.116 Y92.923
X8.634 Y93.089
X9.296 Y93.250
X9.569 Y93.302
X10.240 Y93.398
X11.260 Y93.460
X96.020 Y93.460
X96.020 Y95.920
ID=1 WHEN $AC_TIMER[1]>=0 DO M51

; Inicio do trecho do raster
; Final do trecho do raster

; Layer 44
G1 Z63.360 F1000
N4550 M63		;POWDER MIXER OFF
N4560 M67		;POWDER FEED OFF
N4570 M65		;CARRIER OFF
N4580 M79     ;GAS 1 OFF

N4590 M0

N4600 M78     ; GAS 1 ON
N4610 M64		;CARRIER ON
N4620 H2 = R3	;SET POWDER FLOW
N4630 M62		;POWDER MIXER ON
N4640 M66		;POWDER FEED ON
N4650 G4F3

X98.9 Y98.9 F1000
ID=1 WHEN $AC_TIMER[1]>=0 DO M50
X5.546 Y98.900 F300
X5.148 Y98.877
X4.780 Y98.820
X4.444 Y98.735
X4.130 Y98.610
X3.807 Y98.445
X3.494 Y98.239
X3.212 Y98.019
X2.972 Y97.780
X2.752 Y97.506
X2.561 Y97.205
X2.392 Y96.875
X2.265 Y96.548
X2.179 Y96.216
X2.123 Y95.852
X2.100 Y95.454
X2.100 Y2.100
X4.660 Y2.100
X4.663 Y84.072
X4.709 Y84.743
X4.818 Y85.408
X4.944 Y85.880
X5.184 Y86.550
X5.265 Y86.738
X5.580 Y87.339
X5.964 Y87.923
X6.409 Y88.461
X6.779 Y88.831
X6.926 Y88.961
X7.439 Y89.356
X8.032 Y89.735
X8.641 Y90.038
X9.121 Y90.228
X9.315 Y90.290
X9.977 Y90.451
X10.648 Y90.547
X11.260 Y90.580
X98.900 Y90.580
X98.900 Y98.800
ID=1 WHEN $AC_TIMER[1]>=0 DO M51
X96.02 Y96.02 F1000
ID=1 WHEN $AC_TIMER[1]>=0 DO M50
X5.629 Y96.020 F300
X5.317 Y95.983
X5.119 Y95.853
X5.003 Y95.633
X4.980 Y95.371
X4.980 Y91.082
X5.172 Y91.246
X5.888 Y91.782
X6.481 Y92.161
X6.750 Y92.314
X7.581 Y92.716
X8.234 Y92.968
X8.634 Y93.089
X9.296 Y93.250
X9.569 Y93.302
X10.240 Y93.398
X11.260 Y93.460
X96.020 Y93.460
X96.020 Y95.920
ID=1 WHEN $AC_TIMER[1]>=0 DO M51

; Inicio do trecho do raster
; Final do trecho do raster

; Layer 45
G1 Z64.800 F1000
N4550 M63		;POWDER MIXER OFF
N4560 M67		;POWDER FEED OFF
N4570 M65		;CARRIER OFF
N4580 M79     ;GAS 1 OFF

N4590 M0

N4600 M78     ; GAS 1 ON
N4610 M64		;CARRIER ON
N4620 H2 = R3	;SET POWDER FLOW
N4630 M62		;POWDER MIXER ON
N4640 M66		;POWDER FEED ON
N4650 G4F3

X98.9 Y98.9 F1000
ID=1 WHEN $AC_TIMER[1]>=0 DO M50
X5.546 Y98.900 F300
X5.148 Y98.877
X4.780 Y98.820
X4.444 Y98.735
X4.130 Y98.610
X3.816 Y98.450
X3.363 Y98.143
X3.221 Y98.029
X2.990 Y97.797
X2.742 Y97.489
X2.561 Y97.205
X2.392 Y96.875
X2.265 Y96.548
X2.179 Y96.216
X2.123 Y95.852
X2.100 Y95.454
X2.100 Y2.100
X4.660 Y2.100
X4.663 Y84.072
X4.709 Y84.743
X4.789 Y85.263
X4.829 Y85.451
X5.008 Y86.072
X5.188 Y86.562
X5.265 Y86.738
X5.580 Y87.339
X5.860 Y87.779
X5.989 Y87.953
X6.409 Y88.461
X6.779 Y88.831
X6.926 Y88.961
X7.439 Y89.356
X8.032 Y89.735
X8.641 Y90.038
X9.121 Y90.228
X9.315 Y90.290
X9.977 Y90.451
X10.648 Y90.547
X11.260 Y90.580
X98.900 Y90.580
X98.900 Y98.800
ID=1 WHEN $AC_TIMER[1]>=0 DO M51
X96.02 Y96.02 F1000
ID=1 WHEN $AC_TIMER[1]>=0 DO M50
X5.629 Y96.020 F300
X5.317 Y95.983
X5.127 Y95.860
X5.003 Y95.633
X4.980 Y95.371
X4.980 Y91.082
X5.172 Y91.246
X5.888 Y91.782
X6.481 Y92.161
X6.750 Y92.314
X7.581 Y92.716
X8.234 Y92.968
X8.634 Y93.089
X9.296 Y93.250
X9.569 Y93.302
X10.240 Y93.398
X11.260 Y93.460
X96.020 Y93.460
X96.020 Y95.920
ID=1 WHEN $AC_TIMER[1]>=0 DO M51

; Inicio do trecho do raster
; Final do trecho do raster

; Layer 46
G1 Z66.240 F1000
N4550 M63		;POWDER MIXER OFF
N4560 M67		;POWDER FEED OFF
N4570 M65		;CARRIER OFF
N4580 M79     ;GAS 1 OFF

N4590 M0

N4600 M78     ; GAS 1 ON
N4610 M64		;CARRIER ON
N4620 H2 = R3	;SET POWDER FLOW
N4630 M62		;POWDER MIXER ON
N4640 M66		;POWDER FEED ON
N4650 G4F3

X98.9 Y98.9 F1000
ID=1 WHEN $AC_TIMER[1]>=0 DO M50
X5.546 Y98.900 F300
X5.148 Y98.877
X4.780 Y98.820
X4.444 Y98.735
X4.130 Y98.610
X3.807 Y98.445
X3.494 Y98.239
X3.212 Y98.019
X2.972 Y97.780
X2.752 Y97.506
X2.561 Y97.205
X2.392 Y96.875
X2.265 Y96.548
X2.179 Y96.216
X2.123 Y95.852
X2.100 Y95.454
X2.100 Y2.100
X4.660 Y2.100
X4.663 Y84.072
X4.709 Y84.743
X4.789 Y85.263
X4.829 Y85.451
X5.008 Y86.072
X5.188 Y86.562
X5.265 Y86.738
X5.580 Y87.339
X5.964 Y87.923
X6.409 Y88.461
X6.779 Y88.831
X6.926 Y88.961
X7.439 Y89.356
X8.032 Y89.735
X8.641 Y90.038
X9.121 Y90.228
X9.315 Y90.290
X9.977 Y90.451
X10.648 Y90.547
X11.260 Y90.580
X98.900 Y90.580
X98.900 Y98.800
ID=1 WHEN $AC_TIMER[1]>=0 DO M51
X96.02 Y96.02 F1000
ID=1 WHEN $AC_TIMER[1]>=0 DO M50
X5.629 Y96.020 F300
X5.317 Y95.983
X5.119 Y95.853
X5.003 Y95.633
X4.980 Y95.371
X4.980 Y91.082
X5.172 Y91.246
X5.888 Y91.782
X6.481 Y92.161
X6.750 Y92.314
X7.581 Y92.716
X8.234 Y92.968
X8.634 Y93.089
X9.296 Y93.250
X9.569 Y93.302
X10.240 Y93.398
X11.260 Y93.460
X96.020 Y93.460
X96.020 Y95.920
ID=1 WHEN $AC_TIMER[1]>=0 DO M51

; Inicio do trecho do raster
; Final do trecho do raster

; Layer 47
G1 Z67.680 F1000
N4550 M63		;POWDER MIXER OFF
N4560 M67		;POWDER FEED OFF
N4570 M65		;CARRIER OFF
N4580 M79     ;GAS 1 OFF

N4590 M0

N4600 M78     ; GAS 1 ON
N4610 M64		;CARRIER ON
N4620 H2 = R3	;SET POWDER FLOW
N4630 M62		;POWDER MIXER ON
N4640 M66		;POWDER FEED ON
N4650 G4F3

X98.9 Y98.9 F1000
ID=1 WHEN $AC_TIMER[1]>=0 DO M50
X5.558 Y98.900 F300
X5.020 Y98.861
X4.646 Y98.789
X4.451 Y98.737
X4.130 Y98.610
X3.807 Y98.445
X3.494 Y98.239
X3.212 Y98.019
X2.993 Y97.800
X2.740 Y97.487
X2.561 Y97.205
X2.392 Y96.875
X2.265 Y96.548
X2.179 Y96.216
X2.123 Y95.852
X2.100 Y95.454
X2.100 Y2.100
X4.660 Y2.100
X4.662 Y84.065
X4.709 Y84.743
X4.789 Y85.263
X4.829 Y85.451
X5.008 Y86.072
X5.188 Y86.562
X5.265 Y86.738
X5.580 Y87.339
X5.860 Y87.779
X5.992 Y87.958
X6.409 Y88.461
X6.779 Y88.831
X6.926 Y88.961
X7.439 Y89.356
X8.032 Y89.735
X8.641 Y90.038
X9.121 Y90.228
X9.315 Y90.290
X9.977 Y90.451
X10.648 Y90.547
X11.260 Y90.580
X98.900 Y90.580
X98.900 Y98.800
ID=1 WHEN $AC_TIMER[1]>=0 DO M51
X96.02 Y96.02 F1000
ID=1 WHEN $AC_TIMER[1]>=0 DO M50
X5.662 Y96.020 F300
X5.317 Y95.983
X5.131 Y95.863
X5.063 Y95.774
X5.003 Y95.633
X4.980 Y95.371
X4.980 Y91.082
X5.172 Y91.246
X5.888 Y91.782
X6.481 Y92.161
X6.750 Y92.314
X7.581 Y92.716
X8.234 Y92.968
X8.634 Y93.089
X9.296 Y93.250
X9.569 Y93.302
X10.240 Y93.398
X11.260 Y93.460
X96.020 Y93.460
X96.020 Y95.920
ID=1 WHEN $AC_TIMER[1]>=0 DO M51

; Inicio do trecho do raster
; Final do trecho do raster

; Layer 48
G1 Z69.120 F1000
N4550 M63		;POWDER MIXER OFF
N4560 M67		;POWDER FEED OFF
N4570 M65		;CARRIER OFF
N4580 M79     ;GAS 1 OFF

N4590 M0

N4600 M78     ; GAS 1 ON
N4610 M64		;CARRIER ON
N4620 H2 = R3	;SET POWDER FLOW
N4630 M62		;POWDER MIXER ON
N4640 M66		;POWDER FEED ON
N4650 G4F3

X98.9 Y98.9 F1000
ID=1 WHEN $AC_TIMER[1]>=0 DO M50
X5.558 Y98.900 F300
X5.003 Y98.860
X4.793 Y98.824
X4.444 Y98.735
X4.130 Y98.610
X3.807 Y98.445
X3.494 Y98.239
X3.212 Y98.019
X2.972 Y97.780
X2.752 Y97.506
X2.561 Y97.205
X2.392 Y96.875
X2.265 Y96.548
X2.179 Y96.216
X2.123 Y95.852
X2.100 Y95.454
X2.100 Y2.100
X4.660 Y2.100
X4.663 Y84.072
X4.709 Y84.743
X4.789 Y85.263
X4.829 Y85.451
X5.008 Y86.072
X5.188 Y86.562
X5.265 Y86.738
X5.580 Y87.339
X5.964 Y87.923
X6.409 Y88.461
X6.779 Y88.831
X6.926 Y88.961
X7.439 Y89.356
X8.032 Y89.735
X8.641 Y90.038
X9.121 Y90.228
X9.315 Y90.290
X9.977 Y90.451
X10.648 Y90.547
X11.260 Y90.580
X98.900 Y90.580
X98.900 Y98.800
ID=1 WHEN $AC_TIMER[1]>=0 DO M51
X96.02 Y96.02 F1000
ID=1 WHEN $AC_TIMER[1]>=0 DO M50
X5.662 Y96.020 F300
X5.317 Y95.983
X5.119 Y95.853
X5.003 Y95.633
X4.980 Y95.371
X4.980 Y91.082
X5.172 Y91.246
X5.888 Y91.782
X6.481 Y92.161
X6.750 Y92.314
X7.581 Y92.716
X8.234 Y92.968
X8.634 Y93.089
X9.296 Y93.250
X9.569 Y93.302
X10.240 Y93.398
X11.260 Y93.460
X96.020 Y93.460
X96.020 Y95.920
ID=1 WHEN $AC_TIMER[1]>=0 DO M51

; Inicio do trecho do raster
; Final do trecho do raster

; Layer 49
G1 Z70.560 F1000
N4550 M63		;POWDER MIXER OFF
N4560 M67		;POWDER FEED OFF
N4570 M65		;CARRIER OFF
N4580 M79     ;GAS 1 OFF

N4590 M0

N4600 M78     ; GAS 1 ON
N4610 M64		;CARRIER ON
N4620 H2 = R3	;SET POWDER FLOW
N4630 M62		;POWDER MIXER ON
N4640 M66		;POWDER FEED ON
N4650 G4F3

X98.9 Y98.9 F1000
ID=1 WHEN $AC_TIMER[1]>=0 DO M50
X5.559 Y98.900 F300
X5.011 Y98.860
X4.790 Y98.823
X4.444 Y98.735
X4.130 Y98.610
X3.816 Y98.450
X3.388 Y98.159
X3.216 Y98.024
X2.972 Y97.780
X2.752 Y97.506
X2.561 Y97.205
X2.392 Y96.875
X2.265 Y96.548
X2.179 Y96.216
X2.123 Y95.852
X2.100 Y95.454
X2.100 Y2.100
X4.660 Y2.100
X4.663 Y84.072
X4.709 Y84.743
X4.789 Y85.263
X4.829 Y85.451
X5.008 Y86.072
X5.188 Y86.562
X5.265 Y86.738
X5.580 Y87.339
X5.964 Y87.923
X6.409 Y88.461
X6.779 Y88.831
X6.926 Y88.961
X7.439 Y89.356
X8.032 Y89.735
X8.641 Y90.038
X9.121 Y90.228
X9.315 Y90.290
X9.977 Y90.451
X10.648 Y90.547
X11.260 Y90.580
X98.900 Y90.580
X98.900 Y98.800
ID=1 WHEN $AC_TIMER[1]>=0 DO M51
X96.02 Y96.02 F1000
ID=1 WHEN $AC_TIMER[1]>=0 DO M50
X5.665 Y96.020 F300
X5.317 Y95.983
X5.119 Y95.853
X5.003 Y95.633
X4.980 Y95.371
X4.980 Y91.082
X5.172 Y91.246
X5.888 Y91.782
X6.481 Y92.161
X6.750 Y92.314
X7.581 Y92.716
X8.234 Y92.968
X8.634 Y93.089
X9.296 Y93.250
X9.569 Y93.302
X10.240 Y93.398
X11.260 Y93.460
X96.020 Y93.460
X96.020 Y95.920
ID=1 WHEN $AC_TIMER[1]>=0 DO M51

; Inicio do trecho do raster
; Final do trecho do raster

; Layer 50
G1 Z72.001 F1000
N4550 M63		;POWDER MIXER OFF
N4560 M67		;POWDER FEED OFF
N4570 M65		;CARRIER OFF
N4580 M79     ;GAS 1 OFF

N4590 M0

N4600 M78     ; GAS 1 ON
N4610 M64		;CARRIER ON
N4620 H2 = R3	;SET POWDER FLOW
N4630 M62		;POWDER MIXER ON
N4640 M66		;POWDER FEED ON
N4650 G4F3

X98.9 Y98.9 F1000
ID=1 WHEN $AC_TIMER[1]>=0 DO M50
X5.546 Y98.900 F300
X5.148 Y98.877
X4.780 Y98.820
X4.444 Y98.735
X4.130 Y98.610
X3.816 Y98.450
X3.388 Y98.159
X3.216 Y98.024
X2.972 Y97.780
X2.752 Y97.506
X2.561 Y97.205
X2.392 Y96.875
X2.265 Y96.548
X2.179 Y96.216
X2.123 Y95.852
X2.100 Y95.454
X2.100 Y2.100
X4.660 Y2.100
X4.662 Y84.065
X4.709 Y84.743
X4.789 Y85.263
X4.829 Y85.451
X5.008 Y86.072
X5.188 Y86.562
X5.265 Y86.738
X5.580 Y87.339
X5.964 Y87.923
X6.409 Y88.461
X6.779 Y88.831
X6.926 Y88.961
X7.439 Y89.356
X8.032 Y89.735
X8.641 Y90.038
X9.121 Y90.228
X9.315 Y90.290
X9.977 Y90.451
X10.648 Y90.547
X11.260 Y90.580
X98.900 Y90.580
X98.900 Y98.800
ID=1 WHEN $AC_TIMER[1]>=0 DO M51
X96.02 Y96.02 F1000
ID=1 WHEN $AC_TIMER[1]>=0 DO M50
X5.629 Y96.020 F300
X5.317 Y95.983
X5.119 Y95.853
X5.003 Y95.633
X4.980 Y95.371
X4.980 Y91.082
X5.172 Y91.246
X5.888 Y91.782
X6.481 Y92.161
X6.750 Y92.314
X7.581 Y92.716
X8.234 Y92.968
X8.634 Y93.089
X9.296 Y93.250
X9.569 Y93.302
X10.240 Y93.398
X11.260 Y93.460
X96.020 Y93.460
X96.020 Y95.920
ID=1 WHEN $AC_TIMER[1]>=0 DO M51

; Inicio do trecho do raster
; Final do trecho do raster

; Layer 51
G1 Z73.441 F1000
N4550 M63		;POWDER MIXER OFF
N4560 M67		;POWDER FEED OFF
N4570 M65		;CARRIER OFF
N4580 M79     ;GAS 1 OFF

N4590 M0

N4600 M78     ; GAS 1 ON
N4610 M64		;CARRIER ON
N4620 H2 = R3	;SET POWDER FLOW
N4630 M62		;POWDER MIXER ON
N4640 M66		;POWDER FEED ON
N4650 G4F3

X98.9 Y98.9 F1000
ID=1 WHEN $AC_TIMER[1]>=0 DO M50
X5.546 Y98.900 F300
X5.148 Y98.877
X4.780 Y98.820
X4.444 Y98.735
X4.130 Y98.610
X3.813 Y98.449
X3.398 Y98.169
X3.219 Y98.026
X2.972 Y97.780
X2.752 Y97.506
X2.561 Y97.205
X2.392 Y96.875
X2.265 Y96.548
X2.179 Y96.216
X2.123 Y95.852
X2.100 Y95.454
X2.100 Y2.100
X4.660 Y2.100
X4.663 Y84.072
X4.709 Y84.743
X4.789 Y85.263
X4.829 Y85.451
X5.008 Y86.072
X5.188 Y86.562
X5.265 Y86.738
X5.580 Y87.339
X5.964 Y87.923
X6.409 Y88.461
X6.779 Y88.831
X6.926 Y88.961
X7.439 Y89.356
X8.032 Y89.735
X8.502 Y89.975
X9.040 Y90.193
X9.315 Y90.290
X9.977 Y90.451
X10.648 Y90.547
X11.260 Y90.580
X98.900 Y90.580
X98.900 Y98.800
ID=1 WHEN $AC_TIMER[1]>=0 DO M51
X96.02 Y96.02 F1000
ID=1 WHEN $AC_TIMER[1]>=0 DO M50
X5.629 Y96.020 F300
X5.317 Y95.983
X5.119 Y95.853
X5.003 Y95.633
X4.980 Y95.371
X4.980 Y91.082
X5.172 Y91.246
X5.888 Y91.782
X6.481 Y92.161
X6.723 Y92.300
X7.420 Y92.644
X8.076 Y92.907
X8.634 Y93.089
X9.296 Y93.250
X9.569 Y93.302
X10.240 Y93.398
X11.260 Y93.460
X96.020 Y93.460
X96.020 Y95.920
ID=1 WHEN $AC_TIMER[1]>=0 DO M51

; Inicio do trecho do raster
; Final do trecho do raster

; Layer 52
G1 Z74.881 F1000
N4550 M63		;POWDER MIXER OFF
N4560 M67		;POWDER FEED OFF
N4570 M65		;CARRIER OFF
N4580 M79     ;GAS 1 OFF

N4590 M0

N4600 M78     ; GAS 1 ON
N4610 M64		;CARRIER ON
N4620 H2 = R3	;SET POWDER FLOW
N4630 M62		;POWDER MIXER ON
N4640 M66		;POWDER FEED ON
N4650 G4F3

X98.9 Y98.9 F1000
ID=1 WHEN $AC_TIMER[1]>=0 DO M50
X5.546 Y98.900 F300
X5.160 Y98.878
X4.668 Y98.794
X4.450 Y98.737
X4.130 Y98.610
X3.807 Y98.445
X3.494 Y98.239
X3.212 Y98.019
X2.972 Y97.780
X2.752 Y97.506
X2.561 Y97.205
X2.392 Y96.875
X2.265 Y96.548
X2.182 Y96.228
X2.114 Y95.739
X2.100 Y95.459
X2.100 Y2.100
X4.660 Y2.100
X4.663 Y84.072
X4.709 Y84.743
X4.789 Y85.263
X4.829 Y85.451
X5.008 Y86.072
X5.188 Y86.562
X5.265 Y86.738
X5.580 Y87.339
X5.964 Y87.923
X6.409 Y88.461
X6.779 Y88.831
X6.926 Y88.961
X7.439 Y89.356
X8.032 Y89.735
X8.641 Y90.038
X9.121 Y90.228
X9.315 Y90.290
X9.977 Y90.451
X10.648 Y90.547
X11.260 Y90.580
X98.900 Y90.580
X98.900 Y98.800
ID=1 WHEN $AC_TIMER[1]>=0 DO M51
X96.02 Y96.02 F1000
ID=1 WHEN $AC_TIMER[1]>=0 DO M50
X5.629 Y96.020 F300
X5.484 Y96.012
X5.317 Y95.983
X5.119 Y95.853
X5.011 Y95.664
X4.980 Y95.385
X4.980 Y91.082
X5.172 Y91.246
X5.888 Y91.782
X6.481 Y92.161
X6.750 Y92.314
X7.581 Y92.716
X8.234 Y92.968
X8.634 Y93.089
X9.296 Y93.250
X9.569 Y93.302
X10.240 Y93.398
X11.260 Y93.460
X96.020 Y93.460
X96.020 Y95.920
ID=1 WHEN $AC_TIMER[1]>=0 DO M51

; Inicio do trecho do raster
; Final do trecho do raster

; Layer 53
G1 Z76.321 F1000
N4550 M63		;POWDER MIXER OFF
N4560 M67		;POWDER FEED OFF
N4570 M65		;CARRIER OFF
N4580 M79     ;GAS 1 OFF

N4590 M0

N4600 M78     ; GAS 1 ON
N4610 M64		;CARRIER ON
N4620 H2 = R3	;SET POWDER FLOW
N4630 M62		;POWDER MIXER ON
N4640 M66		;POWDER FEED ON
N4650 G4F3

X98.9 Y98.9 F1000
ID=1 WHEN $AC_TIMER[1]>=0 DO M50
X5.546 Y98.900 F300
X5.148 Y98.877
X4.780 Y98.820
X4.444 Y98.735
X4.130 Y98.610
X3.807 Y98.445
X3.494 Y98.239
X3.212 Y98.019
X2.972 Y97.780
X2.772 Y97.531
X2.553 Y97.190
X2.392 Y96.875
X2.265 Y96.548
X2.182 Y96.226
X2.114 Y95.748
X2.100 Y95.460
X2.100 Y2.100
X4.660 Y2.100
X4.663 Y84.072
X4.709 Y84.743
X4.789 Y85.263
X4.829 Y85.451
X5.008 Y86.072
X5.188 Y86.562
X5.265 Y86.738
X5.599 Y87.368
X5.964 Y87.923
X6.409 Y88.461
X6.779 Y88.831
X6.926 Y88.961
X7.439 Y89.356
X8.032 Y89.735
X8.641 Y90.038
X9.121 Y90.228
X9.315 Y90.290
X9.977 Y90.451
X10.648 Y90.547
X11.260 Y90.580
X98.900 Y90.580
X98.900 Y98.800
ID=1 WHEN $AC_TIMER[1]>=0 DO M51
X96.02 Y96.02 F1000
ID=1 WHEN $AC_TIMER[1]>=0 DO M50
X5.629 Y96.020 F300
X5.317 Y95.983
X5.112 Y95.845
X5.011 Y95.662
X4.980 Y95.388
X4.980 Y91.082
X5.172 Y91.246
X5.888 Y91.782
X6.481 Y92.161
X6.750 Y92.314
X7.581 Y92.716
X8.234 Y92.968
X8.634 Y93.089
X9.296 Y93.250
X9.569 Y93.302
X10.240 Y93.398
X11.260 Y93.460
X96.020 Y93.460
X96.020 Y95.920
ID=1 WHEN $AC_TIMER[1]>=0 DO M51

; Inicio do trecho do raster
; Final do trecho do raster

; Layer 54
G1 Z77.761 F1000
N4550 M63		;POWDER MIXER OFF
N4560 M67		;POWDER FEED OFF
N4570 M65		;CARRIER OFF
N4580 M79     ;GAS 1 OFF

N4590 M0

N4600 M78     ; GAS 1 ON
N4610 M64		;CARRIER ON
N4620 H2 = R3	;SET POWDER FLOW
N4630 M62		;POWDER MIXER ON
N4640 M66		;POWDER FEED ON
N4650 G4F3

X98.9 Y98.9 F1000
ID=1 WHEN $AC_TIMER[1]>=0 DO M50
X5.546 Y98.900 F300
X5.148 Y98.877
X4.780 Y98.820
X4.444 Y98.735
X4.130 Y98.610
X3.816 Y98.450
X3.413 Y98.176
X3.212 Y98.019
X2.995 Y97.802
X2.743 Y97.492
X2.561 Y97.205
X2.392 Y96.875
X2.265 Y96.548
X2.182 Y96.226
X2.114 Y95.748
X2.100 Y95.460
X2.100 Y2.100
X4.660 Y2.100
X4.663 Y84.072
X4.709 Y84.743
X4.820 Y85.417
X4.968 Y85.961
X5.188 Y86.561
X5.265 Y86.738
X5.580 Y87.339
X5.860 Y87.779
X5.984 Y87.948
X6.409 Y88.461
X6.779 Y88.831
X6.926 Y88.961
X7.439 Y89.356
X8.032 Y89.735
X8.641 Y90.038
X9.121 Y90.228
X9.315 Y90.290
X9.977 Y90.451
X10.648 Y90.547
X11.260 Y90.580
X98.900 Y90.580
X98.900 Y98.800
ID=1 WHEN $AC_TIMER[1]>=0 DO M51
X96.02 Y96.02 F1000
ID=1 WHEN $AC_TIMER[1]>=0 DO M50
X5.629 Y96.020 F300
X5.317 Y95.983
X5.127 Y95.859
X5.011 Y95.662
X4.980 Y95.388
X4.980 Y91.082
X5.172 Y91.246
X5.888 Y91.782
X6.481 Y92.161
X6.750 Y92.314
X7.581 Y92.716
X8.234 Y92.968
X8.634 Y93.089
X9.296 Y93.250
X9.569 Y93.302
X10.240 Y93.398
X11.260 Y93.460
X96.020 Y93.460
X96.020 Y95.920
ID=1 WHEN $AC_TIMER[1]>=0 DO M51

; Inicio do trecho do raster
; Final do trecho do raster

; Layer 55
G1 Z79.201 F1000
N4550 M63		;POWDER MIXER OFF
N4560 M67		;POWDER FEED OFF
N4570 M65		;CARRIER OFF
N4580 M79     ;GAS 1 OFF

N4590 M0

N4600 M78     ; GAS 1 ON
N4610 M64		;CARRIER ON
N4620 H2 = R3	;SET POWDER FLOW
N4630 M62		;POWDER MIXER ON
N4640 M66		;POWDER FEED ON
N4650 G4F3

X98.9 Y98.9 F1000
ID=1 WHEN $AC_TIMER[1]>=0 DO M50
X5.551 Y98.900 F300
X5.056 Y98.869
X4.793 Y98.824
X4.480 Y98.744
X4.113 Y98.602
X3.816 Y98.450
X3.413 Y98.176
X3.212 Y98.019
X2.972 Y97.780
X2.752 Y97.506
X2.561 Y97.205
X2.392 Y96.875
X2.269 Y96.558
X2.164 Y96.131
X2.115 Y95.764
X2.100 Y95.461
X2.100 Y2.100
X4.660 Y2.100
X4.663 Y84.072
X4.709 Y84.743
X4.789 Y85.263
X4.829 Y85.451
X5.008 Y86.072
X5.188 Y86.562
X5.265 Y86.738
X5.580 Y87.339
X5.964 Y87.923
X6.409 Y88.461
X6.779 Y88.831
X6.926 Y88.961
X7.439 Y89.356
X8.032 Y89.735
X8.502 Y89.975
X9.151 Y90.239
X9.977 Y90.451
X10.648 Y90.547
X11.260 Y90.580
X98.900 Y90.580
X98.900 Y98.800
ID=1 WHEN $AC_TIMER[1]>=0 DO M51
X96.02 Y96.02 F1000
ID=1 WHEN $AC_TIMER[1]>=0 DO M50
X5.642 Y96.020 F300
X5.359 Y95.996
X5.286 Y95.967
X5.119 Y95.853
X5.021 Y95.690
X4.985 Y95.501
X4.980 Y91.082
X5.172 Y91.246
X5.888 Y91.782
X6.481 Y92.161
X6.723 Y92.300
X7.416 Y92.642
X8.065 Y92.907
X8.435 Y93.029
X9.260 Y93.241
X9.569 Y93.302
X10.240 Y93.398
X11.260 Y93.460
X96.020 Y93.460
X96.020 Y95.920
ID=1 WHEN $AC_TIMER[1]>=0 DO M51

; Inicio do trecho do raster
; Final do trecho do raster

; Layer 56
G1 Z80.641 F1000
N4550 M63		;POWDER MIXER OFF
N4560 M67		;POWDER FEED OFF
N4570 M65		;CARRIER OFF
N4580 M79     ;GAS 1 OFF

N4590 M0

N4600 M78     ; GAS 1 ON
N4610 M64		;CARRIER ON
N4620 H2 = R3	;SET POWDER FLOW
N4630 M62		;POWDER MIXER ON
N4640 M66		;POWDER FEED ON
N4650 G4F3

X98.9 Y98.9 F1000
ID=1 WHEN $AC_TIMER[1]>=0 DO M50
X5.551 Y98.900 F300
X5.056 Y98.869
X4.793 Y98.824
X4.456 Y98.738
X4.042 Y98.567
X3.815 Y98.450
X3.423 Y98.186
X3.215 Y98.022
X2.999 Y97.806
X2.747 Y97.496
X2.521 Y97.134
X2.361 Y96.806
X2.270 Y96.564
X2.164 Y96.138
X2.115 Y95.775
X2.100 Y95.462
X2.100 Y2.100
X4.660 Y2.100
X4.663 Y84.072
X4.709 Y84.743
X4.789 Y85.263
X4.829 Y85.451
X5.008 Y86.072
X5.188 Y86.562
X5.265 Y86.738
X5.580 Y87.339
X5.860 Y87.779
X5.987 Y87.952
X6.409 Y88.461
X6.779 Y88.831
X6.926 Y88.961
X7.439 Y89.356
X8.032 Y89.735
X8.641 Y90.038
X9.121 Y90.228
X9.315 Y90.290
X9.977 Y90.451
X10.648 Y90.547
X11.260 Y90.580
X98.900 Y90.580
X98.900 Y98.800
ID=1 WHEN $AC_TIMER[1]>=0 DO M51
X96.02 Y96.02 F1000
ID=1 WHEN $AC_TIMER[1]>=0 DO M50
X5.642 Y96.020 F300
X5.367 Y95.998
X5.271 Y95.958
X5.133 Y95.865
X5.019 Y95.686
X4.986 Y95.514
X4.980 Y91.082
X5.172 Y91.246
X5.888 Y91.782
X6.481 Y92.161
X6.750 Y92.314
X7.581 Y92.716
X8.234 Y92.968
X8.634 Y93.089
X9.296 Y93.250
X9.569 Y93.302
X10.240 Y93.398
X11.260 Y93.460
X96.020 Y93.460
X96.020 Y95.920
ID=1 WHEN $AC_TIMER[1]>=0 DO M51

; Inicio do trecho do raster
; Final do trecho do raster

; Layer 57
G1 Z82.081 F1000
N4550 M63		;POWDER MIXER OFF
N4560 M67		;POWDER FEED OFF
N4570 M65		;CARRIER OFF
N4580 M79     ;GAS 1 OFF

N4590 M0

N4600 M78     ; GAS 1 ON
N4610 M64		;CARRIER ON
N4620 H2 = R3	;SET POWDER FLOW
N4630 M62		;POWDER MIXER ON
N4640 M66		;POWDER FEED ON
N4650 G4F3

X98.9 Y98.9 F1000
ID=1 WHEN $AC_TIMER[1]>=0 DO M50
X5.552 Y98.900 F300
X5.071 Y98.869
X4.712 Y98.806
X4.449 Y98.737
X4.140 Y98.614
X3.739 Y98.403
X3.497 Y98.242
X3.212 Y98.019
X2.972 Y97.780
X2.752 Y97.506
X2.561 Y97.205
X2.392 Y96.875
X2.268 Y96.555
X2.163 Y96.136
X2.115 Y95.784
X2.100 Y95.463
X2.100 Y2.100
X4.660 Y2.100
X4.663 Y84.072
X4.709 Y84.743
X4.789 Y85.263
X4.829 Y85.451
X5.008 Y86.072
X5.188 Y86.562
X5.265 Y86.738
X5.580 Y87.339
X5.964 Y87.923
X6.409 Y88.461
X6.779 Y88.831
X6.926 Y88.961
X7.439 Y89.356
X8.032 Y89.735
X8.641 Y90.038
X9.121 Y90.228
X9.315 Y90.290
X9.977 Y90.451
X10.648 Y90.547
X11.260 Y90.580
X98.900 Y90.580
X98.900 Y98.800
ID=1 WHEN $AC_TIMER[1]>=0 DO M51
X96.02 Y96.02 F1000
ID=1 WHEN $AC_TIMER[1]>=0 DO M50
X5.644 Y96.020 F300
X5.342 Y95.992
X5.184 Y95.905
X5.096 Y95.825
X5.018 Y95.682
X4.986 Y95.521
X4.980 Y91.082
X5.172 Y91.246
X5.888 Y91.782
X6.481 Y92.161
X6.750 Y92.314
X7.581 Y92.716
X8.234 Y92.968
X8.634 Y93.089
X9.296 Y93.250
X9.569 Y93.302
X10.240 Y93.398
X11.260 Y93.460
X96.020 Y93.460
X96.020 Y95.920
ID=1 WHEN $AC_TIMER[1]>=0 DO M51

; Inicio do trecho do raster
; Final do trecho do raster

; Layer 58
G1 Z83.521 F1000
N4550 M63		;POWDER MIXER OFF
N4560 M67		;POWDER FEED OFF
N4570 M65		;CARRIER OFF
N4580 M79     ;GAS 1 OFF

N4590 M0

N4600 M78     ; GAS 1 ON
N4610 M64		;CARRIER ON
N4620 H2 = R3	;SET POWDER FLOW
N4630 M62		;POWDER MIXER ON
N4640 M66		;POWDER FEED ON
N4650 G4F3

X98.9 Y98.9 F1000
ID=1 WHEN $AC_TIMER[1]>=0 DO M50
X5.471 Y98.900 F300
X5.088 Y98.871
X4.710 Y98.805
X4.459 Y98.739
X4.071 Y98.580
X3.745 Y98.407
X3.436 Y98.198
X3.217 Y98.024
X2.972 Y97.780
X2.777 Y97.537
X2.553 Y97.190
X2.392 Y96.875
X2.267 Y96.552
X2.163 Y96.145
X2.115 Y95.786
X2.100 Y95.463
X2.100 Y2.100
X4.660 Y2.100
X4.663 Y84.072
X4.709 Y84.743
X4.789 Y85.263
X4.829 Y85.451
X5.008 Y86.072
X5.188 Y86.562
X5.265 Y86.738
X5.599 Y87.368
X5.805 Y87.677
X5.864 Y87.784
X6.294 Y88.333
X6.779 Y88.831
X6.926 Y88.961
X7.439 Y89.356
X8.032 Y89.735
X8.641 Y90.038
X9.121 Y90.228
X9.315 Y90.290
X9.977 Y90.451
X10.648 Y90.547
X11.260 Y90.580
X98.900 Y90.580
X98.900 Y98.800
ID=1 WHEN $AC_TIMER[1]>=0 DO M51
X96.02 Y96.02 F1000
ID=1 WHEN $AC_TIMER[1]>=0 DO M50
X5.582 Y96.020 F300
X5.355 Y95.994
X5.231 Y95.935
X5.115 Y95.848
X5.015 Y95.673
X4.986 Y95.526
X4.980 Y91.082
X5.172 Y91.246
X5.888 Y91.782
X6.481 Y92.161
X6.750 Y92.314
X7.581 Y92.716
X8.234 Y92.968
X8.634 Y93.089
X9.296 Y93.250
X9.569 Y93.302
X10.240 Y93.398
X11.260 Y93.460
X96.020 Y93.460
X96.020 Y95.920
ID=1 WHEN $AC_TIMER[1]>=0 DO M51

; Inicio do trecho do raster
; Final do trecho do raster

; Layer 59
G1 Z84.961 F1000
N4550 M63		;POWDER MIXER OFF
N4560 M67		;POWDER FEED OFF
N4570 M65		;CARRIER OFF
N4580 M79     ;GAS 1 OFF

N4590 M0

N4600 M78     ; GAS 1 ON
N4610 M64		;CARRIER ON
N4620 H2 = R3	;SET POWDER FLOW
N4630 M62		;POWDER MIXER ON
N4640 M66		;POWDER FEED ON
N4650 G4F3

X98.9 Y98.9 F1000
ID=1 WHEN $AC_TIMER[1]>=0 DO M50
X5.481 Y98.900 F300
X5.098 Y98.871
X4.715 Y98.804
X4.455 Y98.738
X4.065 Y98.578
X3.761 Y98.419
X3.447 Y98.200
X3.209 Y98.016
X2.972 Y97.780
X2.755 Y97.510
X2.530 Y97.151
X2.373 Y96.831
X2.250 Y96.495
X2.180 Y96.222
X2.115 Y95.785
X2.100 Y95.464
X2.100 Y2.100
X4.660 Y2.100
X4.663 Y84.072
X4.709 Y84.743
X4.820 Y85.417
X4.982 Y86.012
X5.265 Y86.738
X5.580 Y87.339
X5.964 Y87.923
X6.409 Y88.461
X6.779 Y88.831
X6.926 Y88.961
X7.439 Y89.356
X8.032 Y89.735
X8.641 Y90.038
X9.121 Y90.228
X9.315 Y90.290
X9.977 Y90.451
X10.648 Y90.547
X11.260 Y90.580
X98.900 Y90.580
X98.900 Y98.800
ID=1 WHEN $AC_TIMER[1]>=0 DO M51
X96.02 Y96.02 F1000
ID=1 WHEN $AC_TIMER[1]>=0 DO M50
X5.592 Y96.020 F300
X5.348 Y95.991
X5.257 Y95.951
X5.105 Y95.836
X5.006 Y95.645
X4.980 Y95.398
X4.980 Y91.082
X5.172 Y91.246
X5.888 Y91.782
X6.481 Y92.161
X6.750 Y92.314
X7.581 Y92.716
X8.234 Y92.968
X8.634 Y93.089
X9.296 Y93.250
X9.569 Y93.302
X10.240 Y93.398
X11.260 Y93.460
X96.020 Y93.460
X96.020 Y95.920
ID=1 WHEN $AC_TIMER[1]>=0 DO M51

; Inicio do trecho do raster
; Final do trecho do raster

; Layer 60
G1 Z86.401 F1000
N4550 M63		;POWDER MIXER OFF
N4560 M67		;POWDER FEED OFF
N4570 M65		;CARRIER OFF
N4580 M79     ;GAS 1 OFF

N4590 M0

N4600 M78     ; GAS 1 ON
N4610 M64		;CARRIER ON
N4620 H2 = R3	;SET POWDER FLOW
N4630 M62		;POWDER MIXER ON
N4640 M66		;POWDER FEED ON
N4650 G4F3

X98.9 Y98.9 F1000
ID=1 WHEN $AC_TIMER[1]>=0 DO M50
X5.490 Y98.900 F300
X5.100 Y98.871
X4.724 Y98.804
X4.441 Y98.733
X4.140 Y98.614
X3.756 Y98.411
X3.442 Y98.205
X3.219 Y98.026
X2.978 Y97.786
X2.718 Y97.455
X2.562 Y97.207
X2.392 Y96.875
X2.269 Y96.558
X2.171 Y96.157
X2.115 Y95.792
X2.100 Y95.464
X2.100 Y2.100
X4.660 Y2.100
X4.663 Y84.072
X4.709 Y84.743
X4.789 Y85.263
X4.829 Y85.451
X5.008 Y86.072
X5.188 Y86.562
X5.265 Y86.738
X5.580 Y87.339
X5.964 Y87.923
X6.409 Y88.461
X6.779 Y88.831
X6.926 Y88.961
X7.439 Y89.356
X8.032 Y89.735
X8.641 Y90.038
X9.121 Y90.228
X9.315 Y90.290
X9.977 Y90.451
X10.648 Y90.547
X11.260 Y90.580
X98.900 Y90.580
X98.900 Y98.800
ID=1 WHEN $AC_TIMER[1]>=0 DO M51
X96.02 Y96.02 F1000
ID=1 WHEN $AC_TIMER[1]>=0 DO M50
X5.599 Y96.020 F300
X5.332 Y95.987
X5.136 Y95.870
X5.067 Y95.781
X5.022 Y95.690
X4.985 Y95.509
X4.980 Y91.082
X5.172 Y91.246
X5.888 Y91.782
X6.481 Y92.161
X6.750 Y92.314
X7.581 Y92.716
X8.234 Y92.968
X8.634 Y93.089
X9.296 Y93.250
X9.569 Y93.302
X10.240 Y93.398
X11.260 Y93.460
X96.020 Y93.460
X96.020 Y95.920
ID=1 WHEN $AC_TIMER[1]>=0 DO M51

; Inicio do trecho do raster
; Final do trecho do raster

; Layer 61
G1 Z87.841 F1000
N4550 M63		;POWDER MIXER OFF
N4560 M67		;POWDER FEED OFF
N4570 M65		;CARRIER OFF
N4580 M79     ;GAS 1 OFF

N4590 M0

N4600 M78     ; GAS 1 ON
N4610 M64		;CARRIER ON
N4620 H2 = R3	;SET POWDER FLOW
N4630 M62		;POWDER MIXER ON
N4640 M66		;POWDER FEED ON
N4650 G4F3

X98.9 Y98.9 F1000
ID=1 WHEN $AC_TIMER[1]>=0 DO M50
X5.491 Y98.900 F300
X5.108 Y98.871
X4.721 Y98.804
X4.448 Y98.735
X4.089 Y98.589
X3.765 Y98.417
X3.450 Y98.204
X3.211 Y98.018
X2.972 Y97.780
X2.758 Y97.513
X2.534 Y97.152
X2.392 Y96.874
X2.269 Y96.558
X2.170 Y96.155
X2.115 Y95.801
X2.100 Y95.465
X2.100 Y2.100
X4.660 Y2.100
X4.663 Y84.072
X4.709 Y84.743
X4.789 Y85.263
X4.829 Y85.451
X5.008 Y86.072
X5.188 Y86.562
X5.265 Y86.738
X5.580 Y87.339
X5.964 Y87.923
X6.409 Y88.461
X6.779 Y88.831
X6.926 Y88.961
X7.439 Y89.356
X8.032 Y89.735
X8.641 Y90.038
X9.121 Y90.228
X9.315 Y90.290
X9.977 Y90.451
X10.648 Y90.547
X11.260 Y90.580
X98.900 Y90.580
X98.900 Y98.800
ID=1 WHEN $AC_TIMER[1]>=0 DO M51
X96.02 Y96.02 F1000
ID=1 WHEN $AC_TIMER[1]>=0 DO M50
X5.602 Y96.020 F300
X5.312 Y95.977
X5.113 Y95.845
X5.022 Y95.690
X4.985 Y95.514
X4.980 Y91.082
X5.172 Y91.246
X5.888 Y91.782
X6.481 Y92.161
X6.750 Y92.314
X7.581 Y92.716
X8.234 Y92.968
X8.634 Y93.089
X9.296 Y93.250
X9.569 Y93.302
X10.240 Y93.398
X11.260 Y93.460
X96.020 Y93.460
X96.020 Y95.920
ID=1 WHEN $AC_TIMER[1]>=0 DO M51

; Inicio do trecho do raster
; Final do trecho do raster

; Layer 62
G1 Z89.281 F1000
N4550 M63		;POWDER MIXER OFF
N4560 M67		;POWDER FEED OFF
N4570 M65		;CARRIER OFF
N4580 M79     ;GAS 1 OFF

N4590 M0

N4600 M78     ; GAS 1 ON
N4610 M64		;CARRIER ON
N4620 H2 = R3	;SET POWDER FLOW
N4630 M62		;POWDER MIXER ON
N4640 M66		;POWDER FEED ON
N4650 G4F3

X98.9 Y98.9 F1000
ID=1 WHEN $AC_TIMER[1]>=0 DO M50
X5.501 Y98.900 F300
X5.103 Y98.869
X4.729 Y98.812
X4.478 Y98.738
X4.071 Y98.580
X3.762 Y98.419
X3.454 Y98.216
X3.221 Y98.028
X2.972 Y97.780
X2.753 Y97.508
X2.539 Y97.168
X2.383 Y96.851
X2.260 Y96.515
X2.170 Y96.160
X2.115 Y95.803
X2.100 Y95.465
X2.100 Y2.100
X4.660 Y2.100
X4.663 Y84.072
X4.709 Y84.743
X4.789 Y85.263
X4.829 Y85.451
X5.008 Y86.072
X5.188 Y86.562
X5.265 Y86.738
X5.580 Y87.339
X5.860 Y87.779
X5.981 Y87.944
X6.409 Y88.461
X6.779 Y88.831
X6.926 Y88.961
X7.439 Y89.356
X8.032 Y89.735
X8.672 Y90.050
X9.094 Y90.217
X9.315 Y90.290
X9.977 Y90.451
X10.648 Y90.547
X11.260 Y90.580
X98.900 Y90.580
X98.900 Y98.800
ID=1 WHEN $AC_TIMER[1]>=0 DO M51
X96.02 Y96.02 F1000
ID=1 WHEN $AC_TIMER[1]>=0 DO M50
X5.612 Y96.020 F300
X5.377 Y95.998
X5.225 Y95.934
X5.100 Y95.829
X5.014 Y95.661
X4.985 Y95.521
X4.980 Y91.082
X5.172 Y91.246
X5.888 Y91.782
X6.481 Y92.161
X6.761 Y92.319
X7.612 Y92.727
X8.182 Y92.949
X8.634 Y93.089
X9.296 Y93.250
X9.569 Y93.302
X10.240 Y93.398
X11.260 Y93.460
X96.020 Y93.460
X96.020 Y95.920
ID=1 WHEN $AC_TIMER[1]>=0 DO M51

; Inicio do trecho do raster
; Final do trecho do raster

; Layer 63
G1 Z90.721 F1000
N4550 M63		;POWDER MIXER OFF
N4560 M67		;POWDER FEED OFF
N4570 M65		;CARRIER OFF
N4580 M79     ;GAS 1 OFF

N4590 M0

N4600 M78     ; GAS 1 ON
N4610 M64		;CARRIER ON
N4620 H2 = R3	;SET POWDER FLOW
N4630 M62		;POWDER MIXER ON
N4640 M66		;POWDER FEED ON
N4650 G4F3

X98.9 Y98.9 F1000
ID=1 WHEN $AC_TIMER[1]>=0 DO M50
X5.511 Y98.900 F300
X5.113 Y98.869
X4.734 Y98.811
X4.448 Y98.736
X4.141 Y98.615
X3.776 Y98.422
X3.455 Y98.210
X3.221 Y98.026
X2.947 Y97.745
X2.751 Y97.504
X2.561 Y97.205
X2.381 Y96.853
X2.260 Y96.517
X2.169 Y96.166
X2.115 Y95.814
X2.100 Y95.466
X2.100 Y2.100
X4.660 Y2.100
X4.663 Y84.072
X4.709 Y84.743
X4.789 Y85.263
X4.829 Y85.451
X5.008 Y86.072
X5.188 Y86.562
X5.265 Y86.738
X5.580 Y87.339
X5.964 Y87.923
X6.409 Y88.461
X6.779 Y88.831
X6.926 Y88.961
X7.439 Y89.356
X8.032 Y89.735
X8.641 Y90.038
X9.121 Y90.228
X9.315 Y90.290
X9.977 Y90.451
X10.648 Y90.547
X11.260 Y90.580
X98.900 Y90.580
X98.900 Y98.800
ID=1 WHEN $AC_TIMER[1]>=0 DO M51
X96.02 Y96.02 F1000
ID=1 WHEN $AC_TIMER[1]>=0 DO M50
X5.622 Y96.020 F300
X5.339 Y95.990
X5.145 Y95.875
X5.064 Y95.775
X5.014 Y95.665
X4.985 Y95.533
X4.980 Y91.082
X5.172 Y91.246
X5.888 Y91.782
X6.481 Y92.161
X6.750 Y92.314
X7.581 Y92.716
X8.234 Y92.968
X8.634 Y93.089
X9.296 Y93.250
X9.569 Y93.302
X10.240 Y93.398
X11.260 Y93.460
X96.020 Y93.460
X96.020 Y95.920
ID=1 WHEN $AC_TIMER[1]>=0 DO M51

; Inicio do trecho do raster
; Final do trecho do raster

; Layer 64
G1 Z92.161 F1000
N4550 M63		;POWDER MIXER OFF
N4560 M67		;POWDER FEED OFF
N4570 M65		;CARRIER OFF
N4580 M79     ;GAS 1 OFF

N4590 M0

N4600 M78     ; GAS 1 ON
N4610 M64		;CARRIER ON
N4620 H2 = R3	;SET POWDER FLOW
N4630 M62		;POWDER MIXER ON
N4640 M66		;POWDER FEED ON
N4650 G4F3

X98.9 Y98.9 F1000
ID=1 WHEN $AC_TIMER[1]>=0 DO M50
X5.505 Y98.900 F300
X5.115 Y98.878
X4.757 Y98.815
X4.450 Y98.736
X4.095 Y98.593
X3.774 Y98.429
X3.474 Y98.227
X3.215 Y98.022
X2.981 Y97.788
X2.756 Y97.510
X2.543 Y97.170
X2.395 Y96.881
X2.257 Y96.515
X2.169 Y96.176
X2.115 Y95.825
X2.100 Y95.467
X2.100 Y2.100
X4.660 Y2.100
X4.663 Y84.072
X4.709 Y84.743
X4.822 Y85.424
X4.993 Y86.045
X5.265 Y86.738
X5.580 Y87.339
X5.860 Y87.779
X5.984 Y87.948
X6.409 Y88.461
X6.779 Y88.831
X6.926 Y88.961
X7.439 Y89.356
X8.032 Y89.735
X8.641 Y90.038
X9.121 Y90.228
X9.315 Y90.290
X9.977 Y90.451
X10.648 Y90.547
X11.260 Y90.580
X98.900 Y90.580
X98.900 Y98.800
ID=1 WHEN $AC_TIMER[1]>=0 DO M51
X96.02 Y96.02 F1000
ID=1 WHEN $AC_TIMER[1]>=0 DO M50
X5.448 Y96.012 F300
X5.291 Y95.970
X5.104 Y95.834
X5.033 Y95.713
X4.986 Y95.545
X4.980 Y91.082
X5.172 Y91.246
X5.888 Y91.782
X6.481 Y92.161
X6.750 Y92.314
X7.581 Y92.716
X8.234 Y92.968
X8.634 Y93.089
X9.296 Y93.250
X9.569 Y93.302
X10.240 Y93.398
X11.260 Y93.460
X96.020 Y93.460
X96.020 Y95.920
ID=1 WHEN $AC_TIMER[1]>=0 DO M51

; Inicio do trecho do raster
; Final do trecho do raster

; Layer 65
G1 Z93.601 F1000
N4550 M63		;POWDER MIXER OFF
N4560 M67		;POWDER FEED OFF
N4570 M65		;CARRIER OFF
N4580 M79     ;GAS 1 OFF

N4590 M0

N4600 M78     ; GAS 1 ON
N4610 M64		;CARRIER ON
N4620 H2 = R3	;SET POWDER FLOW
N4630 M62		;POWDER MIXER ON
N4640 M66		;POWDER FEED ON
N4650 G4F3

X98.9 Y98.9 F1000
ID=1 WHEN $AC_TIMER[1]>=0 DO M50
X5.506 Y98.900 F300
X5.123 Y98.878
X4.755 Y98.814
X4.450 Y98.736
X4.101 Y98.596
X3.782 Y98.429
X3.468 Y98.222
X3.223 Y98.029
X2.959 Y97.757
X2.732 Y97.476
X2.548 Y97.186
X2.386 Y96.856
X2.265 Y96.546
X2.172 Y96.189
X2.123 Y95.832
X2.100 Y95.451
X2.100 Y2.100
X4.660 Y2.100
X4.663 Y84.072
X4.709 Y84.743
X4.789 Y85.263
X4.829 Y85.451
X5.008 Y86.072
X5.188 Y86.562
X5.265 Y86.738
X5.580 Y87.339
X5.964 Y87.923
X6.409 Y88.461
X6.779 Y88.831
X6.926 Y88.961
X7.439 Y89.356
X8.032 Y89.735
X8.641 Y90.038
X9.121 Y90.228
X9.315 Y90.290
X9.977 Y90.451
X10.648 Y90.547
X11.260 Y90.580
X98.900 Y90.580
X98.900 Y98.800
ID=1 WHEN $AC_TIMER[1]>=0 DO M51
X96.02 Y96.02 F1000
ID=1 WHEN $AC_TIMER[1]>=0 DO M50
X5.453 Y96.012 F300
X5.309 Y95.977
X5.154 Y95.884
X5.064 Y95.776
X5.003 Y95.630
X4.980 Y95.363
X4.980 Y91.082
X5.172 Y91.246
X5.888 Y91.782
X6.481 Y92.161
X6.750 Y92.314
X7.581 Y92.716
X8.234 Y92.968
X8.634 Y93.089
X9.296 Y93.250
X9.569 Y93.302
X10.240 Y93.398
X11.260 Y93.460
X96.020 Y93.460
X96.020 Y95.920
ID=1 WHEN $AC_TIMER[1]>=0 DO M51

; Inicio do trecho do raster
; Final do trecho do raster

; Layer 66
G1 Z95.041 F1000
N4550 M63		;POWDER MIXER OFF
N4560 M67		;POWDER FEED OFF
N4570 M65		;CARRIER OFF
N4580 M79     ;GAS 1 OFF

N4590 M0

N4600 M78     ; GAS 1 ON
N4610 M64		;CARRIER ON
N4620 H2 = R3	;SET POWDER FLOW
N4630 M62		;POWDER MIXER ON
N4640 M66		;POWDER FEED ON
N4650 G4F3

X98.9 Y98.9 F1000
ID=1 WHEN $AC_TIMER[1]>=0 DO M50
X5.516 Y98.900 F300
X5.133 Y98.878
X4.761 Y98.813
X4.508 Y98.748
X4.088 Y98.585
X3.797 Y98.440
X3.477 Y98.231
X3.217 Y98.024
X2.994 Y97.789
X2.750 Y97.500
X2.552 Y97.179
X2.386 Y96.861
X2.265 Y96.532
X2.171 Y96.190
X2.123 Y95.834
X2.100 Y95.451
X2.100 Y2.100
X4.660 Y2.100
X4.663 Y84.072
X4.709 Y84.743
X4.789 Y85.263
X4.829 Y85.451
X5.008 Y86.072
X5.188 Y86.562
X5.265 Y86.738
X5.580 Y87.339
X5.860 Y87.779
X5.986 Y87.951
X6.409 Y88.461
X6.779 Y88.831
X6.926 Y88.961
X7.439 Y89.356
X8.032 Y89.735
X8.502 Y89.975
X9.046 Y90.196
X9.315 Y90.290
X9.977 Y90.451
X10.648 Y90.547
X11.260 Y90.580
X98.900 Y90.580
X98.900 Y98.800
ID=1 WHEN $AC_TIMER[1]>=0 DO M51
X96.02 Y96.02 F1000
ID=1 WHEN $AC_TIMER[1]>=0 DO M50
X5.463 Y96.012 F300
X5.383 Y95.998
X5.233 Y95.938
X5.141 Y95.868
X5.026 Y95.694
X4.992 Y95.554
X4.980 Y95.363
X4.980 Y91.082
X5.172 Y91.246
X5.888 Y91.782
X6.481 Y92.161
X6.723 Y92.300
X7.419 Y92.643
X8.088 Y92.912
X8.634 Y93.089
X9.296 Y93.250
X9.569 Y93.302
X10.240 Y93.398
X11.260 Y93.460
X96.020 Y93.460
X96.020 Y95.920
ID=1 WHEN $AC_TIMER[1]>=0 DO M51

; Inicio do trecho do raster
; Final do trecho do raster

; Layer 67
G1 Z96.481 F1000
N4550 M63		;POWDER MIXER OFF
N4560 M67		;POWDER FEED OFF
N4570 M65		;CARRIER OFF
N4580 M79     ;GAS 1 OFF

N4590 M0

N4600 M78     ; GAS 1 ON
N4610 M64		;CARRIER ON
N4620 H2 = R3	;SET POWDER FLOW
N4630 M62		;POWDER MIXER ON
N4640 M66		;POWDER FEED ON
N4650 G4F3

X98.9 Y98.9 F1000
ID=1 WHEN $AC_TIMER[1]>=0 DO M50
X5.526 Y98.900 F300
X5.128 Y98.877
X4.775 Y98.823
X4.438 Y98.730
X4.110 Y98.600
X3.787 Y98.435
X3.480 Y98.233
X3.225 Y98.031
X2.969 Y97.768
X2.742 Y97.486
X2.551 Y97.185
X2.389 Y96.868
X2.269 Y96.542
X2.179 Y96.196
X2.123 Y95.830
X2.100 Y95.452
X2.100 Y2.100
X4.660 Y2.100
X4.663 Y84.072
X4.709 Y84.743
X4.789 Y85.263
X4.829 Y85.451
X5.008 Y86.072
X5.188 Y86.562
X5.265 Y86.738
X5.580 Y87.339
X5.964 Y87.923
X6.409 Y88.461
X6.779 Y88.831
X6.926 Y88.961
X7.439 Y89.356
X8.032 Y89.735
X8.641 Y90.038
X9.121 Y90.228
X9.315 Y90.290
X9.977 Y90.451
X10.648 Y90.547
X11.260 Y90.580
X98.900 Y90.580
X98.900 Y98.800
ID=1 WHEN $AC_TIMER[1]>=0 DO M51
X96.02 Y96.02 F1000
ID=1 WHEN $AC_TIMER[1]>=0 DO M50
X5.609 Y96.020 F300
X5.352 Y95.995
X5.160 Y95.890
X5.021 Y95.681
X4.990 Y95.524
X4.980 Y95.366
X4.980 Y91.082
X5.172 Y91.246
X5.888 Y91.782
X6.481 Y92.161
X6.750 Y92.314
X7.581 Y92.716
X8.234 Y92.968
X8.634 Y93.089
X9.296 Y93.250
X9.569 Y93.302
X10.240 Y93.398
X11.260 Y93.460
X96.020 Y93.460
X96.020 Y95.920
ID=1 WHEN $AC_TIMER[1]>=0 DO M51

; Inicio do trecho do raster
; Final do trecho do raster

; Layer 68
G1 Z97.921 F1000
N4550 M63		;POWDER MIXER OFF
N4560 M67		;POWDER FEED OFF
N4570 M65		;CARRIER OFF
N4580 M79     ;GAS 1 OFF

N4590 M0

N4600 M78     ; GAS 1 ON
N4610 M64		;CARRIER ON
N4620 H2 = R3	;SET POWDER FLOW
N4630 M62		;POWDER MIXER ON
N4640 M66		;POWDER FEED ON
N4650 G4F3

X98.9 Y98.9 F1000
ID=1 WHEN $AC_TIMER[1]>=0 DO M50
X5.535 Y98.900 F300
X5.130 Y98.877
X4.787 Y98.823
X4.442 Y98.729
X4.111 Y98.600
X3.791 Y98.433
X3.484 Y98.238
X3.219 Y98.024
X2.971 Y97.770
X2.745 Y97.488
X2.552 Y97.195
X2.397 Y96.878
X2.265 Y96.538
X2.179 Y96.206
X2.123 Y95.841
X2.100 Y95.453
X2.100 Y2.100
X4.660 Y2.100
X4.663 Y84.072
X4.709 Y84.743
X4.789 Y85.263
X4.829 Y85.451
X5.008 Y86.072
X5.188 Y86.562
X5.265 Y86.738
X5.580 Y87.339
X5.964 Y87.923
X6.409 Y88.461
X6.779 Y88.831
X6.926 Y88.961
X7.439 Y89.356
X8.032 Y89.735
X8.641 Y90.038
X9.121 Y90.228
X9.315 Y90.290
X9.967 Y90.450
X10.631 Y90.548
X11.260 Y90.580
X98.900 Y90.580
X98.900 Y98.800
ID=1 WHEN $AC_TIMER[1]>=0 DO M51
X96.02 Y96.02 F1000
ID=1 WHEN $AC_TIMER[1]>=0 DO M50
X5.617 Y96.020 F300
X5.346 Y95.990
X5.160 Y95.890
X5.058 Y95.764
X5.003 Y95.623
X4.980 Y95.368
X4.980 Y91.082
X5.172 Y91.246
X5.888 Y91.782
X6.481 Y92.161
X6.750 Y92.314
X7.581 Y92.716
X8.234 Y92.968
X8.631 Y93.088
X9.283 Y93.248
X9.548 Y93.299
X10.212 Y93.397
X10.483 Y93.424
X11.260 Y93.460
X96.020 Y93.460
X96.020 Y95.920
ID=1 WHEN $AC_TIMER[1]>=0 DO M51

; Inicio do trecho do raster
; Final do trecho do raster

; Layer 69
G1 Z99.361 F1000
N4550 M63		;POWDER MIXER OFF
N4560 M67		;POWDER FEED OFF
N4570 M65		;CARRIER OFF
N4580 M79     ;GAS 1 OFF

N4590 M0

N4600 M78     ; GAS 1 ON
N4610 M64		;CARRIER ON
N4620 H2 = R3	;SET POWDER FLOW
N4630 M62		;POWDER MIXER ON
N4640 M66		;POWDER FEED ON
N4650 G4F3

X98.9 Y98.9 F1000
ID=1 WHEN $AC_TIMER[1]>=0 DO M50
X5.536 Y98.900 F300
X5.138 Y98.877
X4.774 Y98.821
X4.520 Y98.755
X4.102 Y98.593
X3.793 Y98.442
X3.511 Y98.251
X3.220 Y98.018
X2.972 Y97.770
X2.752 Y97.496
X2.557 Y97.189
X2.390 Y96.869
X2.267 Y96.551
X2.179 Y96.208
X2.123 Y95.850
X2.100 Y95.454
X2.100 Y2.100
X4.660 Y2.100
X4.663 Y84.072
X4.709 Y84.743
X4.821 Y85.423
X4.951 Y85.923
X5.188 Y86.562
X5.265 Y86.738
X5.580 Y87.339
X5.964 Y87.923
X6.409 Y88.461
X6.779 Y88.831
X6.926 Y88.961
X7.439 Y89.356
X8.032 Y89.735
X8.668 Y90.048
X9.315 Y90.290
X9.977 Y90.451
X10.648 Y90.547
X11.260 Y90.580
X98.900 Y90.580
X98.900 Y98.800
ID=1 WHEN $AC_TIMER[1]>=0 DO M51
X96.02 Y96.02 F1000
ID=1 WHEN $AC_TIMER[1]>=0 DO M50
X5.619 Y96.020 F300
X5.384 Y96.001
X5.222 Y95.931
X5.096 Y95.815
X5.015 Y95.672
X4.990 Y95.543
X4.980 Y95.371
X4.980 Y91.082
X5.172 Y91.246
X5.888 Y91.782
X6.481 Y92.161
X6.760 Y92.319
X7.396 Y92.632
X7.658 Y92.745
X8.304 Y92.987
X8.634 Y93.089
X9.296 Y93.250
X9.569 Y93.302
X10.240 Y93.398
X11.260 Y93.460
X96.020 Y93.460
X96.020 Y95.920
ID=1 WHEN $AC_TIMER[1]>=0 DO M51

; Inicio do trecho do raster
; Final do trecho do raster

N4550 M63		;POWDER MIXER OFF
N4560 M67		;POWDER FEED OFF
N4570 M65		;CARRIER OFF

; End of Programm--------------------
G4F5
M79        ;GAS 1 OFF
M55   ; home mirror
M30   ; program end