; Generated by RP3 on 2021-02-3
; Job 0 - LMD

; General Config.--------------------
N100 $ac_timer[1]=0
N110 G91   ; relative positioning
N120 G641  ;
N130 G603  ;


N140 R0 = 0    ; Laser Power 
N150 R3 = 0    ; Powder feed rate

N160 M55   ; home mirror
N170 G4F4  ; necessary delay for positioning of the mirror
N180 M0    ; wait for user-input

; Process Start-up--------------------
N190 M56   ; set canal 1 as laser-source
N200 G4F4  ; necessary delay for positioning of the mirror
N210 M78           	    ;GAS 1 ON
N220 M0    ; wait for user-input
; START POWDER!!!

N230 G54
N240 G90   ; use absolute coordinates

	
; Layer 1
N250 G1 X0 Y0 Z0 F1000
N260 G1 Z1.440 F1000
N270 X99.06 Y141.85 F1000
N280 ID=1 WHEN $AC_TIMER[1]>=0 DO M88
N290 X5.528 Y141.850 F300
N300 X5.131 Y141.835
N310 X4.761 Y141.771
N320 X4.395 Y141.677
N330 X4.064 Y141.546
N340 X3.716 Y141.368
N350 X3.401 Y141.168
N360 X3.113 Y140.937
N370 X2.853 Y140.677
N380 X2.622 Y140.389
N390 X2.418 Y140.069
N400 X2.250 Y139.746
N410 X2.097 Y139.334
N420 X2.022 Y139.040
N430 X1.964 Y138.667
N440 X1.940 Y138.249
N450 X1.940 Y44.730
N460 X4.820 Y44.730
N470 X4.822 Y126.863
N480 X4.867 Y127.519
N490 X4.983 Y128.208
N500 X5.158 Y128.817
N510 X5.408 Y129.465
N520 X5.723 Y130.066
N530 X6.102 Y130.629
N540 X6.532 Y131.138
N550 X7.004 Y131.601
N560 X7.404 Y131.931
N570 X7.547 Y132.035
N580 X8.105 Y132.382
N590 X8.709 Y132.683
N600 X9.358 Y132.924
N610 X9.974 Y133.079
N620 X10.494 Y133.169
N630 X10.685 Y133.189
N640 X11.260 Y133.210
N650 X99.060 Y133.210
N660 X99.060 Y141.750
N670 ID=1 WHEN $AC_TIMER[1]>=0 DO M89
N680 X119.4 Y121.85 F1000
N690 ID=1 WHEN $AC_TIMER[1]>=0 DO M88
N700 X116.520 Y121.850 F300
N710 X116.519 Y38.961
N720 X116.499 Y38.544
N730 X116.418 Y37.897
N740 X116.340 Y37.496
N750 X116.233 Y37.116
N760 X116.008 Y36.510
N770 X115.846 Y36.154
N780 X115.640 Y35.789
N790 X115.269 Y35.254
N800 X114.985 Y34.919
N810 X114.523 Y34.473
N820 X114.237 Y34.235
N830 X113.919 Y34.010
N840 X113.258 Y33.638
N850 X112.671 Y33.399
N860 X112.301 Y33.276
N870 X111.903 Y33.179
N880 X111.194 Y33.072
N890 X110.540 Y33.040
N900 X21.940 Y33.040
N910 X21.940 Y24.400
N920 X116.273 Y24.400
N930 X116.736 Y24.424
N940 X117.305 Y24.535
N950 X117.659 Y24.665
N960 X117.961 Y24.820
N970 X118.118 Y24.915
N980 X118.533 Y25.253
N990 X118.764 Y25.517
N1000 X118.975 Y25.834
N1010 X119.128 Y26.133
N1020 X119.256 Y26.496
N1030 X119.348 Y26.883
N1040 X119.393 Y27.302
N1050 X119.400 Y121.750
N1060 ID=1 WHEN $AC_TIMER[1]>=0 DO M89
N1070 X96.18 Y138.97 F1000
N1080 ID=1 WHEN $AC_TIMER[1]>=0 DO M88
N1090 X5.433 Y138.964 F300
N1100 X5.251 Y138.919
N1110 X5.040 Y138.791
N1120 X4.966 Y138.708
N1130 X4.887 Y138.576
N1140 X4.846 Y138.460
N1150 X4.820 Y138.168
N1160 X4.820 Y133.486
N1170 X5.171 Y133.822
N1180 X5.854 Y134.365
N1190 X6.583 Y134.827
N1200 X6.824 Y134.962
N1210 X7.428 Y135.262
N1220 X7.706 Y135.382
N1230 X8.354 Y135.623
N1240 X8.655 Y135.717
N1250 X9.483 Y135.917
N1260 X10.193 Y136.033
N1270 X10.579 Y136.067
N1280 X11.260 Y136.090
N1290 X96.180 Y136.090
N1300 X96.180 Y138.870
N1310 ID=1 WHEN $AC_TIMER[1]>=0 DO M89
N1320 X116.513 Y32.3996 F1000
N1330 ID=1 WHEN $AC_TIMER[1]>=0 DO M88
N1340 X116.363 Y32.258 F300
N1350 X115.902 Y31.885
N1360 X115.584 Y31.660
N1370 X115.331 Y31.500
N1380 X114.670 Y31.128
N1390 X114.345 Y30.971
N1400 X113.581 Y30.667
N1410 X112.983 Y30.478
N1420 X112.333 Y30.331
N1430 X111.625 Y30.224
N1440 X111.335 Y30.195
N1450 X110.540 Y30.160
N1460 X24.820 Y30.160
N1470 X24.820 Y27.280
N1480 X116.198 Y27.280
N1490 X116.384 Y27.290
N1500 X116.489 Y27.310
N1510 X116.513 Y27.456
N1520 X116.513 Y32.300
N1530 ID=1 WHEN $AC_TIMER[1]>=0 DO M89

; Inicio do trecho do raster
; Final do trecho do raster

N1540 M0

; Layer 2
N1550 G1 Z2.880 F1000
N1560 X99.06 Y141.85 F1000
N1570 ID=1 WHEN $AC_TIMER[1]>=0 DO M88
N1580 X5.528 Y141.850 F300
N1590 X5.120 Y141.834
N1600 X4.770 Y141.779
N1610 X4.404 Y141.681
N1620 X4.064 Y141.546
N1630 X3.716 Y141.368
N1640 X3.401 Y141.168
N1650 X3.113 Y140.937
N1660 X2.853 Y140.677
N1670 X2.622 Y140.389
N1680 X2.418 Y140.069
N1690 X2.244 Y139.735
N1700 X2.114 Y139.400
N1710 X2.022 Y139.040
N1720 X1.964 Y138.667
N1730 X1.940 Y138.249
N1740 X1.940 Y44.730
N1750 X4.820 Y44.730
N1760 X4.822 Y126.861
N1770 X4.867 Y127.533
N1780 X4.981 Y128.201
N1790 X5.167 Y128.851
N1800 X5.423 Y129.486
N1810 X5.725 Y130.053
N1820 X6.098 Y130.623
N1830 X6.532 Y131.148
N1840 X6.902 Y131.518
N1850 X7.034 Y131.635
N1860 X7.538 Y132.022
N1870 X8.115 Y132.392
N1880 X8.743 Y132.702
N1890 X9.342 Y132.917
N1900 X10.011 Y133.093
N1910 X10.694 Y133.189
N1920 X11.260 Y133.210
N1930 X99.060 Y133.210
N1940 X99.060 Y141.750
N1950 ID=1 WHEN $AC_TIMER[1]>=0 DO M89
N1960 X120.07 Y121.85 F1000
N1970 ID=1 WHEN $AC_TIMER[1]>=0 DO M88
N1980 X117.190 Y121.850 F300
N1990 X117.188 Y38.232
N2000 X117.158 Y37.682
N2010 X117.135 Y37.492
N2020 X116.996 Y36.788
N2030 X116.846 Y36.258
N2040 X116.774 Y36.060
N2050 X116.482 Y35.431
N2060 X116.212 Y34.971
N2070 X115.795 Y34.407
N2080 X115.655 Y34.249
N2090 X115.127 Y33.748
N2100 X114.697 Y33.418
N2110 X114.540 Y33.313
N2120 X113.993 Y33.002
N2130 X113.591 Y32.819
N2140 X112.937 Y32.600
N2150 X112.397 Y32.470
N2160 X112.211 Y32.438
N2170 X111.490 Y32.370
N2180 X21.940 Y32.370
N2190 X21.940 Y23.730
N2200 X117.190 Y23.730
N2210 X117.604 Y23.782
N2220 X117.775 Y23.817
N2230 X118.318 Y23.990
N2240 X118.654 Y24.161
N2250 X118.939 Y24.355
N2260 X119.210 Y24.600
N2270 X119.450 Y24.866
N2280 X119.642 Y25.154
N2290 X119.815 Y25.500
N2300 X119.867 Y25.630
N2310 X119.984 Y26.033
N2320 X120.046 Y26.398
N2330 X120.070 Y26.857
N2340 X120.070 Y121.750
N2350 ID=1 WHEN $AC_TIMER[1]>=0 DO M89
N2360 X96.18 Y138.97 F1000
N2370 ID=1 WHEN $AC_TIMER[1]>=0 DO M88
N2380 X5.369 Y138.958 F300
N2390 X5.251 Y138.919
N2400 X5.040 Y138.791
N2410 X4.966 Y138.708
N2420 X4.862 Y138.521
N2430 X4.831 Y138.362
N2440 X4.820 Y138.168
N2450 X4.820 Y133.498
N2460 X5.126 Y133.793
N2470 X5.782 Y134.305
N2480 X6.561 Y134.817
N2490 X6.843 Y134.977
N2500 X7.472 Y135.286
N2510 X7.770 Y135.412
N2520 X8.607 Y135.701
N2530 X9.276 Y135.878
N2540 X9.611 Y135.945
N2550 X10.294 Y136.041
N2560 X10.586 Y136.067
N2570 X11.260 Y136.090
N2580 X96.180 Y136.090
N2590 X96.180 Y138.870
N2600 ID=1 WHEN $AC_TIMER[1]>=0 DO M89
N2610 X117.19 Y31.7352 F1000
N2620 ID=1 WHEN $AC_TIMER[1]>=0 DO M88
N2630 X116.880 Y31.463 F300
N2640 X116.297 Y31.023
N2650 X115.965 Y30.810
N2660 X115.417 Y30.499
N2670 X114.782 Y30.197
N2680 X114.506 Y30.089
N2690 X113.611 Y29.800
N2700 X112.886 Y29.632
N2710 X112.481 Y29.571
N2720 X111.760 Y29.503
N2730 X111.490 Y29.490
N2740 X24.820 Y29.490
N2750 X24.820 Y26.610
N2760 X117.011 Y26.610
N2770 X117.163 Y26.644
N2780 X117.179 Y26.715
N2790 X117.190 Y26.932
N2800 X117.190 Y31.635
N2810 ID=1 WHEN $AC_TIMER[1]>=0 DO M89

; Inicio do trecho do raster
; Final do trecho do raster

N2820 M0
; Layer 3
N2830 G1 Z4.320 F1000
N2840 X99.06 Y141.85 F1000
N2850 ID=1 WHEN $AC_TIMER[1]>=0 DO M88
N2860 X5.528 Y141.850 F300
N2870 X5.131 Y141.835
N2880 X4.761 Y141.771
N2890 X4.395 Y141.677
N2900 X4.064 Y141.546
N2910 X3.716 Y141.368
N2920 X3.401 Y141.168
N2930 X3.113 Y140.937
N2940 X2.853 Y140.677
N2950 X2.622 Y140.389
N2960 X2.418 Y140.069
N2970 X2.244 Y139.735
N2980 X2.114 Y139.400
N2990 X2.022 Y139.040
N3000 X1.964 Y138.667
N3010 X1.940 Y138.249
N3020 X1.940 Y44.730
N3030 X4.820 Y44.730
N3040 X4.822 Y126.873
N3050 X4.867 Y127.529
N3060 X4.981 Y128.211
N3070 X5.171 Y128.870
N3080 X5.418 Y129.475
N3090 X5.738 Y130.082
N3100 X6.103 Y130.626
N3110 X6.413 Y131.016
N3120 X6.535 Y131.151
N3130 X7.027 Y131.622
N3140 X7.567 Y132.045
N3150 X8.114 Y132.387
N3160 X8.574 Y132.627
N3170 X8.743 Y132.702
N3180 X9.349 Y132.919
N3190 X10.021 Y133.093
N3200 X10.702 Y133.189
N3210 X11.260 Y133.210
N3220 X99.060 Y133.210
N3230 X99.060 Y141.750
N3240 ID=1 WHEN $AC_TIMER[1]>=0 DO M89
N3250 X118.663 Y23.2069 F1000
N3260 ID=1 WHEN $AC_TIMER[1]>=0 DO M88
N3270 X114.720 Y32.364 F300
N3280 X114.284 Y32.157
N3290 X113.764 Y31.967
N3300 X113.577 Y31.913
N3310 X112.871 Y31.768
N3320 X112.205 Y31.701
N3330 X111.890 Y31.690
N3340 X21.940 Y31.690
N3350 X21.940 Y23.050
N3360 X117.849 Y23.057
N3370 X118.289 Y23.112
N3380 X118.470 Y23.149
N3390 X118.568 Y23.178
N3400 ID=1 WHEN $AC_TIMER[1]>=0 DO M89
N3410 X120.74 Y121.85 F1000
N3420 ID=1 WHEN $AC_TIMER[1]>=0 DO M88
N3430 X117.860 Y121.850 F300
N3440 X117.856 Y37.519
N3450 X117.798 Y36.797
N3460 X117.677 Y36.141
N3470 X117.573 Y35.756
N3480 X117.383 Y35.236
N3490 X117.307 Y35.065
N3500 X116.965 Y34.432
N3510 X120.716 Y25.722
N3520 X120.740 Y26.187
N3530 X120.740 Y121.750
N3540 ID=1 WHEN $AC_TIMER[1]>=0 DO M89
N3550 X96.18 Y138.97 F1000
N3560 ID=1 WHEN $AC_TIMER[1]>=0 DO M88
N3570 X5.433 Y138.964 F300
N3580 X5.251 Y138.919
N3590 X5.040 Y138.791
N3600 X4.966 Y138.708
N3610 X4.862 Y138.521
N3620 X4.831 Y138.362
N3630 X4.820 Y138.168
N3640 X4.820 Y133.493
N3650 X5.037 Y133.703
N3660 X5.250 Y133.888
N3670 X5.790 Y134.312
N3680 X6.041 Y134.487
N3690 X6.782 Y134.940
N3700 X7.409 Y135.261
N3710 X7.772 Y135.413
N3720 X8.377 Y135.630
N3730 X8.625 Y135.706
N3740 X9.297 Y135.881
N3750 X9.621 Y135.945
N3760 X10.302 Y136.041
N3770 X10.593 Y136.067
N3780 X11.260 Y136.090
N3790 X96.180 Y136.090
N3800 X96.180 Y138.870
N3810 ID=1 WHEN $AC_TIMER[1]>=0 DO M89
N3820 X114.352 Y25.937 F1000
N3830 ID=1 WHEN $AC_TIMER[1]>=0 DO M88
N3840 X113.078 Y28.895 F300
N3850 X112.306 Y28.823
N3860 X111.890 Y28.810
N3870 X24.820 Y28.810
N3880 X24.820 Y25.930
N3890 X114.252 Y25.937
N3900 ID=1 WHEN $AC_TIMER[1]>=0 DO M89

; Inicio do trecho do raster
; Final do trecho do raster

N3910 M0
; Layer 4
N3920 G1 Z5.760 F1000
N3930 X99.06 Y141.85 F1000
N3940 ID=1 WHEN $AC_TIMER[1]>=0 DO M88
N3950 X5.528 Y141.850 F300
N3960 X5.131 Y141.835
N3970 X4.761 Y141.771
N3980 X4.395 Y141.677
N3990 X4.064 Y141.546
N4000 X3.716 Y141.368
N4010 X3.401 Y141.168
N4020 X3.113 Y140.937
N4030 X2.853 Y140.677
N4040 X2.622 Y140.389
N4050 X2.418 Y140.069
N4060 X2.244 Y139.735
N4070 X2.114 Y139.400
N4080 X2.022 Y139.040
N4090 X1.964 Y138.667
N4100 X1.940 Y138.249
N4110 X1.940 Y44.730
N4120 X4.820 Y44.730
N4130 X4.822 Y126.883
N4140 X4.871 Y127.566
N4150 X4.986 Y128.202
N4160 X5.167 Y128.861
N4170 X5.418 Y129.485
N4180 X5.746 Y130.105
N4190 X6.108 Y130.633
N4200 X6.542 Y131.158
N4210 X7.017 Y131.620
N4220 X7.567 Y132.045
N4230 X8.125 Y132.392
N4240 X8.725 Y132.691
N4250 X9.349 Y132.924
N4260 X10.027 Y133.093
N4270 X10.702 Y133.189
N4280 X11.260 Y133.210
N4290 X99.060 Y133.210
N4300 X99.060 Y141.750
N4310 ID=1 WHEN $AC_TIMER[1]>=0 DO M89
N4320 X121.41 Y121.85 F1000
N4330 ID=1 WHEN $AC_TIMER[1]>=0 DO M88
N4340 X118.530 Y121.850 F300
N4350 X118.526 Y36.829
N4360 X118.467 Y36.102
N4370 X118.347 Y35.461
N4380 X118.243 Y35.076
N4390 X118.053 Y34.556
N4400 X117.977 Y34.385
N4410 X117.665 Y33.797
N4420 X117.445 Y33.464
N4430 X117.125 Y33.054
N4440 X116.996 Y32.910
N4450 X116.498 Y32.429
N4460 X116.044 Y32.071
N4470 X115.323 Y31.652
N4480 X114.921 Y31.469
N4490 X114.237 Y31.243
N4500 X113.607 Y31.108
N4510 X113.206 Y31.052
N4520 X112.560 Y31.020
N4530 X21.940 Y31.020
N4540 X21.940 Y22.380
N4550 X118.280 Y22.380
N4560 X118.741 Y22.407
N4570 X119.179 Y22.492
N4580 X119.499 Y22.581
N4590 X119.850 Y22.733
N4600 X120.142 Y22.908
N4610 X120.416 Y23.124
N4620 X120.698 Y23.413
N4630 X120.922 Y23.707
N4640 X120.981 Y23.802
N4650 X121.150 Y24.140
N4660 X121.271 Y24.490
N4670 X121.386 Y25.052
N4680 X121.410 Y25.508
N4690 X121.410 Y121.750
N4700 ID=1 WHEN $AC_TIMER[1]>=0 DO M89
N4710 X96.18 Y138.97 F1000
N4720 ID=1 WHEN $AC_TIMER[1]>=0 DO M88
N4730 X5.433 Y138.964 F300
N4740 X5.251 Y138.919
N4750 X5.040 Y138.791
N4760 X4.966 Y138.708
N4770 X4.862 Y138.521
N4780 X4.831 Y138.362
N4790 X4.820 Y138.168
N4800 X4.820 Y133.501
N4810 X5.011 Y133.686
N4820 X5.255 Y133.898
N4830 X5.805 Y134.323
N4840 X6.045 Y134.490
N4850 X6.603 Y134.837
N4860 X6.842 Y134.971
N4870 X7.443 Y135.270
N4880 X7.717 Y135.389
N4890 X8.341 Y135.622
N4900 X8.653 Y135.719
N4910 X9.332 Y135.887
N4920 X9.621 Y135.944
N4930 X10.296 Y136.040
N4940 X10.593 Y136.067
N4950 X11.260 Y136.090
N4960 X96.180 Y136.090
N4970 X96.180 Y138.870
N4980 ID=1 WHEN $AC_TIMER[1]>=0 DO M89
N4990 X118.53 Y30.3876 F1000
N5000 ID=1 WHEN $AC_TIMER[1]>=0 DO M88
N5010 X118.282 Y30.168 F300
N5020 X117.828 Y29.810
N5030 X117.491 Y29.580
N5040 X116.770 Y29.162
N5050 X116.514 Y29.029
N5060 X116.112 Y28.847
N5070 X115.825 Y28.735
N5080 X115.141 Y28.509
N5090 X114.841 Y28.427
N5100 X114.006 Y28.256
N5110 X113.348 Y28.176
N5120 X112.560 Y28.140
N5130 X24.820 Y28.140
N5140 X24.820 Y25.260
N5150 X118.197 Y25.260
N5160 X118.380 Y25.270
N5170 X118.496 Y25.293
N5180 X118.521 Y25.418
N5190 X118.530 Y25.584
N5200 X118.530 Y30.288
N5210 ID=1 WHEN $AC_TIMER[1]>=0 DO M89

; Inicio do trecho do raster
; Final do trecho do raster

N5220 M0
; Layer 5
N5230 G1 Z7.200 F1000
N5240 X99.06 Y141.85 F1000
N5250 ID=1 WHEN $AC_TIMER[1]>=0 DO M88
N5260 X5.528 Y141.850 F300
N5270 X5.131 Y141.835
N5280 X4.761 Y141.771
N5290 X4.395 Y141.677
N5300 X4.064 Y141.546
N5310 X3.716 Y141.368
N5320 X3.401 Y141.168
N5330 X3.113 Y140.937
N5340 X2.853 Y140.677
N5350 X2.622 Y140.389
N5360 X2.418 Y140.069
N5370 X2.244 Y139.735
N5380 X2.114 Y139.400
N5390 X2.022 Y139.040
N5400 X1.964 Y138.667
N5410 X1.940 Y138.249
N5420 X1.940 Y44.730
N5430 X4.820 Y44.730
N5440 X4.822 Y126.893
N5450 X4.871 Y127.576
N5460 X4.993 Y128.238
N5470 X5.177 Y128.871
N5480 X5.433 Y129.506
N5490 X5.734 Y130.071
N5500 X6.088 Y130.613
N5510 X6.535 Y131.151
N5520 X7.037 Y131.632
N5530 X7.577 Y132.055
N5540 X8.157 Y132.413
N5550 X8.739 Y132.693
N5560 X9.388 Y132.934
N5570 X10.031 Y133.093
N5580 X10.711 Y133.189
N5590 X11.260 Y133.210
N5600 X99.060 Y133.210
N5610 X99.060 Y141.750
N5620 ID=1 WHEN $AC_TIMER[1]>=0 DO M89
N5630 X122.08 Y121.85 F1000
N5640 ID=1 WHEN $AC_TIMER[1]>=0 DO M88
N5650 X119.200 Y121.850 F300
N5660 X119.197 Y36.151
N5670 X119.140 Y35.433
N5680 X119.022 Y34.785
N5690 X118.801 Y34.087
N5700 X118.526 Y33.462
N5710 X118.416 Y33.252
N5720 X118.125 Y32.807
N5730 X117.805 Y32.387
N5740 X117.654 Y32.218
N5750 X117.107 Y31.708
N5760 X116.677 Y31.378
N5770 X116.502 Y31.263
N5780 X116.072 Y31.023
N5790 X115.908 Y30.944
N5800 X115.188 Y30.654
N5810 X114.999 Y30.593
N5820 X114.522 Y30.479
N5830 X113.876 Y30.382
N5840 X113.230 Y30.350
N5850 X21.940 Y30.350
N5860 X21.940 Y21.710
N5870 X118.952 Y21.710
N5880 X119.387 Y21.733
N5890 X119.846 Y21.820
N5900 X120.223 Y21.934
N5910 X120.526 Y22.066
N5920 X120.845 Y22.253
N5930 X120.963 Y22.340
N5940 X121.195 Y22.546
N5950 X121.470 Y22.863
N5960 X121.664 Y23.156
N5970 X121.826 Y23.472
N5980 X121.886 Y23.627
N5990 X121.998 Y24.007
N6000 X122.032 Y24.187
N6010 X122.080 Y24.829
N6020 X122.080 Y121.750
N6030 ID=1 WHEN $AC_TIMER[1]>=0 DO M89
N6040 X96.18 Y138.97 F1000
N6050 ID=1 WHEN $AC_TIMER[1]>=0 DO M88
N6060 X5.433 Y138.964 F300
N6070 X5.251 Y138.919
N6080 X5.040 Y138.791
N6090 X4.966 Y138.708
N6100 X4.862 Y138.521
N6110 X4.831 Y138.362
N6120 X4.820 Y138.168
N6130 X4.820 Y133.496
N6140 X5.260 Y133.898
N6150 X5.800 Y134.322
N6160 X6.063 Y134.505
N6170 X6.643 Y134.863
N6180 X6.912 Y135.010
N6190 X7.494 Y135.290
N6200 X7.736 Y135.392
N6210 X8.384 Y135.633
N6220 X8.694 Y135.729
N6230 X9.338 Y135.889
N6240 X9.630 Y135.945
N6250 X10.311 Y136.041
N6260 X10.600 Y136.067
N6270 X11.260 Y136.090
N6280 X96.180 Y136.090
N6290 X96.180 Y138.870
N6300 ID=1 WHEN $AC_TIMER[1]>=0 DO M89
N6310 X119.2 Y29.7218 F1000
N6320 ID=1 WHEN $AC_TIMER[1]>=0 DO M88
N6330 X118.860 Y29.423 F300
N6340 X118.259 Y28.972
N6350 X117.905 Y28.748
N6360 X117.150 Y28.346
N6370 X116.077 Y27.915
N6380 X115.669 Y27.792
N6390 X114.949 Y27.631
N6400 X114.302 Y27.534
N6410 X114.018 Y27.506
N6420 X113.230 Y27.470
N6430 X24.820 Y27.470
N6440 X24.820 Y24.590
N6450 X118.876 Y24.590
N6460 X119.040 Y24.599
N6470 X119.177 Y24.627
N6480 X119.200 Y24.937
N6490 X119.200 Y29.622
N6500 ID=1 WHEN $AC_TIMER[1]>=0 DO M89

; Inicio do trecho do raster
; Final do trecho do raster

N6510 M0
; Layer 6
N6520 G1 Z8.640 F1000
N6530 X99.06 Y141.85 F1000
N6540 ID=1 WHEN $AC_TIMER[1]>=0 DO M88
N6550 X5.528 Y141.850 F300
N6560 X5.131 Y141.835
N6570 X4.761 Y141.771
N6580 X4.395 Y141.677
N6590 X4.064 Y141.546
N6600 X3.716 Y141.368
N6610 X3.401 Y141.168
N6620 X3.113 Y140.937
N6630 X2.853 Y140.677
N6640 X2.622 Y140.389
N6650 X2.418 Y140.069
N6660 X2.244 Y139.735
N6670 X2.114 Y139.400
N6680 X2.022 Y139.040
N6690 X1.964 Y138.667
N6700 X1.940 Y138.249
N6710 X1.940 Y44.730
N6720 X4.820 Y44.730
N6730 X4.822 Y126.885
N6740 X4.872 Y127.590
N6750 X4.991 Y128.231
N6760 X5.181 Y128.890
N6770 X5.428 Y129.495
N6780 X5.743 Y130.095
N6790 X6.096 Y130.622
N6800 X6.565 Y131.182
N6810 X7.043 Y131.639
N6820 X7.557 Y132.041
N6830 X8.134 Y132.397
N6840 X8.594 Y132.637
N6850 X8.763 Y132.712
N6860 X9.394 Y132.935
N6870 X10.041 Y133.093
N6880 X10.720 Y133.189
N6890 X11.260 Y133.210
N6900 X99.060 Y133.210
N6910 X99.060 Y141.750
N6920 ID=1 WHEN $AC_TIMER[1]>=0 DO M89
N6930 X122.75 Y121.85 F1000
N6940 ID=1 WHEN $AC_TIMER[1]>=0 DO M88
N6950 X119.870 Y121.850 F300
N6960 X119.867 Y35.461
N6970 X119.827 Y34.881
N6980 X119.802 Y34.698
N6990 X119.659 Y34.014
N7000 X119.499 Y33.484
N7010 X119.436 Y33.315
N7020 X119.236 Y32.865
N7030 X119.155 Y32.709
N7040 X118.808 Y32.144
N7050 X118.550 Y31.807
N7060 X118.091 Y31.307
N7070 X117.754 Y31.008
N7080 X117.354 Y30.708
N7090 X116.767 Y30.363
N7100 X116.597 Y30.276
N7110 X115.981 Y30.019
N7120 X115.567 Y29.893
N7130 X115.017 Y29.773
N7140 X114.816 Y29.744
N7150 X113.900 Y29.680
N7160 X21.940 Y29.680
N7170 X21.940 Y21.040
N7180 X119.658 Y21.040
N7190 X120.047 Y21.059
N7200 X120.539 Y21.151
N7210 X120.864 Y21.249
N7220 X121.362 Y21.483
N7230 X121.542 Y21.607
N7240 X122.750 Y24.426
N7250 X122.750 Y121.750
N7260 ID=1 WHEN $AC_TIMER[1]>=0 DO M89
N7270 X96.18 Y138.97 F1000
N7280 ID=1 WHEN $AC_TIMER[1]>=0 DO M88
N7290 X5.433 Y138.964 F300
N7300 X5.251 Y138.919
N7310 X5.040 Y138.791
N7320 X4.966 Y138.708
N7330 X4.862 Y138.521
N7340 X4.831 Y138.362
N7350 X4.820 Y138.168
N7360 X4.820 Y133.498
N7370 X5.267 Y133.905
N7380 X5.780 Y134.308
N7390 X6.046 Y134.493
N7400 X6.802 Y134.950
N7410 X7.429 Y135.271
N7420 X7.801 Y135.426
N7430 X8.432 Y135.650
N7440 X8.711 Y135.733
N7450 X9.358 Y135.891
N7460 X9.640 Y135.945
N7470 X10.319 Y136.041
N7480 X10.607 Y136.067
N7490 X11.260 Y136.090
N7500 X96.180 Y136.090
N7510 X96.180 Y138.870
N7520 ID=1 WHEN $AC_TIMER[1]>=0 DO M89
N7530 X119.87 Y29.0382 F1000
N7540 ID=1 WHEN $AC_TIMER[1]>=0 DO M88
N7550 X119.482 Y28.704 F300
N7560 X119.082 Y28.404
N7570 X118.814 Y28.225
N7580 X118.073 Y27.796
N7590 X117.707 Y27.619
N7600 X117.090 Y27.361
N7610 X116.820 Y27.264
N7620 X116.181 Y27.079
N7630 X115.431 Y26.923
N7640 X115.017 Y26.871
N7650 X113.900 Y26.800
N7660 X24.820 Y26.800
N7670 X24.820 Y23.920
N7680 X119.400 Y23.920
N7690 X119.870 Y25.017
N7700 X119.870 Y28.938
N7710 ID=1 WHEN $AC_TIMER[1]>=0 DO M89

; Inicio do trecho do raster
; Final do trecho do raster

N7720 M0
; Layer 7
N7730 G1 Z10.080 F1000
N7740 X99.06 Y141.85 F1000
N7750 ID=1 WHEN $AC_TIMER[1]>=0 DO M88
N7760 X5.528 Y141.850 F300
N7770 X5.131 Y141.835
N7780 X4.761 Y141.771
N7790 X4.395 Y141.677
N7800 X4.052 Y141.542
N7810 X3.749 Y141.394
N7820 X3.404 Y141.171
N7830 X3.113 Y140.937
N7840 X2.853 Y140.677
N7850 X2.622 Y140.389
N7860 X2.418 Y140.069
N7870 X2.244 Y139.735
N7880 X2.114 Y139.400
N7890 X2.022 Y139.040
N7900 X1.964 Y138.667
N7910 X1.940 Y138.249
N7920 X1.940 Y44.730
N7930 X4.820 Y44.730
N7940 X4.822 Y126.903
N7950 X4.871 Y127.586
N7960 X4.993 Y128.248
N7970 X5.177 Y128.881
N7980 X5.367 Y129.371
N7990 X5.445 Y129.538
N8000 X5.739 Y130.073
N8010 X6.088 Y130.613
N8020 X6.522 Y131.138
N8030 X7.007 Y131.612
N8040 X7.539 Y132.030
N8050 X8.167 Y132.423
N8060 X8.751 Y132.703
N8070 X9.191 Y132.873
N8080 X9.361 Y132.927
N8090 X10.051 Y133.093
N8100 X10.729 Y133.189
N8110 X11.260 Y133.210
N8120 X99.060 Y133.210
N8130 X99.060 Y141.750
N8140 ID=1 WHEN $AC_TIMER[1]>=0 DO M89
N8150 X123.42 Y121.85 F1000
N8160 ID=1 WHEN $AC_TIMER[1]>=0 DO M88
N8170 X120.540 Y121.850 F300
N8180 X120.537 Y34.776
N8190 X120.487 Y34.156
N8200 X120.367 Y33.486
N8210 X120.312 Y33.273
N8220 X120.062 Y32.543
N8230 X119.977 Y32.345
N8240 X119.727 Y31.865
N8250 X119.627 Y31.701
N8260 X119.210 Y31.127
N8270 X118.850 Y30.727
N8280 X118.713 Y30.593
N8290 X118.179 Y30.152
N8300 X117.586 Y29.768
N8310 X117.156 Y29.548
N8320 X116.969 Y29.469
N8330 X116.299 Y29.241
N8340 X116.079 Y29.181
N8350 X115.523 Y29.078
N8360 X114.810 Y29.010
N8370 X21.940 Y29.010
N8380 X21.940 Y20.370
N8390 X120.403 Y20.370
N8400 X120.746 Y20.392
N8410 X121.124 Y20.454
N8420 X121.562 Y20.582
N8430 X121.689 Y20.636
N8440 X122.029 Y20.813
N8450 X122.320 Y21.018
N8460 X122.670 Y21.343
N8470 X122.930 Y21.681
N8480 X123.099 Y21.973
N8490 X123.291 Y22.500
N8500 X123.376 Y22.890
N8510 X123.420 Y23.306
N8520 X123.420 Y121.750
N8530 ID=1 WHEN $AC_TIMER[1]>=0 DO M89
N8540 X96.18 Y138.97 F1000
N8550 ID=1 WHEN $AC_TIMER[1]>=0 DO M88
N8560 X5.433 Y138.964 F300
N8570 X5.216 Y138.905
N8580 X5.040 Y138.791
N8590 X4.966 Y138.708
N8600 X4.862 Y138.521
N8610 X4.831 Y138.362
N8620 X4.820 Y138.168
N8630 X4.820 Y133.502
N8640 X5.227 Y133.876
N8650 X5.759 Y134.294
N8660 X6.009 Y134.470
N8670 X6.638 Y134.864
N8680 X6.923 Y135.021
N8690 X7.713 Y135.390
N8700 X8.491 Y135.673
N8710 X9.377 Y135.893
N8720 X9.649 Y135.945
N8730 X10.327 Y136.041
N8740 X10.613 Y136.066
N8750 X11.260 Y136.090
N8760 X96.180 Y136.090
N8770 X96.180 Y138.870
N8780 ID=1 WHEN $AC_TIMER[1]>=0 DO M89
N8790 X120.54 Y28.3668 F1000
N8800 ID=1 WHEN $AC_TIMER[1]>=0 DO M88
N8810 X120.013 Y27.931 F300
N8820 X119.744 Y27.734
N8830 X119.151 Y27.350
N8840 X118.898 Y27.204
N8850 X118.284 Y26.898
N8860 X117.896 Y26.742
N8870 X117.057 Y26.462
N8880 X116.602 Y26.349
N8890 X115.797 Y26.211
N8900 X115.084 Y26.143
N8910 X114.810 Y26.130
N8920 X24.820 Y26.130
N8930 X24.820 Y23.250
N8940 X120.419 Y23.257
N8950 X120.508 Y23.275
N8960 X120.540 Y23.457
N8970 X120.540 Y28.267
N8980 ID=1 WHEN $AC_TIMER[1]>=0 DO M89

; Inicio do trecho do raster
; Final do trecho do raster

N8990 M0
; Layer 8
N9000 G1 Z11.520 F1000
N9010 X99.06 Y141.85 F1000
N9020 ID=1 WHEN $AC_TIMER[1]>=0 DO M88
N9030 X5.528 Y141.850 F300
N9040 X5.131 Y141.835
N9050 X4.761 Y141.771
N9060 X4.395 Y141.677
N9070 X4.064 Y141.546
N9080 X3.716 Y141.368
N9090 X3.401 Y141.168
N9100 X3.113 Y140.937
N9110 X2.853 Y140.677
N9120 X2.622 Y140.389
N9130 X2.418 Y140.069
N9140 X2.251 Y139.748
N9150 X2.103 Y139.357
N9160 X2.022 Y139.040
N9170 X1.964 Y138.667
N9180 X1.940 Y138.249
N9190 X1.940 Y44.730
N9200 X4.820 Y44.730
N9210 X4.824 Y126.940
N9220 X4.877 Y127.569
N9230 X4.957 Y128.089
N9240 X5.001 Y128.284
N9250 X5.177 Y128.862
N9260 X5.337 Y129.302
N9270 X5.417 Y129.484
N9280 X5.758 Y130.112
N9290 X6.139 Y130.676
N9300 X6.562 Y131.178
N9310 X7.023 Y131.624
N9320 X7.597 Y132.065
N9330 X8.177 Y132.423
N9340 X8.751 Y132.699
N9350 X9.181 Y132.869
N9360 X9.367 Y132.928
N9370 X10.057 Y133.093
N9380 X10.729 Y133.189
N9390 X11.260 Y133.210
N9400 X99.060 Y133.210
N9410 X99.060 Y141.750
N9420 ID=1 WHEN $AC_TIMER[1]>=0 DO M89
N9430 X124.1 Y121.85 F1000
N9440 ID=1 WHEN $AC_TIMER[1]>=0 DO M88
N9450 X121.220 Y121.850 F300
N9460 X121.217 Y34.211
N9470 X121.159 Y33.486
N9480 X121.049 Y32.846
N9490 X120.926 Y32.395
N9500 X120.778 Y31.978
N9510 X120.647 Y31.665
N9520 X120.327 Y31.065
N9530 X120.103 Y30.736
N9540 X119.643 Y30.176
N9550 X119.467 Y29.997
N9560 X118.887 Y29.505
N9570 X118.516 Y29.250
N9580 X118.234 Y29.082
N9590 X117.658 Y28.805
N9600 X117.053 Y28.592
N9610 X116.605 Y28.478
N9620 X115.937 Y28.376
N9630 X115.470 Y28.340
N9640 X21.940 Y28.340
N9650 X21.940 Y19.700
N9660 X121.082 Y19.700
N9670 X121.418 Y19.722
N9680 X121.799 Y19.784
N9690 X122.282 Y19.942
N9700 X122.517 Y20.038
N9710 X122.999 Y20.347
N9720 X123.340 Y20.662
N9730 X123.567 Y20.958
N9740 X123.778 Y21.329
N9750 X123.843 Y21.469
N9760 X123.967 Y21.828
N9770 X124.079 Y22.435
N9780 X124.100 Y22.828
N9790 X124.100 Y121.750
N9800 ID=1 WHEN $AC_TIMER[1]>=0 DO M89
N9810 X96.18 Y138.97 F1000
N9820 ID=1 WHEN $AC_TIMER[1]>=0 DO M88
N9830 X5.433 Y138.964 F300
N9840 X5.251 Y138.919
N9850 X5.040 Y138.791
N9860 X4.966 Y138.708
N9870 X4.884 Y138.569
N9880 X4.846 Y138.460
N9890 X4.820 Y138.168
N9900 X4.820 Y133.500
N9910 X5.020 Y133.694
N9920 X5.269 Y133.909
N9930 X5.843 Y134.349
N9940 X6.083 Y134.515
N9950 X6.663 Y134.873
N9960 X6.929 Y135.019
N9970 X7.692 Y135.377
N9980 X8.306 Y135.613
N9990 X8.700 Y135.730
N10000 X9.391 Y135.894
N10010 X9.649 Y135.944
N10020 X10.321 Y136.040
N10030 X10.613 Y136.066
N10040 X11.260 Y136.090
N10050 X96.180 Y136.090
N10060 X96.180 Y138.870
N10070 ID=1 WHEN $AC_TIMER[1]>=0 DO M89
N10080 X121.22 Y27.7071 F1000
N10090 ID=1 WHEN $AC_TIMER[1]>=0 DO M88
N10100 X120.748 Y27.307 F300
N10110 X120.523 Y27.135
N10120 X119.986 Y26.773
N10130 X119.481 Y26.486
N10140 X118.905 Y26.209
N10150 X118.616 Y26.089
N10160 X118.011 Y25.876
N10170 X117.316 Y25.687
N10180 X117.039 Y25.631
N10190 X116.156 Y25.504
N10200 X115.470 Y25.460
N10210 X24.820 Y25.460
N10220 X24.820 Y22.580
N10230 X121.117 Y22.591
N10240 X121.183 Y22.613
N10250 X121.213 Y22.774
N10260 X121.220 Y27.607
N10270 ID=1 WHEN $AC_TIMER[1]>=0 DO M89

; Inicio do trecho do raster
; Final do trecho do raster

N10280 M0
; Layer 9
N10290 G1 Z12.960 F1000
N10300 X99.06 Y141.85 F1000
N10310 ID=1 WHEN $AC_TIMER[1]>=0 DO M88
N10320 X5.528 Y141.850 F300
N10330 X5.131 Y141.835
N10340 X4.761 Y141.771
N10350 X4.395 Y141.677
N10360 X4.064 Y141.546
N10370 X3.716 Y141.368
N10380 X3.401 Y141.168
N10390 X3.113 Y140.937
N10400 X2.853 Y140.677
N10410 X2.622 Y140.389
N10420 X2.418 Y140.069
N10430 X2.244 Y139.735
N10440 X2.114 Y139.400
N10450 X2.022 Y139.040
N10460 X1.964 Y138.667
N10470 X1.940 Y138.249
N10480 X1.940 Y44.730
N10490 X4.820 Y44.730
N10500 X4.824 Y126.950
N10510 X4.877 Y127.581
N10520 X4.984 Y128.199
N10530 X5.180 Y128.882
N10540 X5.412 Y129.474
N10550 X5.757 Y130.121
N10560 X6.088 Y130.613
N10570 X6.534 Y131.150
N10580 X7.074 Y131.665
N10590 X7.609 Y132.073
N10600 X8.164 Y132.412
N10610 X8.700 Y132.679
N10620 X9.180 Y132.869
N10630 X9.367 Y132.928
N10640 X10.033 Y133.089
N10650 X10.493 Y133.169
N10660 X10.685 Y133.189
N10670 X11.260 Y133.210
N10680 X99.060 Y133.210
N10690 X99.060 Y141.750
N10700 ID=1 WHEN $AC_TIMER[1]>=0 DO M89
N10710 X124.77 Y121.85 F1000
N10720 ID=1 WHEN $AC_TIMER[1]>=0 DO M88
N10730 X121.890 Y121.850 F300
N10740 X121.888 Y33.566
N10750 X121.858 Y32.986
N10760 X121.837 Y32.802
N10770 X121.707 Y32.125
N10780 X121.557 Y31.585
N10790 X121.499 Y31.416
N10800 X121.452 Y31.325
N10810 X121.300 Y30.962
N10820 X120.940 Y30.312
N10830 X120.819 Y30.130
N10840 X120.479 Y29.690
N10850 X120.358 Y29.552
N10860 X119.875 Y29.080
N10870 X119.490 Y28.780
N10880 X118.893 Y28.407
N10890 X118.403 Y28.167
N10900 X118.241 Y28.099
N10910 X117.599 Y27.883
N10920 X117.275 Y27.808
N10930 X116.603 Y27.705
N10940 X116.130 Y27.670
N10950 X21.940 Y27.670
N10960 X21.940 Y19.030
N10970 X121.757 Y19.030
N10980 X122.208 Y19.070
N10990 X122.501 Y19.118
N11000 X122.889 Y19.239
N11010 X123.222 Y19.385
N11020 X123.650 Y19.656
N11030 X123.768 Y19.754
N11040 X124.021 Y20.008
N11050 X124.270 Y20.337
N11060 X124.435 Y20.635
N11070 X124.575 Y20.961
N11080 X124.701 Y21.434
N11090 X124.746 Y21.707
N11100 X124.770 Y22.158
N11110 X124.770 Y121.750
N11120 ID=1 WHEN $AC_TIMER[1]>=0 DO M89
N11130 X96.18 Y138.97 F1000
N11140 ID=1 WHEN $AC_TIMER[1]>=0 DO M88
N11150 X5.433 Y138.964 F300
N11160 X5.251 Y138.919
N11170 X5.040 Y138.791
N11180 X4.966 Y138.708
N11190 X4.862 Y138.521
N11200 X4.831 Y138.362
N11210 X4.820 Y138.168
N11220 X4.820 Y133.495
N11230 X5.087 Y133.750
N11240 X5.329 Y133.957
N11250 X5.865 Y134.364
N11260 X6.107 Y134.530
N11270 X6.879 Y134.990
N11280 X7.640 Y135.357
N11290 X8.304 Y135.613
N11300 X8.693 Y135.729
N11310 X9.540 Y135.926
N11320 X10.190 Y136.033
N11330 X10.579 Y136.067
N11340 X11.260 Y136.090
N11350 X96.180 Y136.090
N11360 X96.180 Y138.870
N11370 ID=1 WHEN $AC_TIMER[1]>=0 DO M89
N11380 X121.887 Y27.0191 F1000
N11390 ID=1 WHEN $AC_TIMER[1]>=0 DO M88
N11400 X121.646 Y26.809 F300
N11410 X121.262 Y26.509
N11420 X121.016 Y26.337
N11430 X120.419 Y25.964
N11440 X120.160 Y25.820
N11450 X119.348 Y25.440
N11460 X118.519 Y25.154
N11470 X117.926 Y25.002
N11480 X117.037 Y24.858
N11490 X116.344 Y24.798
N11500 X24.820 Y24.790
N11510 X24.820 Y21.910
N11520 X121.631 Y21.910
N11530 X121.854 Y21.933
N11540 X121.879 Y22.030
N11550 X121.890 Y22.234
N11560 X121.887 Y26.919
N11570 ID=1 WHEN $AC_TIMER[1]>=0 DO M89

; Inicio do trecho do raster
; Final do trecho do raster

N11580 M0
; Layer 10
N11590 G1 Z14.400 F1000
N11600 X99.06 Y141.85 F1000
N11610 ID=1 WHEN $AC_TIMER[1]>=0 DO M88
N11620 X5.528 Y141.850 F300
N11630 X5.131 Y141.835
N11640 X4.761 Y141.771
N11650 X4.395 Y141.677
N11660 X4.052 Y141.542
N11670 X3.766 Y141.402
N11680 X3.402 Y141.169
N11690 X3.113 Y140.937
N11700 X2.853 Y140.677
N11710 X2.622 Y140.389
N11720 X2.418 Y140.069
N11730 X2.244 Y139.735
N11740 X2.114 Y139.400
N11750 X2.022 Y139.040
N11760 X1.964 Y138.667
N11770 X1.940 Y138.249
N11780 X1.940 Y44.730
N11790 X4.820 Y44.730
N11800 X4.824 Y126.948
N11810 X4.882 Y127.620
N11820 X5.003 Y128.268
N11830 X5.187 Y128.901
N11840 X5.377 Y129.391
N11850 X5.455 Y129.558
N11860 X5.752 Y130.099
N11870 X5.992 Y130.479
N11880 X6.100 Y130.627
N11890 X6.572 Y131.188
N11900 X7.019 Y131.621
N11910 X7.607 Y132.075
N11920 X8.187 Y132.433
N11930 X8.793 Y132.722
N11940 X9.424 Y132.945
N11950 X10.069 Y133.103
N11960 X10.685 Y133.189
N11970 X11.260 Y133.210
N11980 X99.060 Y133.210
N11990 X99.060 Y141.750
N12000 ID=1 WHEN $AC_TIMER[1]>=0 DO M89
N12010 X125.44 Y121.85 F1000
N12020 ID=1 WHEN $AC_TIMER[1]>=0 DO M88
N12030 X122.560 Y121.850 F300
N12040 X122.558 Y32.896
N12050 X122.528 Y32.316
N12060 X122.508 Y32.137
N12070 X122.376 Y31.438
N12080 X122.226 Y30.908
N12090 X121.863 Y30.066
N12100 X121.721 Y29.807
N12110 X121.480 Y29.437
N12120 X121.028 Y28.882
N12130 X120.530 Y28.398
N12140 X120.110 Y28.068
N12150 X119.610 Y27.756
N12160 X119.244 Y27.567
N12170 X118.606 Y27.315
N12180 X117.995 Y27.146
N12190 X117.227 Y27.022
N12200 X116.590 Y26.990
N12210 X21.940 Y26.990
N12220 X21.940 Y18.350
N12230 X122.291 Y18.350
N12240 X122.897 Y18.400
N12250 X123.171 Y18.448
N12260 X123.376 Y18.502
N12270 X123.894 Y18.713
N12280 X124.166 Y18.872
N12290 X124.451 Y19.098
N12300 X124.701 Y19.347
N12310 X124.910 Y19.614
N12320 X125.114 Y19.974
N12330 X125.248 Y20.296
N12340 X125.345 Y20.633
N12350 X125.432 Y21.171
N12360 X125.440 Y21.469
N12370 X125.440 Y121.750
N12380 ID=1 WHEN $AC_TIMER[1]>=0 DO M89
N12390 X96.18 Y138.97 F1000
N12400 ID=1 WHEN $AC_TIMER[1]>=0 DO M88
N12410 X5.433 Y138.964 F300
N12420 X5.284 Y138.932
N12430 X5.178 Y138.887
N12440 X4.999 Y138.750
N12450 X4.862 Y138.521
N12460 X4.831 Y138.362
N12470 X4.820 Y138.168
N12480 X4.820 Y133.501
N12490 X5.016 Y133.691
N12500 X5.260 Y133.902
N12510 X5.848 Y134.355
N12520 X6.093 Y134.525
N12530 X6.673 Y134.883
N12540 X6.951 Y135.035
N12550 X7.557 Y135.323
N12560 X7.831 Y135.436
N12570 X8.462 Y135.660
N12580 X8.741 Y135.743
N12590 X9.385 Y135.901
N12600 X9.670 Y135.955
N12610 X10.286 Y136.041
N12620 X10.579 Y136.067
N12630 X11.260 Y136.090
N12640 X96.180 Y136.090
N12650 X96.180 Y138.870
N12660 ID=1 WHEN $AC_TIMER[1]>=0 DO M89
N12670 X122.56 Y26.3548 F1000
N12680 ID=1 WHEN $AC_TIMER[1]>=0 DO M88
N12690 X122.309 Y26.133 F300
N12700 X121.889 Y25.803
N12710 X121.634 Y25.624
N12720 X120.933 Y25.198
N12730 X120.568 Y25.009
N12740 X120.299 Y24.887
N12750 X119.661 Y24.636
N12760 X119.373 Y24.540
N12770 X118.763 Y24.371
N12780 X118.455 Y24.304
N12790 X117.688 Y24.179
N12800 X117.372 Y24.146
N12810 X116.590 Y24.110
N12820 X24.820 Y24.110
N12830 X24.820 Y21.230
N12840 X122.173 Y21.230
N12850 X122.530 Y21.267
N12860 X122.560 Y21.509
N12870 X122.560 Y26.255
N12880 ID=1 WHEN $AC_TIMER[1]>=0 DO M89

; Inicio do trecho do raster
; Final do trecho do raster

N12890 M0
; Layer 11
N12900 G1 Z15.840 F1000
N12910 X99.06 Y141.85 F1000
N12920 ID=1 WHEN $AC_TIMER[1]>=0 DO M88
N12930 X5.528 Y141.850 F300
N12940 X5.131 Y141.835
N12950 X4.761 Y141.771
N12960 X4.395 Y141.677
N12970 X4.064 Y141.546
N12980 X3.716 Y141.368
N12990 X3.401 Y141.168
N13000 X3.113 Y140.937
N13010 X2.853 Y140.677
N13020 X2.622 Y140.389
N13030 X2.418 Y140.069
N13040 X2.244 Y139.735
N13050 X2.114 Y139.400
N13060 X2.022 Y139.040
N13070 X1.964 Y138.667
N13080 X1.940 Y138.249
N13090 X1.940 Y44.730
N13100 X4.820 Y44.730
N13110 X4.824 Y126.960
N13120 X4.881 Y127.616
N13130 X5.003 Y128.278
N13140 X5.184 Y128.903
N13150 X5.417 Y129.483
N13160 X5.776 Y130.145
N13170 X6.136 Y130.670
N13180 X6.522 Y131.138
N13190 X7.007 Y131.612
N13200 X7.555 Y132.040
N13210 X8.197 Y132.433
N13220 X8.776 Y132.711
N13230 X9.354 Y132.925
N13240 X9.974 Y133.079
N13250 X10.494 Y133.169
N13260 X10.685 Y133.189
N13270 X11.260 Y133.210
N13280 X99.060 Y133.210
N13290 X99.060 Y141.750
N13300 ID=1 WHEN $AC_TIMER[1]>=0 DO M89
N13310 X126.11 Y121.85 F1000
N13320 ID=1 WHEN $AC_TIMER[1]>=0 DO M88
N13330 X123.230 Y121.850 F300
N13340 X123.229 Y32.251
N13350 X123.206 Y31.720
N13360 X123.100 Y31.013
N13370 X122.970 Y30.473
N13380 X122.911 Y30.284
N13390 X122.679 Y29.700
N13400 X122.495 Y29.319
N13410 X122.255 Y28.919
N13420 X122.141 Y28.756
N13430 X121.681 Y28.186
N13440 X121.530 Y28.026
N13450 X121.190 Y27.716
N13460 X120.785 Y27.402
N13470 X120.223 Y27.057
N13480 X119.576 Y26.751
N13490 X119.060 Y26.576
N13500 X118.639 Y26.472
N13510 X117.897 Y26.352
N13520 X117.260 Y26.320
N13530 X21.940 Y26.320
N13540 X21.940 Y17.680
N13550 X122.982 Y17.680
N13560 X123.418 Y17.703
N13570 X123.926 Y17.799
N13580 X124.249 Y17.902
N13590 X124.685 Y18.110
N13600 X124.876 Y18.231
N13610 X125.128 Y18.426
N13620 X125.365 Y18.670
N13630 X125.580 Y18.944
N13640 X125.784 Y19.304
N13650 X125.928 Y19.649
N13660 X125.981 Y19.815
N13670 X126.091 Y20.401
N13680 X126.110 Y20.638
N13690 X126.110 Y121.750
N13700 ID=1 WHEN $AC_TIMER[1]>=0 DO M89
N13710 X96.18 Y138.97 F1000
N13720 ID=1 WHEN $AC_TIMER[1]>=0 DO M88
N13730 X5.433 Y138.964 F300
N13740 X5.251 Y138.919
N13750 X5.040 Y138.791
N13760 X4.966 Y138.708
N13770 X4.862 Y138.521
N13780 X4.831 Y138.362
N13790 X4.820 Y138.168
N13800 X4.820 Y133.502
N13810 X5.233 Y133.881
N13820 X5.781 Y134.309
N13830 X6.050 Y134.495
N13840 X6.692 Y134.889
N13850 X6.951 Y135.030
N13860 X7.531 Y135.308
N13870 X7.777 Y135.412
N13880 X8.354 Y135.626
N13890 X8.662 Y135.721
N13900 X9.483 Y135.917
N13910 X10.193 Y136.033
N13920 X10.579 Y136.067
N13930 X11.260 Y136.090
N13940 X96.180 Y136.090
N13950 X96.180 Y138.870
N13960 ID=1 WHEN $AC_TIMER[1]>=0 DO M89
N13970 X123.23 Y25.6841 F1000
N13980 ID=1 WHEN $AC_TIMER[1]>=0 DO M88
N13990 X122.954 Y25.439 F300
N14000 X122.549 Y25.125
N14010 X122.293 Y24.948
N14020 X121.731 Y24.603
N14030 X121.453 Y24.453
N14040 X120.806 Y24.147
N14050 X120.502 Y24.024
N14060 X119.751 Y23.780
N14070 X119.097 Y23.628
N14080 X118.355 Y23.509
N14090 X118.042 Y23.476
N14100 X117.260 Y23.440
N14110 X24.820 Y23.440
N14120 X24.820 Y20.560
N14130 X122.906 Y20.560
N14140 X123.074 Y20.569
N14150 X123.197 Y20.592
N14160 X123.230 Y20.771
N14170 X123.230 Y25.584
N14180 ID=1 WHEN $AC_TIMER[1]>=0 DO M89

; Inicio do trecho do raster
; Final do trecho do raster

N14190 M0
; Layer 12
N14200 G1 Z17.280 F1000
N14210 X99.06 Y141.85 F1000
N14220 ID=1 WHEN $AC_TIMER[1]>=0 DO M88
N14230 X5.528 Y141.850 F300
N14240 X5.131 Y141.835
N14250 X4.761 Y141.771
N14260 X4.395 Y141.677
N14270 X4.064 Y141.546
N14280 X3.716 Y141.368
N14290 X3.401 Y141.168
N14300 X3.113 Y140.937
N14310 X2.853 Y140.677
N14320 X2.622 Y140.389
N14330 X2.418 Y140.069
N14340 X2.238 Y139.724
N14350 X2.122 Y139.433
N14360 X2.022 Y139.040
N14370 X1.964 Y138.667
N14380 X1.940 Y138.249
N14390 X1.940 Y44.730
N14400 X4.820 Y44.730
N14410 X4.824 Y126.970
N14420 X4.881 Y127.626
N14430 X5.011 Y128.314
N14440 X5.188 Y128.895
N14450 X5.338 Y129.305
N14460 X5.421 Y129.491
N14470 X5.767 Y130.125
N14480 X6.088 Y130.613
N14490 X6.522 Y131.138
N14500 X7.016 Y131.619
N14510 X7.496 Y131.999
N14520 X7.649 Y132.105
N14530 X8.183 Y132.421
N14540 X8.700 Y132.679
N14550 X9.180 Y132.869
N14560 X9.361 Y132.927
N14570 X10.079 Y133.101
N14580 X10.685 Y133.189
N14590 X11.260 Y133.210
N14600 X99.060 Y133.210
N14610 X99.060 Y141.750
N14620 ID=1 WHEN $AC_TIMER[1]>=0 DO M89
N14630 X126.78 Y121.85 F1000
N14640 ID=1 WHEN $AC_TIMER[1]>=0 DO M88
N14650 X123.900 Y121.850 F300
N14660 X123.900 Y31.583
N14670 X123.874 Y31.018
N14680 X123.764 Y30.278
N14690 X123.596 Y29.646
N14700 X123.496 Y29.366
N14710 X123.321 Y28.963
N14720 X123.038 Y28.431
N14730 X122.680 Y27.905
N14740 X122.368 Y27.532
N14750 X121.902 Y27.076
N14760 X121.312 Y26.632
N14770 X120.894 Y26.382
N14780 X120.514 Y26.192
N14790 X120.345 Y26.121
N14800 X119.715 Y25.901
N14810 X119.504 Y25.844
N14820 X118.754 Y25.704
N14830 X118.567 Y25.682
N14840 X117.930 Y25.650
N14850 X21.940 Y25.650
N14860 X21.940 Y17.010
N14870 X123.652 Y17.010
N14880 X124.093 Y17.033
N14890 X124.373 Y17.079
N14900 X124.888 Y17.217
N14910 X125.086 Y17.299
N14920 X125.350 Y17.434
N14930 X125.646 Y17.632
N14940 X125.784 Y17.742
N14950 X126.104 Y18.077
N14960 X126.295 Y18.338
N14970 X126.534 Y18.790
N14980 X126.691 Y19.291
N14990 X126.773 Y19.853
N15000 X126.780 Y121.750
N15010 ID=1 WHEN $AC_TIMER[1]>=0 DO M89
N15020 X96.18 Y138.97 F1000
N15030 ID=1 WHEN $AC_TIMER[1]>=0 DO M88
N15040 X5.433 Y138.964 F300
N15050 X5.251 Y138.919
N15060 X5.040 Y138.791
N15070 X4.966 Y138.708
N15080 X4.865 Y138.533
N15090 X4.831 Y138.362
N15100 X4.820 Y138.168
N15110 X4.820 Y133.501
N15120 X5.229 Y133.877
N15130 X5.858 Y134.368
N15140 X6.180 Y134.582
N15150 X6.899 Y134.999
N15160 X7.640 Y135.357
N15170 X8.299 Y135.611
N15180 X8.681 Y135.726
N15190 X9.399 Y135.900
N15200 X9.666 Y135.952
N15210 X10.272 Y136.039
N15220 X10.579 Y136.067
N15230 X11.260 Y136.090
N15240 X96.180 Y136.090
N15250 X96.180 Y138.870
N15260 ID=1 WHEN $AC_TIMER[1]>=0 DO M89
N15270 X123.893 Y24.9973 F1000
N15280 ID=1 WHEN $AC_TIMER[1]>=0 DO M88
N15290 X123.633 Y24.774 F300
N15300 X123.044 Y24.331
N15310 X122.790 Y24.160
N15320 X122.182 Y23.806
N15330 X121.466 Y23.468
N15340 X120.456 Y23.117
N15350 X120.033 Y23.013
N15360 X119.096 Y22.845
N15370 X118.712 Y22.806
N15380 X117.930 Y22.770
N15390 X24.820 Y22.770
N15400 X24.820 Y19.890
N15410 X123.576 Y19.890
N15420 X123.775 Y19.900
N15430 X123.874 Y19.933
N15440 X123.893 Y20.060
N15450 X123.893 Y24.897
N15460 ID=1 WHEN $AC_TIMER[1]>=0 DO M89

; Inicio do trecho do raster
; Final do trecho do raster

N15470 M0
; Layer 13
N15480 G1 Z18.720 F1000
N15490 X99.06 Y141.85 F1000
N15500 ID=1 WHEN $AC_TIMER[1]>=0 DO M88
N15510 X5.528 Y141.850 F300
N15520 X5.131 Y141.835
N15530 X4.761 Y141.771
N15540 X4.395 Y141.677
N15550 X4.051 Y141.541
N15560 X3.783 Y141.411
N15570 X3.400 Y141.168
N15580 X3.113 Y140.937
N15590 X2.853 Y140.677
N15600 X2.622 Y140.389
N15610 X2.418 Y140.069
N15620 X2.244 Y139.735
N15630 X2.114 Y139.400
N15640 X2.022 Y139.040
N15650 X1.964 Y138.667
N15660 X1.940 Y138.249
N15670 X1.940 Y44.730
N15680 X4.820 Y44.730
N15690 X4.824 Y126.980
N15700 X4.882 Y127.640
N15710 X5.009 Y128.306
N15720 X5.201 Y128.940
N15730 X5.465 Y129.578
N15740 X5.778 Y130.142
N15750 X6.155 Y130.702
N15760 X6.522 Y131.138
N15770 X7.007 Y131.612
N15780 X7.548 Y132.036
N15790 X8.068 Y132.366
N15800 X8.230 Y132.454
N15810 X8.775 Y132.707
N15820 X9.175 Y132.867
N15830 X9.361 Y132.927
N15840 X10.079 Y133.101
N15850 X10.685 Y133.189
N15860 X11.260 Y133.210
N15870 X99.060 Y133.210
N15880 X99.060 Y141.750
N15890 ID=1 WHEN $AC_TIMER[1]>=0 DO M89
N15900 X124.166 Y28.6856 F1000
N15910 ID=1 WHEN $AC_TIMER[1]>=0 DO M88
N15920 X123.968 Y28.233 F300
N15930 X123.871 Y28.042
N15940 X123.493 Y27.430
N15950 X123.198 Y27.043
N15960 X122.838 Y26.653
N15970 X122.699 Y26.522
N15980 X122.192 Y26.108
N15990 X121.839 Y25.871
N16000 X121.244 Y25.551
N16010 X120.764 Y25.351
N16020 X120.586 Y25.290
N16030 X119.961 Y25.129
N16040 X119.220 Y25.009
N16050 X119.027 Y24.990
N16060 X118.600 Y24.980
N16070 X21.940 Y24.980
N16080 X21.940 Y16.340
N16090 X124.323 Y16.340
N16100 X124.790 Y16.364
N16110 X125.018 Y16.400
N16120 X125.538 Y16.541
N16130 X125.944 Y16.720
N16140 X126.216 Y16.885
N16150 X126.458 Y17.077
N16160 X126.788 Y17.421
N16170 X126.929 Y17.612
N16180 X127.053 Y17.810
N16190 X127.216 Y18.156
N16200 X127.362 Y18.611
N16210 X127.415 Y18.909
N16220 X127.450 Y19.313
N16230 X127.450 Y121.850
N16240 X124.570 Y121.850
N16250 X124.570 Y30.914
N16260 X124.544 Y30.335
N16270 X124.400 Y29.444
N16280 X124.266 Y28.966
N16290 X124.200 Y28.780
N16300 ID=1 WHEN $AC_TIMER[1]>=0 DO M89
N16310 X96.18 Y138.97 F1000
N16320 ID=1 WHEN $AC_TIMER[1]>=0 DO M88
N16330 X5.433 Y138.964 F300
N16340 X5.284 Y138.932
N16350 X5.190 Y138.893
N16360 X5.040 Y138.791
N16370 X4.966 Y138.708
N16380 X4.862 Y138.521
N16390 X4.831 Y138.362
N16400 X4.820 Y138.168
N16410 X4.820 Y133.502
N16420 X5.231 Y133.879
N16430 X5.772 Y134.303
N16440 X6.005 Y134.468
N16450 X6.684 Y134.891
N16460 X7.019 Y135.067
N16470 X7.706 Y135.381
N16480 X8.289 Y135.607
N16490 X8.681 Y135.726
N16500 X9.399 Y135.900
N16510 X9.666 Y135.952
N16520 X10.272 Y136.039
N16530 X10.579 Y136.067
N16540 X11.260 Y136.090
N16550 X96.180 Y136.090
N16560 X96.180 Y138.870
N16570 ID=1 WHEN $AC_TIMER[1]>=0 DO M89
N16580 X124.57 Y24.3357 F1000
N16590 ID=1 WHEN $AC_TIMER[1]>=0 DO M88
N16600 X124.013 Y23.877 F300
N16610 X123.443 Y23.479
N16620 X123.204 Y23.335
N16630 X122.609 Y23.015
N16640 X122.352 Y22.892
N16650 X121.696 Y22.626
N16660 X121.306 Y22.501
N16670 X120.680 Y22.340
N16680 X120.422 Y22.286
N16690 X119.489 Y22.141
N16700 X119.098 Y22.111
N16710 X118.600 Y22.100
N16720 X24.820 Y22.100
N16730 X24.820 Y19.220
N16740 X124.248 Y19.220
N16750 X124.451 Y19.230
N16760 X124.544 Y19.256
N16770 X124.570 Y19.439
N16780 X124.570 Y24.236
N16790 ID=1 WHEN $AC_TIMER[1]>=0 DO M89

; Inicio do trecho do raster
; Final do trecho do raster

N16800 M0
; Layer 14
N16810 G1 Z20.160 F1000
N16820 X99.06 Y141.85 F1000
N16830 ID=1 WHEN $AC_TIMER[1]>=0 DO M88
N16840 X5.528 Y141.850 F300
N16850 X5.131 Y141.835
N16860 X4.761 Y141.771
N16870 X4.395 Y141.677
N16880 X4.064 Y141.546
N16890 X3.716 Y141.368
N16900 X3.401 Y141.168
N16910 X3.113 Y140.937
N16920 X2.853 Y140.677
N16930 X2.622 Y140.389
N16940 X2.418 Y140.069
N16950 X2.244 Y139.735
N16960 X2.114 Y139.400
N16970 X2.022 Y139.040
N16980 X1.964 Y138.667
N16990 X1.940 Y138.249
N17000 X1.940 Y44.730
N17010 X4.820 Y44.730
N17020 X4.823 Y126.861
N17030 X4.881 Y127.642
N17040 X4.985 Y128.203
N17050 X5.192 Y128.916
N17060 X5.413 Y129.476
N17070 X5.715 Y130.043
N17080 X6.088 Y130.613
N17090 X6.522 Y131.138
N17100 X7.007 Y131.612
N17110 X7.559 Y132.042
N17120 X8.217 Y132.443
N17130 X8.803 Y132.724
N17140 X9.366 Y132.928
N17150 X10.083 Y133.100
N17160 X10.503 Y133.170
N17170 X10.685 Y133.189
N17180 X11.260 Y133.210
N17190 X99.060 Y133.210
N17200 X99.060 Y141.750
N17210 ID=1 WHEN $AC_TIMER[1]>=0 DO M89
N17220 X128.13 Y121.85 F1000
N17230 ID=1 WHEN $AC_TIMER[1]>=0 DO M88
N17240 X125.250 Y121.850 F300
N17250 X125.245 Y30.155
N17260 X125.213 Y29.653
N17270 X125.103 Y28.933
N17280 X125.059 Y28.734
N17290 X124.844 Y28.053
N17300 X124.646 Y27.574
N17310 X124.312 Y26.972
N17320 X124.034 Y26.570
N17330 X123.834 Y26.320
N17340 X123.567 Y26.032
N17350 X123.197 Y25.701
N17360 X122.531 Y25.209
N17370 X122.163 Y25.003
N17380 X121.463 Y24.693
N17390 X121.283 Y24.628
N17400 X120.803 Y24.488
N17410 X120.178 Y24.370
N17420 X119.706 Y24.320
N17430 X119.270 Y24.310
N17440 X21.940 Y24.310
N17450 X21.940 Y15.670
N17460 X124.993 Y15.670
N17470 X125.456 Y15.694
N17480 X125.838 Y15.756
N17490 X126.199 Y15.863
N17500 X126.632 Y16.058
N17510 X126.741 Y16.119
N17520 X127.161 Y16.435
N17530 X127.381 Y16.649
N17540 X127.646 Y17.010
N17550 X127.808 Y17.302
N17560 X127.938 Y17.623
N17570 X128.030 Y17.939
N17580 X128.115 Y18.513
N17590 X128.130 Y18.797
N17600 X128.130 Y121.750
N17610 ID=1 WHEN $AC_TIMER[1]>=0 DO M89
N17620 X96.18 Y138.97 F1000
N17630 ID=1 WHEN $AC_TIMER[1]>=0 DO M88
N17640 X5.433 Y138.964 F300
N17650 X5.251 Y138.919
N17660 X5.040 Y138.791
N17670 X4.966 Y138.708
N17680 X4.862 Y138.521
N17690 X4.831 Y138.362
N17700 X4.820 Y138.168
N17710 X4.820 Y133.502
N17720 X5.235 Y133.882
N17730 X5.787 Y134.313
N17740 X6.060 Y134.502
N17750 X6.719 Y134.903
N17760 X6.973 Y135.041
N17770 X7.559 Y135.322
N17780 X7.821 Y135.431
N17790 X8.384 Y135.636
N17800 X8.694 Y135.729
N17810 X9.610 Y135.941
N17820 X10.392 Y136.054
N17830 X11.260 Y136.090
N17840 X96.180 Y136.090
N17850 X96.180 Y138.870
N17860 ID=1 WHEN $AC_TIMER[1]>=0 DO M89
N17870 X125.25 Y23.6729 F1000
N17880 ID=1 WHEN $AC_TIMER[1]>=0 DO M88
N17890 X124.906 Y23.382 F300
N17900 X124.240 Y22.891
N17910 X123.938 Y22.696
N17920 X123.329 Y22.370
N17930 X122.452 Y21.988
N17940 X122.090 Y21.863
N17950 X121.610 Y21.723
N17960 X121.336 Y21.657
N17970 X120.478 Y21.505
N17980 X119.775 Y21.441
N17990 X119.270 Y21.430
N18000 X24.820 Y21.430
N18010 X24.820 Y18.550
N18020 X124.918 Y18.550
N18030 X125.213 Y18.578
N18040 X125.250 Y18.871
N18050 X125.250 Y23.573
N18060 ID=1 WHEN $AC_TIMER[1]>=0 DO M89

; Inicio do trecho do raster
; Final do trecho do raster

N18070 M0
; Layer 15
N18080 G1 Z21.600 F1000
N18090 X99.06 Y141.85 F1000
N18100 ID=1 WHEN $AC_TIMER[1]>=0 DO M88
N18110 X5.528 Y141.850 F300
N18120 X5.131 Y141.835
N18130 X4.761 Y141.771
N18140 X4.395 Y141.677
N18150 X4.064 Y141.546
N18160 X3.716 Y141.368
N18170 X3.401 Y141.168
N18180 X3.113 Y140.937
N18190 X2.853 Y140.677
N18200 X2.622 Y140.389
N18210 X2.418 Y140.069
N18220 X2.244 Y139.735
N18230 X2.114 Y139.400
N18240 X2.022 Y139.040
N18250 X1.964 Y138.667
N18260 X1.940 Y138.249
N18270 X1.940 Y44.730
N18280 X4.820 Y44.730
N18290 X4.823 Y126.861
N18300 X4.881 Y127.642
N18310 X4.983 Y128.197
N18320 X5.196 Y128.937
N18330 X5.413 Y129.476
N18340 X5.715 Y130.043
N18350 X6.088 Y130.613
N18360 X6.522 Y131.138
N18370 X7.007 Y131.612
N18380 X7.547 Y132.035
N18390 X8.105 Y132.382
N18400 X8.700 Y132.679
N18410 X9.180 Y132.869
N18420 X9.371 Y132.930
N18430 X10.088 Y133.099
N18440 X10.498 Y133.169
N18450 X10.685 Y133.189
N18460 X11.260 Y133.210
N18470 X99.060 Y133.210
N18480 X99.060 Y141.750
N18490 ID=1 WHEN $AC_TIMER[1]>=0 DO M89
N18500 X128.8 Y121.85 F1000
N18510 ID=1 WHEN $AC_TIMER[1]>=0 DO M88
N18520 X125.920 Y121.850 F300
N18530 X125.915 Y29.495
N18540 X125.883 Y28.970
N18550 X125.773 Y28.260
N18560 X125.724 Y28.049
N18570 X125.462 Y27.238
N18580 X125.237 Y26.738
N18590 X124.970 Y26.274
N18600 X124.704 Y25.900
N18610 X124.385 Y25.518
N18620 X123.890 Y25.048
N18630 X123.470 Y24.718
N18640 X123.317 Y24.613
N18650 X122.695 Y24.254
N18660 X122.181 Y24.036
N18670 X121.511 Y23.826
N18680 X121.292 Y23.776
N18690 X120.552 Y23.666
N18700 X119.940 Y23.640
N18710 X21.940 Y23.640
N18720 X21.940 Y15.000
N18730 X125.994 Y15.007
N18740 X126.522 Y15.088
N18750 X126.882 Y15.197
N18760 X127.219 Y15.339
N18770 X127.570 Y15.547
N18780 X127.820 Y15.746
N18790 X128.055 Y15.982
N18800 X128.266 Y16.256
N18810 X128.492 Y16.657
N18820 X128.625 Y16.986
N18830 X128.703 Y17.273
N18840 X128.777 Y17.693
N18850 X128.800 Y18.129
N18860 X128.800 Y121.750
N18870 ID=1 WHEN $AC_TIMER[1]>=0 DO M89
N18880 X96.18 Y138.97 F1000
N18890 ID=1 WHEN $AC_TIMER[1]>=0 DO M88
N18900 X5.433 Y138.964 F300
N18910 X5.251 Y138.919
N18920 X5.040 Y138.791
N18930 X4.966 Y138.708
N18940 X4.862 Y138.521
N18950 X4.831 Y138.362
N18960 X4.820 Y138.168
N18970 X4.820 Y133.502
N18980 X5.230 Y133.878
N18990 X5.770 Y134.302
N19000 X6.025 Y134.480
N19010 X6.583 Y134.827
N19020 X6.821 Y134.960
N19030 X7.640 Y135.357
N19040 X8.309 Y135.614
N19050 X8.707 Y135.732
N19060 X9.603 Y135.938
N19070 X10.386 Y136.053
N19080 X11.260 Y136.090
N19090 X96.180 Y136.090
N19100 X96.180 Y138.870
N19110 ID=1 WHEN $AC_TIMER[1]>=0 DO M89
N19120 X125.92 Y23.0042 F1000
N19130 ID=1 WHEN $AC_TIMER[1]>=0 DO M88
N19140 X125.669 Y22.783 F300
N19150 X125.100 Y22.343
N19160 X124.756 Y22.118
N19170 X124.134 Y21.759
N19180 X123.820 Y21.603
N19190 X123.306 Y21.385
N19200 X123.042 Y21.288
N19210 X122.155 Y21.019
N19220 X121.715 Y20.927
N19230 X120.975 Y20.817
N19240 X120.672 Y20.788
N19250 X119.940 Y20.760
N19260 X24.820 Y20.760
N19270 X24.820 Y17.880
N19280 X125.775 Y17.887
N19290 X125.890 Y17.907
N19300 X125.910 Y18.021
N19310 X125.920 Y18.206
N19320 X125.920 Y22.904
N19330 ID=1 WHEN $AC_TIMER[1]>=0 DO M89

; Inicio do trecho do raster
; Final do trecho do raster

N19340 M0
; Layer 16
N19350 G1 Z23.040 F1000
N19360 X99.06 Y141.85 F1000
N19370 ID=1 WHEN $AC_TIMER[1]>=0 DO M88
N19380 X5.528 Y141.850 F300
N19390 X5.131 Y141.835
N19400 X4.761 Y141.771
N19410 X4.395 Y141.677
N19420 X4.064 Y141.546
N19430 X3.716 Y141.368
N19440 X3.401 Y141.168
N19450 X3.113 Y140.937
N19460 X2.853 Y140.677
N19470 X2.622 Y140.389
N19480 X2.418 Y140.069
N19490 X2.244 Y139.735
N19500 X2.114 Y139.400
N19510 X2.022 Y139.040
N19520 X1.964 Y138.667
N19530 X1.940 Y138.249
N19540 X1.940 Y44.730
N19550 X4.820 Y44.730
N19560 X4.822 Y126.851
N19570 X4.867 Y127.523
N19580 X4.947 Y128.033
N19590 X4.987 Y128.211
N19600 X5.199 Y128.928
N19610 X5.339 Y129.308
N19620 X5.421 Y129.490
N19630 X5.781 Y130.152
N19640 X6.088 Y130.613
N19650 X6.522 Y131.138
N19660 X7.007 Y131.612
N19670 X7.553 Y132.039
N19680 X8.230 Y132.455
N19690 X8.700 Y132.679
N19700 X9.180 Y132.869
N19710 X9.376 Y132.931
N19720 X10.092 Y133.098
N19730 X10.492 Y133.168
N19740 X10.685 Y133.189
N19750 X11.260 Y133.210
N19760 X99.060 Y133.210
N19770 X99.060 Y141.750
N19780 ID=1 WHEN $AC_TIMER[1]>=0 DO M89
N19790 X123.987 Y23.9429 F1000
N19800 ID=1 WHEN $AC_TIMER[1]>=0 DO M88
N19810 X123.347 Y23.576 F300
N19820 X122.787 Y23.336
N19830 X122.604 Y23.272
N19840 X121.965 Y23.106
N19850 X121.092 Y22.982
N19860 X120.620 Y22.960
N19870 X21.940 Y22.960
N19880 X21.940 Y14.320
N19890 X126.346 Y14.320
N19900 X126.655 Y14.335
N19910 X127.183 Y14.416
N19920 X127.671 Y14.569
N19930 X128.028 Y14.737
N19940 X128.318 Y14.935
N19950 X128.484 Y15.070
N19960 X128.725 Y15.312
N19970 X128.943 Y15.596
N19980 X129.200 Y16.050
N19990 X129.353 Y16.497
N20000 X129.430 Y16.881
N20010 X129.470 Y17.469
N20020 X129.470 Y121.850
N20030 X126.590 Y121.850
N20040 X126.588 Y28.866
N20050 X126.558 Y28.286
N20060 X126.537 Y28.102
N20070 X126.407 Y27.425
N20080 X126.257 Y26.885
N20090 X126.169 Y26.649
N20100 X125.922 Y26.098
N20110 X125.824 Y25.912
N20120 X125.564 Y25.492
N20130 X125.456 Y25.339
N20140 X124.939 Y24.723
N20150 X124.669 Y24.463
N20160 X124.527 Y24.343
N20170 X124.067 Y24.002
N20180 ID=1 WHEN $AC_TIMER[1]>=0 DO M89
N20190 X96.18 Y138.97 F1000
N20200 ID=1 WHEN $AC_TIMER[1]>=0 DO M88
N20210 X5.433 Y138.964 F300
N20220 X5.251 Y138.919
N20230 X5.040 Y138.791
N20240 X4.966 Y138.708
N20250 X4.862 Y138.521
N20260 X4.831 Y138.362
N20270 X4.820 Y138.168
N20280 X4.820 Y133.502
N20290 X5.233 Y133.880
N20300 X5.778 Y134.307
N20310 X6.045 Y134.492
N20320 X6.722 Y134.908
N20330 X6.991 Y135.055
N20340 X7.640 Y135.357
N20350 X8.314 Y135.616
N20360 X8.719 Y135.735
N20370 X9.595 Y135.935
N20380 X10.188 Y136.032
N20390 X10.579 Y136.067
N20400 X11.260 Y136.090
N20410 X96.180 Y136.090
N20420 X96.180 Y138.870
N20430 ID=1 WHEN $AC_TIMER[1]>=0 DO M89
N20440 X126.59 Y22.3302 F1000
N20450 ID=1 WHEN $AC_TIMER[1]>=0 DO M88
N20460 X126.387 Y22.144 F300
N20470 X125.701 Y21.629
N20480 X125.418 Y21.444
N20490 X124.778 Y21.077
N20500 X124.482 Y20.929
N20510 X123.741 Y20.619
N20520 X123.328 Y20.485
N20530 X122.688 Y20.319
N20540 X122.371 Y20.255
N20550 X121.498 Y20.131
N20560 X120.620 Y20.080
N20570 X24.820 Y20.080
N20580 X24.820 Y17.200
N20590 X126.365 Y17.204
N20600 X126.566 Y17.248
N20610 X126.590 Y17.568
N20620 X126.590 Y22.230
N20630 ID=1 WHEN $AC_TIMER[1]>=0 DO M89

; Inicio do trecho do raster
; Final do trecho do raster

N20640 M0
; Layer 17
N20650 G1 Z24.480 F1000
N20660 X99.06 Y141.85 F1000
N20670 ID=1 WHEN $AC_TIMER[1]>=0 DO M88
N20680 X5.528 Y141.850 F300
N20690 X5.131 Y141.835
N20700 X4.761 Y141.771
N20710 X4.395 Y141.677
N20720 X4.064 Y141.546
N20730 X3.716 Y141.368
N20740 X3.401 Y141.168
N20750 X3.113 Y140.937
N20760 X2.853 Y140.677
N20770 X2.622 Y140.389
N20780 X2.418 Y140.069
N20790 X2.244 Y139.735
N20800 X2.114 Y139.400
N20810 X2.022 Y139.040
N20820 X1.964 Y138.667
N20830 X1.940 Y138.249
N20840 X1.940 Y44.730
N20850 X4.820 Y44.730
N20860 X4.822 Y126.851
N20870 X4.867 Y127.523
N20880 X4.947 Y128.033
N20890 X4.987 Y128.211
N20900 X5.199 Y128.928
N20910 X5.339 Y129.308
N20920 X5.413 Y129.476
N20930 X5.715 Y130.043
N20940 X6.088 Y130.613
N20950 X6.522 Y131.138
N20960 X7.007 Y131.612
N20970 X7.547 Y132.035
N20980 X8.116 Y132.388
N20990 X8.830 Y132.737
N21000 X9.354 Y132.925
N21010 X9.974 Y133.079
N21020 X10.494 Y133.169
N21030 X10.685 Y133.189
N21040 X11.260 Y133.210
N21050 X99.060 Y133.210
N21060 X99.060 Y141.750
N21070 ID=1 WHEN $AC_TIMER[1]>=0 DO M89
N21080 X130.14 Y121.85 F1000
N21090 ID=1 WHEN $AC_TIMER[1]>=0 DO M88
N21100 X127.260 Y121.850 F300
N21110 X127.259 Y28.217
N21120 X127.229 Y27.640
N21130 X127.208 Y27.437
N21140 X127.076 Y26.738
N21150 X126.926 Y26.208
N21160 X126.858 Y26.020
N21170 X126.563 Y25.373
N21180 X126.253 Y24.843
N21190 X126.116 Y24.648
N21200 X125.609 Y24.053
N21210 X125.230 Y23.698
N21220 X124.675 Y23.274
N21230 X124.069 Y22.932
N21240 X123.890 Y22.845
N21250 X123.272 Y22.604
N21260 X122.689 Y22.445
N21270 X121.927 Y22.322
N21280 X121.290 Y22.290
N21290 X21.940 Y22.290
N21300 X21.940 Y13.650
N21310 X127.017 Y13.650
N21320 X127.334 Y13.665
N21330 X127.893 Y13.753
N21340 X128.153 Y13.829
N21350 X128.496 Y13.964
N21360 X128.728 Y14.083
N21370 X128.962 Y14.236
N21380 X129.228 Y14.466
N21390 X129.393 Y14.637
N21400 X129.605 Y14.907
N21410 X129.867 Y15.383
N21420 X130.022 Y15.842
N21430 X130.117 Y16.359
N21440 X130.140 Y16.789
N21450 X130.140 Y121.750
N21460 ID=1 WHEN $AC_TIMER[1]>=0 DO M89
N21470 X96.18 Y138.97 F1000
N21480 ID=1 WHEN $AC_TIMER[1]>=0 DO M88
N21490 X5.433 Y138.964 F300
N21500 X5.251 Y138.919
N21510 X5.040 Y138.791
N21520 X4.966 Y138.708
N21530 X4.862 Y138.521
N21540 X4.831 Y138.362
N21550 X4.820 Y138.168
N21560 X4.820 Y133.502
N21570 X5.230 Y133.878
N21580 X5.770 Y134.302
N21590 X6.029 Y134.482
N21600 X6.598 Y134.835
N21610 X6.852 Y134.976
N21620 X7.567 Y135.325
N21630 X7.855 Y135.447
N21640 X8.379 Y135.635
N21650 X8.662 Y135.721
N21660 X9.483 Y135.917
N21670 X10.193 Y136.033
N21680 X10.579 Y136.067
N21690 X11.260 Y136.090
N21700 X96.180 Y136.090
N21710 X96.180 Y138.870
N21720 ID=1 WHEN $AC_TIMER[1]>=0 DO M89
N21730 X127.26 Y21.6534 F1000
N21740 ID=1 WHEN $AC_TIMER[1]>=0 DO M88
N21750 X126.978 Y21.409 F300
N21760 X126.423 Y20.985
N21770 X126.088 Y20.764
N21780 X125.330 Y20.343
N21790 X124.935 Y20.161
N21800 X124.317 Y19.921
N21810 X124.030 Y19.826
N21820 X123.448 Y19.667
N21830 X123.149 Y19.602
N21840 X122.387 Y19.479
N21850 X122.072 Y19.446
N21860 X121.290 Y19.410
N21870 X24.820 Y19.410
N21880 X24.820 Y16.530
N21890 X127.043 Y16.534
N21900 X127.227 Y16.567
N21910 X127.251 Y16.697
N21920 X127.260 Y16.866
N21930 X127.260 Y21.553
N21940 ID=1 WHEN $AC_TIMER[1]>=0 DO M89

; Inicio do trecho do raster
; Final do trecho do raster

N21950 M0
; Layer 18
N21960 G1 Z25.920 F1000
N21970 X99.06 Y141.85 F1000
N21980 ID=1 WHEN $AC_TIMER[1]>=0 DO M88
N21990 X5.528 Y141.850 F300
N22000 X5.131 Y141.835
N22010 X4.761 Y141.771
N22020 X4.395 Y141.677
N22030 X4.064 Y141.546
N22040 X3.716 Y141.368
N22050 X3.401 Y141.168
N22060 X3.113 Y140.937
N22070 X2.853 Y140.677
N22080 X2.622 Y140.389
N22090 X2.418 Y140.069
N22100 X2.244 Y139.735
N22110 X2.114 Y139.400
N22120 X2.022 Y139.040
N22130 X1.964 Y138.667
N22140 X1.940 Y138.249
N22150 X1.940 Y44.730
N22160 X4.820 Y44.730
N22170 X4.822 Y126.851
N22180 X4.871 Y127.544
N22190 X4.981 Y128.184
N22200 X5.203 Y128.950
N22210 X5.413 Y129.476
N22220 X5.715 Y130.043
N22230 X6.088 Y130.613
N22240 X6.522 Y131.138
N22250 X7.007 Y131.612
N22260 X7.547 Y132.035
N22270 X8.105 Y132.382
N22280 X8.700 Y132.679
N22290 X9.180 Y132.869
N22300 X9.354 Y132.925
N22310 X9.974 Y133.079
N22320 X10.494 Y133.169
N22330 X10.685 Y133.189
N22340 X11.260 Y133.210
N22350 X99.060 Y133.210
N22360 X99.060 Y141.750
N22370 ID=1 WHEN $AC_TIMER[1]>=0 DO M89
N22380 X130.81 Y121.85 F1000
N22390 ID=1 WHEN $AC_TIMER[1]>=0 DO M88
N22400 X127.930 Y121.850 F300
N22410 X127.929 Y27.539
N22420 X127.919 Y27.259
N22430 X127.882 Y26.792
N22440 X127.792 Y26.232
N22450 X127.749 Y26.044
N22460 X127.589 Y25.514
N22470 X127.297 Y24.819
N22480 X126.927 Y24.179
N22490 X126.788 Y23.980
N22500 X126.308 Y23.412
N22510 X126.015 Y23.130
N22520 X125.495 Y22.710
N22530 X125.294 Y22.574
N22540 X124.833 Y22.308
N22550 X124.213 Y22.028
N22560 X124.012 Y21.954
N22570 X123.339 Y21.772
N22580 X122.597 Y21.652
N22590 X121.960 Y21.620
N22600 X21.940 Y21.620
N22610 X21.940 Y12.980
N22620 X127.682 Y12.980
N22630 X128.125 Y13.003
N22640 X128.527 Y13.075
N22650 X128.877 Y13.174
N22660 X129.422 Y13.428
N22670 X129.512 Y13.484
N22680 X129.904 Y13.803
N22690 X130.063 Y13.967
N22700 X130.275 Y14.237
N22710 X130.542 Y14.722
N22720 X130.723 Y15.263
N22730 X130.786 Y15.666
N22740 X130.810 Y16.109
N22750 X130.810 Y121.750
N22760 ID=1 WHEN $AC_TIMER[1]>=0 DO M89
N22770 X96.18 Y138.97 F1000
N22780 ID=1 WHEN $AC_TIMER[1]>=0 DO M88
N22790 X5.433 Y138.964 F300
N22800 X5.251 Y138.919
N22810 X5.040 Y138.791
N22820 X4.966 Y138.708
N22830 X4.862 Y138.521
N22840 X4.831 Y138.362
N22850 X4.820 Y138.168
N22860 X4.820 Y133.502
N22870 X5.230 Y133.878
N22880 X5.770 Y134.302
N22890 X6.025 Y134.480
N22900 X6.583 Y134.827
N22910 X6.821 Y134.960
N22920 X7.640 Y135.357
N22930 X8.467 Y135.665
N22940 X9.483 Y135.917
N22950 X10.193 Y136.033
N22960 X10.579 Y136.067
N22970 X11.260 Y136.090
N22980 X96.180 Y136.090
N22990 X96.180 Y138.870
N23000 ID=1 WHEN $AC_TIMER[1]>=0 DO M89
N23010 X127.93 Y20.9875 F1000
N23020 ID=1 WHEN $AC_TIMER[1]>=0 DO M88
N23030 X127.824 Y20.889 F300
N23040 X127.109 Y20.325
N23050 X126.733 Y20.079
N23060 X126.272 Y19.813
N23070 X126.018 Y19.683
N23080 X125.200 Y19.322
N23090 X124.767 Y19.175
N23100 X124.093 Y18.992
N23110 X123.797 Y18.928
N23120 X123.055 Y18.809
N23130 X122.742 Y18.776
N23140 X121.960 Y18.740
N23150 X24.820 Y18.740
N23160 X24.820 Y15.860
N23170 X127.606 Y15.860
N23180 X127.874 Y15.884
N23190 X127.898 Y15.895
N23200 X127.918 Y15.966
N23210 X127.930 Y16.188
N23220 X127.930 Y20.888
N23230 ID=1 WHEN $AC_TIMER[1]>=0 DO M89

; Inicio do trecho do raster
; Final do trecho do raster

N23240 M0
; Layer 19
N23250 G1 Z27.360 F1000
N23260 X99.06 Y141.85 F1000
N23270 ID=1 WHEN $AC_TIMER[1]>=0 DO M88
N23280 X5.528 Y141.850 F300
N23290 X5.131 Y141.835
N23300 X4.761 Y141.771
N23310 X4.395 Y141.677
N23320 X4.064 Y141.546
N23330 X3.716 Y141.368
N23340 X3.401 Y141.168
N23350 X3.113 Y140.937
N23360 X2.853 Y140.677
N23370 X2.622 Y140.389
N23380 X2.418 Y140.069
N23390 X2.244 Y139.735
N23400 X2.114 Y139.400
N23410 X2.022 Y139.040
N23420 X1.964 Y138.667
N23430 X1.940 Y138.249
N23440 X1.940 Y44.730
N23450 X4.820 Y44.730
N23460 X4.822 Y126.845
N23470 X4.867 Y127.523
N23480 X4.984 Y128.200
N23490 X5.208 Y128.972
N23500 X5.413 Y129.476
N23510 X5.715 Y130.043
N23520 X6.088 Y130.613
N23530 X6.522 Y131.138
N23540 X7.007 Y131.612
N23550 X7.557 Y132.041
N23560 X8.251 Y132.465
N23570 X8.700 Y132.679
N23580 X9.180 Y132.869
N23590 X9.366 Y132.928
N23600 X10.135 Y133.112
N23610 X10.685 Y133.189
N23620 X11.260 Y133.210
N23630 X99.060 Y133.210
N23640 X99.060 Y141.750
N23650 ID=1 WHEN $AC_TIMER[1]>=0 DO M89
N23660 X131.48 Y121.85 F1000
N23670 ID=1 WHEN $AC_TIMER[1]>=0 DO M88
N23680 X128.600 Y121.850 F300
N23690 X128.599 Y26.872
N23700 X128.589 Y26.572
N23710 X128.552 Y26.122
N23720 X128.462 Y25.562
N23730 X128.419 Y25.374
N23740 X128.212 Y24.713
N23750 X127.993 Y24.196
N23760 X127.747 Y23.745
N23770 X127.384 Y23.205
N23780 X126.970 Y22.723
N23790 X126.567 Y22.348
N23800 X126.137 Y22.018
N23810 X125.989 Y21.918
N23820 X125.444 Y21.602
N23830 X125.061 Y21.423
N23840 X124.468 Y21.218
N23850 X124.009 Y21.102
N23860 X123.267 Y20.982
N23870 X122.630 Y20.950
N23880 X21.940 Y20.950
N23890 X21.940 Y12.310
N23900 X128.353 Y12.310
N23910 X128.810 Y12.334
N23920 X129.155 Y12.394
N23930 X129.479 Y12.478
N23940 X129.906 Y12.657
N23950 X130.268 Y12.876
N23960 X130.503 Y13.062
N23970 X130.735 Y13.299
N23980 X130.965 Y13.593
N23990 X131.097 Y13.809
N24000 X131.253 Y14.148
N24010 X131.391 Y14.589
N24020 X131.465 Y15.106
N24030 X131.480 Y15.433
N24040 X131.480 Y121.750
N24050 ID=1 WHEN $AC_TIMER[1]>=0 DO M89
N24060 X96.18 Y138.97 F1000
N24070 ID=1 WHEN $AC_TIMER[1]>=0 DO M88
N24080 X5.433 Y138.964 F300
N24090 X5.251 Y138.919
N24100 X5.040 Y138.791
N24110 X4.966 Y138.708
N24120 X4.862 Y138.521
N24130 X4.831 Y138.362
N24140 X4.820 Y138.168
N24150 X4.820 Y133.502
N24160 X5.234 Y133.882
N24170 X5.784 Y134.311
N24180 X6.055 Y134.499
N24190 X6.749 Y134.923
N24200 X7.014 Y135.066
N24210 X7.640 Y135.357
N24220 X8.304 Y135.612
N24230 X8.696 Y135.729
N24240 X9.465 Y135.913
N24250 X9.738 Y135.965
N24260 X10.287 Y136.041
N24270 X10.579 Y136.067
N24280 X11.260 Y136.090
N24290 X96.180 Y136.090
N24300 X96.180 Y138.870
N24310 ID=1 WHEN $AC_TIMER[1]>=0 DO M89
N24320 X128.6 Y20.3058 F1000
N24330 ID=1 WHEN $AC_TIMER[1]>=0 DO M88
N24340 X128.320 Y20.063 F300
N24350 X127.598 Y19.529
N24360 X126.889 Y19.111
N24370 X126.282 Y18.814
N24380 X126.001 Y18.701
N24390 X125.175 Y18.426
N24400 X124.467 Y18.258
N24410 X123.725 Y18.139
N24420 X123.412 Y18.106
N24430 X122.630 Y18.070
N24440 X24.820 Y18.070
N24450 X24.820 Y15.190
N24460 X128.278 Y15.190
N24470 X128.573 Y15.226
N24480 X128.600 Y15.500
N24490 X128.600 Y20.206
N24500 ID=1 WHEN $AC_TIMER[1]>=0 DO M89

; Inicio do trecho do raster
; Final do trecho do raster

N24510 M0
; Layer 20
N24520 G1 Z28.800 F1000
N24530 X99.06 Y141.85 F1000
N24540 ID=1 WHEN $AC_TIMER[1]>=0 DO M88
N24550 X5.528 Y141.850 F300
N24560 X5.131 Y141.835
N24570 X4.761 Y141.771
N24580 X4.395 Y141.677
N24590 X4.064 Y141.546
N24600 X3.716 Y141.368
N24610 X3.401 Y141.168
N24620 X3.113 Y140.937
N24630 X2.853 Y140.677
N24640 X2.622 Y140.389
N24650 X2.418 Y140.069
N24660 X2.244 Y139.735
N24670 X2.114 Y139.400
N24680 X2.022 Y139.040
N24690 X1.964 Y138.667
N24700 X1.940 Y138.249
N24710 X1.940 Y44.730
N24720 X4.820 Y44.730
N24730 X4.822 Y126.851
N24740 X4.867 Y127.523
N24750 X4.981 Y128.191
N24760 X5.158 Y128.817
N24770 X5.338 Y129.307
N24780 X5.413 Y129.476
N24790 X5.715 Y130.043
N24800 X6.088 Y130.613
N24810 X6.522 Y131.138
N24820 X7.007 Y131.612
N24830 X7.547 Y132.035
N24840 X8.105 Y132.382
N24850 X8.700 Y132.679
N24860 X9.180 Y132.869
N24870 X9.371 Y132.929
N24880 X10.140 Y133.111
N24890 X10.685 Y133.189
N24900 X11.260 Y133.210
N24910 X99.060 Y133.210
N24920 X99.060 Y141.750
N24930 ID=1 WHEN $AC_TIMER[1]>=0 DO M89
N24940 X132.15 Y121.85 F1000
N24950 ID=1 WHEN $AC_TIMER[1]>=0 DO M88
N24960 X129.270 Y121.850 F300
N24970 X129.268 Y26.174
N24980 X129.222 Y25.451
N24990 X129.132 Y24.891
N25000 X129.089 Y24.704
N25010 X128.878 Y24.032
N25020 X128.617 Y23.424
N25030 X128.414 Y23.054
N25040 X128.078 Y22.565
N25050 X127.724 Y22.138
N25060 X127.237 Y21.678
N25070 X126.807 Y21.348
N25080 X126.632 Y21.233
N25090 X125.952 Y20.853
N25100 X125.740 Y20.756
N25110 X125.176 Y20.555
N25120 X124.826 Y20.455
N25130 X124.637 Y20.415
N25140 X123.805 Y20.301
N25150 X123.300 Y20.280
N25160 X21.940 Y20.280
N25170 X21.940 Y11.640
N25180 X129.023 Y11.640
N25190 X129.486 Y11.664
N25200 X129.868 Y11.726
N25210 X130.359 Y11.881
N25220 X130.645 Y12.018
N25230 X130.996 Y12.243
N25240 X131.237 Y12.445
N25250 X131.406 Y12.620
N25260 X131.625 Y12.908
N25270 X131.809 Y13.217
N25280 X131.979 Y13.627
N25290 X132.065 Y13.925
N25300 X132.119 Y14.242
N25310 X132.150 Y14.772
N25320 X132.150 Y121.750
N25330 ID=1 WHEN $AC_TIMER[1]>=0 DO M89
N25340 X96.18 Y138.97 F1000
N25350 ID=1 WHEN $AC_TIMER[1]>=0 DO M88
N25360 X5.433 Y138.964 F300
N25370 X5.251 Y138.919
N25380 X5.040 Y138.791
N25390 X4.966 Y138.708
N25400 X4.862 Y138.521
N25410 X4.831 Y138.362
N25420 X4.820 Y138.168
N25430 X4.820 Y133.502
N25440 X5.230 Y133.878
N25450 X5.770 Y134.302
N25460 X6.025 Y134.480
N25470 X6.583 Y134.827
N25480 X6.821 Y134.960
N25490 X7.640 Y135.357
N25500 X8.309 Y135.614
N25510 X8.707 Y135.732
N25520 X9.476 Y135.914
N25530 X9.734 Y135.963
N25540 X10.279 Y136.040
N25550 X10.579 Y136.067
N25560 X11.260 Y136.090
N25570 X96.180 Y136.090
N25580 X96.180 Y138.870
N25590 ID=1 WHEN $AC_TIMER[1]>=0 DO M89
N25600 X129.27 Y19.6365 F1000
N25610 ID=1 WHEN $AC_TIMER[1]>=0 DO M88
N25620 X128.990 Y19.393 F300
N25630 X128.390 Y18.942
N25640 X128.037 Y18.719
N25650 X127.149 Y18.233
N25660 X126.704 Y18.042
N25670 X125.967 Y17.786
N25680 X125.240 Y17.599
N25690 X124.195 Y17.448
N25700 X123.928 Y17.424
N25710 X123.300 Y17.400
N25720 X24.820 Y17.400
N25730 X24.820 Y14.520
N25740 X128.948 Y14.520
N25750 X129.200 Y14.536
N25760 X129.244 Y14.549
N25770 X129.270 Y14.855
N25780 X129.270 Y19.537
N25790 ID=1 WHEN $AC_TIMER[1]>=0 DO M89

; Inicio do trecho do raster
; Final do trecho do raster

N25800 M0
; Layer 21
N25810 G1 Z30.240 F1000
N25820 X99.06 Y141.85 F1000
N25830 ID=1 WHEN $AC_TIMER[1]>=0 DO M88
N25840 X5.528 Y141.850 F300
N25850 X5.131 Y141.835
N25860 X4.761 Y141.771
N25870 X4.395 Y141.677
N25880 X4.064 Y141.546
N25890 X3.716 Y141.368
N25900 X3.401 Y141.168
N25910 X3.113 Y140.937
N25920 X2.853 Y140.677
N25930 X2.622 Y140.389
N25940 X2.418 Y140.069
N25950 X2.244 Y139.735
N25960 X2.114 Y139.400
N25970 X2.022 Y139.040
N25980 X1.964 Y138.667
N25990 X1.940 Y138.249
N26000 X1.940 Y44.730
N26010 X4.820 Y44.730
N26020 X4.822 Y126.851
N26030 X4.867 Y127.523
N26040 X4.981 Y128.191
N26050 X5.158 Y128.817
N26060 X5.338 Y129.307
N26070 X5.413 Y129.476
N26080 X5.715 Y130.043
N26090 X6.088 Y130.613
N26100 X6.522 Y131.138
N26110 X7.007 Y131.612
N26120 X7.547 Y132.035
N26130 X8.105 Y132.382
N26140 X8.700 Y132.679
N26150 X9.180 Y132.869
N26160 X9.371 Y132.929
N26170 X10.140 Y133.111
N26180 X10.685 Y133.189
N26190 X11.260 Y133.210
N26200 X99.060 Y133.210
N26210 X99.060 Y141.750
N26220 ID=1 WHEN $AC_TIMER[1]>=0 DO M89
N26230 X132.83 Y121.85 F1000
N26240 ID=1 WHEN $AC_TIMER[1]>=0 DO M88
N26250 X129.950 Y121.850 F300
N26260 X129.946 Y25.479
N26270 X129.892 Y24.782
N26280 X129.767 Y24.063
N26290 X129.592 Y23.474
N26300 X129.342 Y22.864
N26310 X129.256 Y22.689
N26320 X128.939 Y22.163
N26330 X128.539 Y21.633
N26340 X128.394 Y21.468
N26350 X127.958 Y21.049
N26360 X127.660 Y20.806
N26370 X127.270 Y20.536
N26380 X126.857 Y20.294
N26390 X126.410 Y20.086
N26400 X125.846 Y19.885
N26410 X125.496 Y19.785
N26420 X124.735 Y19.652
N26430 X123.970 Y19.610
N26440 X21.940 Y19.610
N26450 X21.940 Y10.970
N26460 X129.949 Y10.977
N26470 X130.161 Y10.995
N26480 X130.538 Y11.056
N26490 X130.918 Y11.169
N26500 X131.184 Y11.279
N26510 X131.486 Y11.447
N26520 X131.865 Y11.739
N26530 X132.084 Y11.952
N26540 X132.295 Y12.236
N26550 X132.490 Y12.557
N26560 X132.672 Y13.002
N26570 X132.729 Y13.225
N26580 X132.815 Y13.757
N26590 X132.830 Y14.092
N26600 X132.830 Y121.750
N26610 ID=1 WHEN $AC_TIMER[1]>=0 DO M89
N26620 X96.18 Y138.97 F1000
N26630 ID=1 WHEN $AC_TIMER[1]>=0 DO M88
N26640 X5.433 Y138.964 F300
N26650 X5.251 Y138.919
N26660 X5.040 Y138.791
N26670 X4.966 Y138.708
N26680 X4.862 Y138.521
N26690 X4.831 Y138.362
N26700 X4.820 Y138.168
N26710 X4.820 Y133.502
N26720 X5.230 Y133.878
N26730 X5.770 Y134.302
N26740 X6.025 Y134.480
N26750 X6.583 Y134.827
N26760 X6.821 Y134.960
N26770 X7.640 Y135.357
N26780 X8.309 Y135.614
N26790 X8.707 Y135.732
N26800 X9.476 Y135.914
N26810 X9.734 Y135.963
N26820 X10.279 Y136.040
N26830 X10.579 Y136.067
N26840 X11.260 Y136.090
N26850 X96.180 Y136.090
N26860 X96.180 Y138.870
N26870 ID=1 WHEN $AC_TIMER[1]>=0 DO M89
N26880 X129.95 Y18.9786 F1000
N26890 ID=1 WHEN $AC_TIMER[1]>=0 DO M88
N26900 X129.776 Y18.815 F300
N26910 X129.299 Y18.438
N26920 X128.728 Y18.053
N26930 X128.316 Y17.810
N26940 X128.071 Y17.682
N26950 X127.374 Y17.372
N26960 X126.637 Y17.116
N26970 X126.287 Y17.016
N26980 X125.991 Y16.948
N26990 X125.230 Y16.815
N27000 X124.894 Y16.777
N27010 X123.970 Y16.730
N27020 X24.820 Y16.730
N27030 X24.820 Y13.850
N27040 X129.819 Y13.857
N27050 X129.917 Y13.876
N27060 X129.950 Y14.156
N27070 X129.950 Y18.879
N27080 ID=1 WHEN $AC_TIMER[1]>=0 DO M89

; Inicio do trecho do raster
; Final do trecho do raster

N27090 M0
; Layer 22
N27100 G1 Z31.680 F1000
N27110 X99.06 Y141.85 F1000
N27120 ID=1 WHEN $AC_TIMER[1]>=0 DO M88
N27130 X5.528 Y141.850 F300
N27140 X5.131 Y141.835
N27150 X4.761 Y141.771
N27160 X4.395 Y141.677
N27170 X4.064 Y141.546
N27180 X3.716 Y141.368
N27190 X3.401 Y141.168
N27200 X3.113 Y140.937
N27210 X2.853 Y140.677
N27220 X2.622 Y140.389
N27230 X2.418 Y140.069
N27240 X2.244 Y139.735
N27250 X2.114 Y139.400
N27260 X2.022 Y139.040
N27270 X1.964 Y138.667
N27280 X1.940 Y138.249
N27290 X1.940 Y44.730
N27300 X4.820 Y44.730
N27310 X4.822 Y126.851
N27320 X4.867 Y127.523
N27330 X4.947 Y128.033
N27340 X4.986 Y128.208
N27350 X5.215 Y128.984
N27360 X5.413 Y129.476
N27370 X5.715 Y130.043
N27380 X6.088 Y130.613
N27390 X6.522 Y131.138
N27400 X7.007 Y131.612
N27410 X7.417 Y131.942
N27420 X7.561 Y132.044
N27430 X8.141 Y132.403
N27440 X8.300 Y132.489
N27450 X8.852 Y132.740
N27460 X9.354 Y132.925
N27470 X9.974 Y133.079
N27480 X10.494 Y133.169
N27490 X10.685 Y133.189
N27500 X11.260 Y133.210
N27510 X99.060 Y133.210
N27520 X99.060 Y141.750
N27530 ID=1 WHEN $AC_TIMER[1]>=0 DO M89
N27540 X133.5 Y121.85 F1000
N27550 ID=1 WHEN $AC_TIMER[1]>=0 DO M88
N27560 X130.620 Y121.850 F300
N27570 X130.618 Y24.836
N27580 X130.588 Y24.256
N27590 X130.567 Y24.072
N27600 X130.437 Y23.395
N27610 X130.287 Y22.855
N27620 X130.022 Y22.218
N27630 X129.922 Y22.011
N27640 X129.597 Y21.464
N27650 X129.391 Y21.180
N27660 X129.008 Y20.742
N27670 X128.718 Y20.452
N27680 X128.573 Y20.325
N27690 X128.062 Y19.941
N27700 X127.784 Y19.767
N27710 X127.274 Y19.497
N27720 X127.090 Y19.416
N27730 X126.526 Y19.215
N27740 X126.176 Y19.115
N27750 X125.990 Y19.075
N27760 X125.163 Y18.961
N27770 X124.640 Y18.940
N27780 X21.940 Y18.940
N27790 X21.940 Y10.300
N27800 X130.636 Y10.307
N27810 X130.829 Y10.324
N27820 X131.216 Y10.386
N27830 X131.582 Y10.497
N27840 X131.945 Y10.649
N27850 X132.041 Y10.702
N27860 X132.344 Y10.906
N27870 X132.505 Y11.032
N27880 X132.755 Y11.282
N27890 X133.032 Y11.657
N27900 X133.143 Y11.852
N27910 X133.348 Y12.351
N27920 X133.399 Y12.552
N27930 X133.485 Y13.078
N27940 X133.500 Y13.421
N27950 X133.500 Y121.750
N27960 ID=1 WHEN $AC_TIMER[1]>=0 DO M89
N27970 X96.18 Y138.97 F1000
N27980 ID=1 WHEN $AC_TIMER[1]>=0 DO M88
N27990 X5.433 Y138.964 F300
N28000 X5.251 Y138.919
N28010 X5.040 Y138.791
N28020 X4.966 Y138.708
N28030 X4.862 Y138.521
N28040 X4.831 Y138.362
N28050 X4.820 Y138.168
N28060 X4.820 Y133.502
N28070 X5.201 Y133.855
N28080 X5.895 Y134.393
N28090 X6.779 Y134.941
N28100 X7.109 Y135.111
N28110 X7.854 Y135.441
N28120 X8.356 Y135.627
N28130 X8.662 Y135.721
N28140 X9.483 Y135.917
N28150 X10.193 Y136.033
N28160 X10.579 Y136.067
N28170 X11.260 Y136.090
N28180 X96.180 Y136.090
N28190 X96.180 Y138.870
N28200 ID=1 WHEN $AC_TIMER[1]>=0 DO M89
N28210 X130.613 Y18.2833 F1000
N28220 ID=1 WHEN $AC_TIMER[1]>=0 DO M88
N28230 X130.303 Y18.022 F300
N28240 X129.586 Y17.497
N28250 X129.131 Y17.222
N28260 X128.440 Y16.864
N28270 X128.054 Y16.702
N28280 X127.317 Y16.446
N28290 X126.596 Y16.260
N28300 X125.556 Y16.108
N28310 X125.280 Y16.084
N28320 X124.640 Y16.060
N28330 X24.820 Y16.060
N28340 X24.820 Y13.180
N28350 X130.493 Y13.187
N28360 X130.589 Y13.213
N28370 X130.615 Y13.375
N28380 X130.614 Y18.183
N28390 ID=1 WHEN $AC_TIMER[1]>=0 DO M89

; Inicio do trecho do raster
; Final do trecho do raster

N28400 M0
; Layer 23
N28410 G1 Z33.120 F1000
N28420 X99.06 Y141.85 F1000
N28430 ID=1 WHEN $AC_TIMER[1]>=0 DO M88
N28440 X5.528 Y141.850 F300
N28450 X5.131 Y141.835
N28460 X4.761 Y141.771
N28470 X4.395 Y141.677
N28480 X4.064 Y141.546
N28490 X3.716 Y141.368
N28500 X3.401 Y141.168
N28510 X3.113 Y140.937
N28520 X2.853 Y140.677
N28530 X2.622 Y140.389
N28540 X2.418 Y140.069
N28550 X2.244 Y139.735
N28560 X2.114 Y139.400
N28570 X2.022 Y139.040
N28580 X1.964 Y138.667
N28590 X1.940 Y138.249
N28600 X1.940 Y44.730
N28610 X4.820 Y44.730
N28620 X4.822 Y126.845
N28630 X4.867 Y127.523
N28640 X4.981 Y128.191
N28650 X5.158 Y128.817
N28660 X5.338 Y129.307
N28670 X5.423 Y129.495
N28680 X5.815 Y130.209
N28690 X6.088 Y130.613
N28700 X6.522 Y131.138
N28710 X7.007 Y131.612
N28720 X7.547 Y132.035
N28730 X8.105 Y132.382
N28740 X8.700 Y132.679
N28750 X9.180 Y132.869
N28760 X9.354 Y132.925
N28770 X9.974 Y133.079
N28780 X10.494 Y133.169
N28790 X10.685 Y133.189
N28800 X11.260 Y133.210
N28810 X99.060 Y133.210
N28820 X99.060 Y141.750
N28830 ID=1 WHEN $AC_TIMER[1]>=0 DO M89
N28840 X134.17 Y121.85 F1000
N28850 ID=1 WHEN $AC_TIMER[1]>=0 DO M88
N28860 X131.290 Y121.850 F300
N28870 X131.288 Y24.166
N28880 X131.258 Y23.586
N28890 X131.237 Y23.402
N28900 X131.107 Y22.725
N28910 X130.957 Y22.185
N28920 X130.888 Y21.990
N28930 X130.614 Y21.380
N28940 X130.445 Y21.077
N28950 X130.137 Y20.611
N28960 X129.671 Y20.055
N28970 X129.243 Y19.655
N28980 X128.687 Y19.243
N28990 X128.099 Y18.900
N29000 X127.799 Y18.761
N29010 X127.269 Y18.561
N29020 X126.695 Y18.411
N29030 X125.948 Y18.292
N29040 X125.320 Y18.260
N29050 X21.940 Y18.260
N29060 X21.940 Y9.620
N29070 X131.041 Y9.620
N29080 X131.308 Y9.634
N29090 X131.897 Y9.720
N29100 X132.252 Y9.827
N29110 X132.581 Y9.965
N29120 X133.018 Y10.233
N29130 X133.239 Y10.417
N29140 X133.431 Y10.615
N29150 X133.527 Y10.734
N29160 X133.724 Y11.020
N29170 X133.886 Y11.328
N29180 X134.014 Y11.664
N29190 X134.069 Y11.882
N29200 X134.155 Y12.408
N29210 X134.170 Y12.751
N29220 X134.170 Y121.750
N29230 ID=1 WHEN $AC_TIMER[1]>=0 DO M89
N29240 X96.18 Y138.97 F1000
N29250 ID=1 WHEN $AC_TIMER[1]>=0 DO M88
N29260 X5.433 Y138.964 F300
N29270 X5.251 Y138.919
N29280 X5.040 Y138.791
N29290 X4.966 Y138.708
N29300 X4.862 Y138.521
N29310 X4.831 Y138.362
N29320 X4.820 Y138.168
N29330 X4.820 Y133.502
N29340 X5.230 Y133.878
N29350 X5.770 Y134.302
N29360 X6.025 Y134.480
N29370 X6.583 Y134.827
N29380 X6.821 Y134.960
N29390 X7.640 Y135.357
N29400 X8.467 Y135.665
N29410 X9.483 Y135.917
N29420 X10.193 Y136.033
N29430 X10.579 Y136.067
N29440 X11.260 Y136.090
N29450 X96.180 Y136.090
N29460 X96.180 Y138.870
N29470 ID=1 WHEN $AC_TIMER[1]>=0 DO M89
N29480 X131.29 Y17.626 F1000
N29490 ID=1 WHEN $AC_TIMER[1]>=0 DO M88
N29500 X130.957 Y17.340 F300
N29510 X130.401 Y16.929
N29520 X130.138 Y16.755
N29530 X129.550 Y16.412
N29540 X129.010 Y16.148
N29550 X128.285 Y15.866
N29560 X127.996 Y15.774
N29570 X127.422 Y15.624
N29580 X127.147 Y15.567
N29590 X126.401 Y15.448
N29600 X126.096 Y15.416
N29610 X125.320 Y15.380
N29620 X24.820 Y15.380
N29630 X24.820 Y12.500
N29640 X131.023 Y12.503
N29650 X131.258 Y12.537
N29660 X131.290 Y12.814
N29670 X131.290 Y17.526
N29680 ID=1 WHEN $AC_TIMER[1]>=0 DO M89

; Inicio do trecho do raster
; Final do trecho do raster

N29690 M0
; Layer 24
N29700 G1 Z34.560 F1000
N29710 X99.06 Y141.85 F1000
N29720 ID=1 WHEN $AC_TIMER[1]>=0 DO M88
N29730 X5.528 Y141.850 F300
N29740 X5.131 Y141.835
N29750 X4.761 Y141.771
N29760 X4.395 Y141.677
N29770 X4.064 Y141.546
N29780 X3.716 Y141.368
N29790 X3.401 Y141.168
N29800 X3.113 Y140.937
N29810 X2.853 Y140.677
N29820 X2.622 Y140.389
N29830 X2.418 Y140.069
N29840 X2.244 Y139.735
N29850 X2.114 Y139.400
N29860 X2.022 Y139.040
N29870 X1.964 Y138.667
N29880 X1.940 Y138.249
N29890 X1.940 Y44.730
N29900 X4.820 Y44.730
N29910 X4.824 Y126.873
N29920 X4.892 Y127.720
N29930 X4.981 Y128.191
N29940 X5.158 Y128.817
N29950 X5.338 Y129.307
N29960 X5.413 Y129.476
N29970 X5.715 Y130.043
N29980 X6.088 Y130.613
N29990 X6.522 Y131.138
N30000 X7.007 Y131.612
N30010 X7.547 Y132.035
N30020 X8.105 Y132.382
N30030 X8.700 Y132.679
N30040 X9.180 Y132.869
N30050 X9.354 Y132.925
N30060 X9.974 Y133.079
N30070 X10.494 Y133.169
N30080 X10.685 Y133.189
N30090 X11.260 Y133.210
N30100 X99.060 Y133.210
N30110 X99.060 Y141.750
N30120 ID=1 WHEN $AC_TIMER[1]>=0 DO M89
N30130 X134.84 Y121.85 F1000
N30140 ID=1 WHEN $AC_TIMER[1]>=0 DO M88
N30150 X131.960 Y121.850 F300
N30160 X131.958 Y23.496
N30170 X131.928 Y22.916
N30180 X131.908 Y22.737
N30190 X131.787 Y22.081
N30200 X131.691 Y21.711
N30210 X131.556 Y21.315
N30220 X131.386 Y20.910
N30230 X131.309 Y20.753
N30240 X130.999 Y20.213
N30250 X130.874 Y20.030
N30260 X130.474 Y19.530
N30270 X130.351 Y19.395
N30280 X129.930 Y18.998
N30290 X129.510 Y18.668
N30300 X129.308 Y18.535
N30310 X128.628 Y18.165
N30320 X128.439 Y18.079
N30330 X127.865 Y17.873
N30340 X127.365 Y17.741
N30350 X126.618 Y17.622
N30360 X125.990 Y17.590
N30370 X21.940 Y17.590
N30380 X21.940 Y8.950
N30390 X131.712 Y8.950
N30400 X132.155 Y8.973
N30410 X132.557 Y9.045
N30420 X132.922 Y9.148
N30430 X133.259 Y9.297
N30440 X133.575 Y9.478
N30450 X133.867 Y9.705
N30460 X134.095 Y9.939
N30470 X134.308 Y10.211
N30480 X134.485 Y10.511
N30490 X134.679 Y10.965
N30500 X134.739 Y11.202
N30510 X134.825 Y11.728
N30520 X134.840 Y12.080
N30530 X134.840 Y121.750
N30540 ID=1 WHEN $AC_TIMER[1]>=0 DO M89
N30550 X96.18 Y138.97 F1000
N30560 ID=1 WHEN $AC_TIMER[1]>=0 DO M88
N30570 X5.433 Y138.964 F300
N30580 X5.251 Y138.919
N30590 X5.040 Y138.791
N30600 X4.966 Y138.708
N30610 X4.862 Y138.521
N30620 X4.831 Y138.362
N30630 X4.820 Y138.168
N30640 X4.820 Y133.502
N30650 X5.230 Y133.878
N30660 X5.770 Y134.302
N30670 X6.025 Y134.480
N30680 X6.583 Y134.827
N30690 X6.821 Y134.960
N30700 X7.640 Y135.357
N30710 X8.467 Y135.665
N30720 X9.483 Y135.917
N30730 X10.193 Y136.033
N30740 X10.579 Y136.067
N30750 X11.260 Y136.090
N30760 X96.180 Y136.090
N30770 X96.180 Y138.870
N30780 ID=1 WHEN $AC_TIMER[1]>=0 DO M89
N30790 X131.96 Y16.9632 F1000
N30800 ID=1 WHEN $AC_TIMER[1]>=0 DO M88
N30810 X131.709 Y16.733 F300
N30820 X131.093 Y16.262
N30830 X130.685 Y16.005
N30840 X129.819 Y15.543
N30850 X129.416 Y15.370
N30860 X128.842 Y15.163
N30870 X128.097 Y14.956
N30880 X127.817 Y14.897
N30890 X127.071 Y14.778
N30900 X126.766 Y14.746
N30910 X125.990 Y14.710
N30920 X24.820 Y14.710
N30930 X24.820 Y11.830
N30940 X131.636 Y11.830
N30950 X131.928 Y11.860
N30960 X131.955 Y12.023
N30970 X131.960 Y16.863
N30980 ID=1 WHEN $AC_TIMER[1]>=0 DO M89

; Inicio do trecho do raster
; Final do trecho do raster

N30990 M0
; Layer 25
N31000 G1 Z36.000 F1000
N31010 X99.06 Y141.85 F1000
N31020 ID=1 WHEN $AC_TIMER[1]>=0 DO M88
N31030 X5.528 Y141.850 F300
N31040 X5.131 Y141.835
N31050 X4.761 Y141.771
N31060 X4.395 Y141.677
N31070 X4.064 Y141.546
N31080 X3.716 Y141.368
N31090 X3.401 Y141.168
N31100 X3.113 Y140.937
N31110 X2.853 Y140.677
N31120 X2.622 Y140.389
N31130 X2.418 Y140.069
N31140 X2.244 Y139.735
N31150 X2.114 Y139.400
N31160 X2.022 Y139.040
N31170 X1.964 Y138.667
N31180 X1.940 Y138.249
N31190 X1.940 Y44.730
N31200 X4.820 Y44.730
N31210 X4.822 Y126.851
N31220 X4.867 Y127.523
N31230 X4.981 Y128.191
N31240 X5.158 Y128.817
N31250 X5.338 Y129.307
N31260 X5.413 Y129.476
N31270 X5.715 Y130.043
N31280 X6.088 Y130.613
N31290 X6.522 Y131.138
N31300 X7.007 Y131.612
N31310 X7.417 Y131.942
N31320 X7.564 Y132.046
N31330 X8.164 Y132.416
N31340 X8.320 Y132.499
N31350 X8.880 Y132.753
N31360 X9.354 Y132.925
N31370 X9.974 Y133.079
N31380 X10.494 Y133.169
N31390 X10.685 Y133.189
N31400 X11.260 Y133.210
N31410 X99.060 Y133.210
N31420 X99.060 Y141.750
N31430 ID=1 WHEN $AC_TIMER[1]>=0 DO M89
N31440 X135.51 Y121.85 F1000
N31450 ID=1 WHEN $AC_TIMER[1]>=0 DO M88
N31460 X132.630 Y121.850 F300
N31470 X132.628 Y22.814
N31480 X132.582 Y22.092
N31490 X132.492 Y21.532
N31500 X132.449 Y21.344
N31510 X132.251 Y20.705
N31520 X132.113 Y20.367
N31530 X131.873 Y19.877
N31540 X131.778 Y19.711
N31550 X131.426 Y19.198
N31560 X131.021 Y18.725
N31570 X130.600 Y18.328
N31580 X130.059 Y17.913
N31590 X129.765 Y17.733
N31600 X129.285 Y17.483
N31610 X129.110 Y17.406
N31620 X128.535 Y17.203
N31630 X128.030 Y17.070
N31640 X127.380 Y16.960
N31650 X127.200 Y16.941
N31660 X126.660 Y16.920
N31670 X21.940 Y16.920
N31680 X21.940 Y8.280
N31690 X132.384 Y8.280
N31700 X132.818 Y8.302
N31710 X133.227 Y8.375
N31720 X133.583 Y8.476
N31730 X134.063 Y8.694
N31740 X134.221 Y8.791
N31750 X134.579 Y9.077
N31760 X134.764 Y9.268
N31770 X135.047 Y9.643
N31780 X135.241 Y10.023
N31790 X135.312 Y10.195
N31800 X135.422 Y10.558
N31810 X135.495 Y11.039
N31820 X135.510 Y11.400
N31830 X135.510 Y121.750
N31840 ID=1 WHEN $AC_TIMER[1]>=0 DO M89
N31850 X96.18 Y138.97 F1000
N31860 ID=1 WHEN $AC_TIMER[1]>=0 DO M88
N31870 X5.433 Y138.964 F300
N31880 X5.251 Y138.919
N31890 X5.040 Y138.791
N31900 X4.966 Y138.708
N31910 X4.862 Y138.521
N31920 X4.831 Y138.362
N31930 X4.820 Y138.168
N31940 X4.820 Y133.502
N31950 X5.201 Y133.855
N31960 X5.902 Y134.398
N31970 X6.806 Y134.955
N31980 X7.131 Y135.122
N31990 X7.896 Y135.459
N32000 X8.370 Y135.632
N32010 X8.662 Y135.721
N32020 X9.483 Y135.917
N32030 X10.193 Y136.033
N32040 X10.579 Y136.067
N32050 X11.260 Y136.090
N32060 X96.180 Y136.090
N32070 X96.180 Y138.870
N32080 ID=1 WHEN $AC_TIMER[1]>=0 DO M89
N32090 X132.63 Y16.2837 F1000
N32100 ID=1 WHEN $AC_TIMER[1]>=0 DO M88
N32110 X132.354 Y16.043 F300
N32120 X131.813 Y15.628
N32130 X131.562 Y15.456
N32140 X131.096 Y15.179
N32150 X130.443 Y14.846
N32160 X130.071 Y14.691
N32170 X129.265 Y14.417
N32180 X128.511 Y14.231
N32190 X127.681 Y14.096
N32200 X127.313 Y14.063
N32210 X126.660 Y14.040
N32220 X24.820 Y14.040
N32230 X24.820 Y11.160
N32240 X132.311 Y11.160
N32250 X132.605 Y11.195
N32260 X132.630 Y11.462
N32270 X132.630 Y16.184
N32280 ID=1 WHEN $AC_TIMER[1]>=0 DO M89

; Inicio do trecho do raster
; Final do trecho do raster

N32290 M0
; Layer 26
N32300 G1 Z37.440 F1000
N32310 X99.06 Y141.85 F1000
N32320 ID=1 WHEN $AC_TIMER[1]>=0 DO M88
N32330 X5.528 Y141.850 F300
N32340 X5.131 Y141.835
N32350 X4.761 Y141.771
N32360 X4.395 Y141.677
N32370 X4.064 Y141.546
N32380 X3.716 Y141.368
N32390 X3.401 Y141.168
N32400 X3.113 Y140.937
N32410 X2.853 Y140.677
N32420 X2.622 Y140.389
N32430 X2.418 Y140.069
N32440 X2.244 Y139.735
N32450 X2.114 Y139.400
N32460 X2.022 Y139.040
N32470 X1.964 Y138.667
N32480 X1.940 Y138.249
N32490 X1.940 Y44.730
N32500 X4.820 Y44.730
N32510 X4.822 Y126.851
N32520 X4.867 Y127.523
N32530 X4.947 Y128.033
N32540 X4.987 Y128.211
N32550 X5.227 Y129.020
N32560 X5.413 Y129.476
N32570 X5.715 Y130.043
N32580 X6.088 Y130.613
N32590 X6.522 Y131.138
N32600 X7.007 Y131.612
N32610 X7.547 Y132.035
N32620 X8.105 Y132.382
N32630 X8.700 Y132.679
N32640 X9.180 Y132.869
N32650 X9.354 Y132.925
N32660 X9.974 Y133.079
N32670 X10.494 Y133.169
N32680 X10.685 Y133.189
N32690 X11.260 Y133.210
N32700 X99.060 Y133.210
N32710 X99.060 Y141.750
N32720 ID=1 WHEN $AC_TIMER[1]>=0 DO M89
N32730 X136.18 Y121.85 F1000
N32740 ID=1 WHEN $AC_TIMER[1]>=0 DO M88
N32750 X133.300 Y121.850 F300
N32760 X133.298 Y22.144
N32770 X133.252 Y21.422
N32780 X133.162 Y20.862
N32790 X133.119 Y20.674
N32800 X132.928 Y20.054
N32810 X132.778 Y19.676
N32820 X132.538 Y19.196
N32830 X132.111 Y18.547
N32840 X131.701 Y18.055
N32850 X131.267 Y17.648
N32860 X130.837 Y17.318
N32870 X130.689 Y17.218
N32880 X130.229 Y16.948
N32890 X130.070 Y16.868
N32900 X129.560 Y16.648
N32910 X129.382 Y16.584
N32920 X128.704 Y16.401
N32930 X128.064 Y16.291
N32940 X127.879 Y16.271
N32950 X127.330 Y16.250
N32960 X21.940 Y16.250
N32970 X21.940 Y7.610
N32980 X133.053 Y7.610
N32990 X133.516 Y7.634
N33000 X133.855 Y7.689
N33010 X134.215 Y7.787
N33020 X134.608 Y7.957
N33030 X134.909 Y8.134
N33040 X135.246 Y8.397
N33050 X135.426 Y8.589
N33060 X135.678 Y8.909
N33070 X135.823 Y9.148
N33080 X136.033 Y9.662
N33090 X136.089 Y9.868
N33100 X136.165 Y10.360
N33110 X136.180 Y10.730
N33120 X136.180 Y121.750
N33130 ID=1 WHEN $AC_TIMER[1]>=0 DO M89
N33140 X96.18 Y138.97 F1000
N33150 ID=1 WHEN $AC_TIMER[1]>=0 DO M88
N33160 X5.433 Y138.964 F300
N33170 X5.251 Y138.919
N33180 X5.040 Y138.791
N33190 X4.966 Y138.708
N33200 X4.862 Y138.521
N33210 X4.831 Y138.362
N33220 X4.820 Y138.168
N33230 X4.820 Y133.502
N33240 X5.230 Y133.878
N33250 X5.770 Y134.302
N33260 X6.025 Y134.480
N33270 X6.583 Y134.827
N33280 X6.821 Y134.960
N33290 X7.640 Y135.357
N33300 X8.467 Y135.665
N33310 X9.483 Y135.917
N33320 X10.193 Y136.033
N33330 X10.579 Y136.067
N33340 X11.260 Y136.090
N33350 X96.180 Y136.090
N33360 X96.180 Y138.870
N33370 ID=1 WHEN $AC_TIMER[1]>=0 DO M89
N33380 X133.3 Y15.6061 F1000
N33390 ID=1 WHEN $AC_TIMER[1]>=0 DO M88
N33400 X133.020 Y15.363 F300
N33410 X132.298 Y14.829
N33420 X131.531 Y14.379
N33430 X131.211 Y14.223
N33440 X130.525 Y13.934
N33450 X130.135 Y13.804
N33460 X129.457 Y13.621
N33470 X129.192 Y13.562
N33480 X128.367 Y13.427
N33490 X127.990 Y13.393
N33500 X127.330 Y13.370
N33510 X24.820 Y13.370
N33520 X24.820 Y10.490
N33530 X132.978 Y10.490
N33540 X133.271 Y10.517
N33550 X133.294 Y10.640
N33560 X133.300 Y15.506
N33570 ID=1 WHEN $AC_TIMER[1]>=0 DO M89

; Inicio do trecho do raster
; Final do trecho do raster

N33580 M0
; Layer 27
N33590 G1 Z38.880 F1000
N33600 X99.06 Y141.85 F1000
N33610 ID=1 WHEN $AC_TIMER[1]>=0 DO M88
N33620 X5.528 Y141.850 F300
N33630 X5.131 Y141.835
N33640 X4.761 Y141.771
N33650 X4.395 Y141.677
N33660 X4.064 Y141.546
N33670 X3.716 Y141.368
N33680 X3.401 Y141.168
N33690 X3.113 Y140.937
N33700 X2.853 Y140.677
N33710 X2.622 Y140.389
N33720 X2.418 Y140.069
N33730 X2.250 Y139.747
N33740 X2.105 Y139.366
N33750 X2.022 Y139.040
N33760 X1.964 Y138.667
N33770 X1.940 Y138.249
N33780 X1.940 Y44.730
N33790 X4.820 Y44.730
N33800 X4.822 Y126.851
N33810 X4.867 Y127.523
N33820 X4.981 Y128.191
N33830 X5.158 Y128.817
N33840 X5.338 Y129.307
N33850 X5.413 Y129.476
N33860 X5.715 Y130.043
N33870 X6.088 Y130.613
N33880 X6.522 Y131.138
N33890 X7.007 Y131.612
N33900 X7.547 Y132.035
N33910 X8.105 Y132.382
N33920 X8.700 Y132.679
N33930 X9.180 Y132.869
N33940 X9.375 Y132.930
N33950 X10.198 Y133.123
N33960 X10.685 Y133.189
N33970 X11.260 Y133.210
N33980 X99.060 Y133.210
N33990 X99.060 Y141.750
N34000 ID=1 WHEN $AC_TIMER[1]>=0 DO M89
N34010 X136.85 Y121.85 F1000
N34020 ID=1 WHEN $AC_TIMER[1]>=0 DO M88
N34030 X133.970 Y121.850 F300
N34040 X133.968 Y21.474
N34050 X133.922 Y20.752
N34060 X133.832 Y20.192
N34070 X133.789 Y20.004
N34080 X133.578 Y19.332
N34090 X133.368 Y18.832
N34100 X133.271 Y18.643
N34110 X132.901 Y18.033
N34120 X132.763 Y17.843
N34130 X132.388 Y17.412
N34140 X132.078 Y17.102
N34150 X131.937 Y16.978
N34160 X131.415 Y16.583
N34170 X131.085 Y16.378
N34180 X130.469 Y16.073
N34190 X129.910 Y15.867
N34200 X129.352 Y15.717
N34210 X128.549 Y15.601
N34220 X128.000 Y15.580
N34230 X21.940 Y15.580
N34240 X21.940 Y6.940
N34250 X133.723 Y6.940
N34260 X134.193 Y6.964
N34270 X134.548 Y7.021
N34280 X134.933 Y7.135
N34290 X135.404 Y7.350
N34300 X135.686 Y7.538
N34310 X135.886 Y7.694
N34320 X136.107 Y7.922
N34330 X136.325 Y8.207
N34340 X136.508 Y8.515
N34350 X136.703 Y8.992
N34360 X136.762 Y9.211
N34370 X136.834 Y9.629
N34380 X136.850 Y10.056
N34390 X136.850 Y121.750
N34400 ID=1 WHEN $AC_TIMER[1]>=0 DO M89
N34410 X96.18 Y138.97 F1000
N34420 ID=1 WHEN $AC_TIMER[1]>=0 DO M88
N34430 X5.433 Y138.964 F300
N34440 X5.251 Y138.919
N34450 X5.040 Y138.791
N34460 X4.966 Y138.708
N34470 X4.882 Y138.565
N34480 X4.846 Y138.460
N34490 X4.820 Y138.168
N34500 X4.820 Y133.502
N34510 X5.230 Y133.878
N34520 X5.770 Y134.302
N34530 X6.025 Y134.480
N34540 X6.583 Y134.827
N34550 X6.821 Y134.960
N34560 X7.640 Y135.357
N34570 X8.312 Y135.615
N34580 X8.719 Y135.735
N34590 X9.542 Y135.927
N34600 X9.810 Y135.976
N34610 X10.297 Y136.043
N34620 X10.579 Y136.067
N34630 X11.260 Y136.090
N34640 X96.180 Y136.090
N34650 X96.180 Y138.870
N34660 ID=1 WHEN $AC_TIMER[1]>=0 DO M89
N34670 X133.97 Y14.9304 F1000
N34680 ID=1 WHEN $AC_TIMER[1]>=0 DO M88
N34690 X133.675 Y14.681 F300
N34700 X133.153 Y14.286
N34710 X132.605 Y13.932
N34720 X132.362 Y13.796
N34730 X131.746 Y13.491
N34740 X131.466 Y13.371
N34750 X130.908 Y13.165
N34760 X130.656 Y13.085
N34770 X130.098 Y12.935
N34780 X129.764 Y12.867
N34790 X128.960 Y12.751
N34800 X128.660 Y12.723
N34810 X128.000 Y12.700
N34820 X24.820 Y12.700
N34830 X24.820 Y9.820
N34840 X133.648 Y9.820
N34850 X133.942 Y9.848
N34860 X133.963 Y9.928
N34870 X133.970 Y14.830
N34880 ID=1 WHEN $AC_TIMER[1]>=0 DO M89

; Inicio do trecho do raster
; Final do trecho do raster

N34890 M0
; Layer 28
N34900 G1 Z40.320 F1000
N34910 X99.06 Y141.85 F1000
N34920 ID=1 WHEN $AC_TIMER[1]>=0 DO M88
N34930 X5.528 Y141.850 F300
N34940 X5.131 Y141.835
N34950 X4.761 Y141.771
N34960 X4.395 Y141.677
N34970 X4.064 Y141.546
N34980 X3.716 Y141.368
N34990 X3.401 Y141.168
N35000 X3.113 Y140.937
N35010 X2.863 Y140.686
N35020 X2.606 Y140.364
N35030 X2.418 Y140.069
N35040 X2.244 Y139.735
N35050 X2.114 Y139.400
N35060 X2.022 Y139.040
N35070 X1.964 Y138.667
N35080 X1.940 Y138.249
N35090 X1.940 Y44.730
N35100 X4.820 Y44.730
N35110 X4.822 Y126.851
N35120 X4.867 Y127.523
N35130 X4.981 Y128.191
N35140 X5.158 Y128.817
N35150 X5.338 Y129.307
N35160 X5.413 Y129.476
N35170 X5.715 Y130.043
N35180 X5.995 Y130.483
N35190 X6.522 Y131.138
N35200 X7.007 Y131.612
N35210 X7.547 Y132.035
N35220 X8.105 Y132.382
N35230 X8.700 Y132.679
N35240 X9.180 Y132.869
N35250 X9.375 Y132.930
N35260 X10.198 Y133.123
N35270 X10.685 Y133.189
N35280 X11.260 Y133.210
N35290 X99.060 Y133.210
N35300 X99.060 Y141.750
N35310 ID=1 WHEN $AC_TIMER[1]>=0 DO M89
N35320 X137.53 Y121.85 F1000
N35330 ID=1 WHEN $AC_TIMER[1]>=0 DO M88
N35340 X134.650 Y121.850 F300
N35350 X134.647 Y20.781
N35360 X134.591 Y20.067
N35370 X134.501 Y19.517
N35380 X134.459 Y19.334
N35390 X134.264 Y18.703
N35400 X134.015 Y18.100
N35410 X133.566 Y17.354
N35420 X133.443 Y17.184
N35430 X133.052 Y16.726
N35440 X132.626 Y16.323
N35450 X132.116 Y15.927
N35460 X131.734 Y15.692
N35470 X131.368 Y15.500
N35480 X130.590 Y15.200
N35490 X130.220 Y15.090
N35500 X130.032 Y15.047
N35510 X129.228 Y14.931
N35520 X128.670 Y14.910
N35530 X21.940 Y14.910
N35540 X21.940 Y6.270
N35550 X134.393 Y6.270
N35560 X134.858 Y6.294
N35570 X135.246 Y6.356
N35580 X135.612 Y6.467
N35590 X135.957 Y6.612
N35600 X136.324 Y6.834
N35610 X136.579 Y7.046
N35620 X136.777 Y7.244
N35630 X137.101 Y7.692
N35640 X137.178 Y7.830
N35650 X137.362 Y8.272
N35660 X137.429 Y8.527
N35670 X137.507 Y9.016
N35680 X137.530 Y9.403
N35690 X137.530 Y121.750
N35700 ID=1 WHEN $AC_TIMER[1]>=0 DO M89
N35710 X96.18 Y138.97 F1000
N35720 ID=1 WHEN $AC_TIMER[1]>=0 DO M88
N35730 X5.433 Y138.964 F300
N35740 X5.251 Y138.919
N35750 X5.014 Y138.764
N35760 X4.914 Y138.627
N35770 X4.862 Y138.521
N35780 X4.831 Y138.362
N35790 X4.820 Y138.168
N35800 X4.820 Y133.502
N35810 X5.230 Y133.878
N35820 X5.770 Y134.302
N35830 X6.025 Y134.480
N35840 X6.583 Y134.827
N35850 X6.821 Y134.960
N35860 X7.640 Y135.357
N35870 X8.312 Y135.615
N35880 X8.719 Y135.735
N35890 X9.542 Y135.927
N35900 X9.810 Y135.976
N35910 X10.297 Y136.043
N35920 X10.579 Y136.067
N35930 X11.260 Y136.090
N35940 X96.180 Y136.090
N35950 X96.180 Y138.870
N35960 ID=1 WHEN $AC_TIMER[1]>=0 DO M89
N35970 X134.65 Y14.2729 F1000
N35980 ID=1 WHEN $AC_TIMER[1]>=0 DO M88
N35990 X134.392 Y14.047 F300
N36000 X133.882 Y13.652
N36010 X133.625 Y13.474
N36020 X133.070 Y13.141
N36030 X132.704 Y12.949
N36040 X132.406 Y12.814
N36050 X131.411 Y12.439
N36060 X130.854 Y12.280
N36070 X130.444 Y12.197
N36080 X129.639 Y12.081
N36090 X129.337 Y12.053
N36100 X128.670 Y12.030
N36110 X24.820 Y12.030
N36120 X24.820 Y9.150
N36130 X134.318 Y9.150
N36140 X134.616 Y9.175
N36150 X134.650 Y9.489
N36160 X134.650 Y14.173
N36170 ID=1 WHEN $AC_TIMER[1]>=0 DO M89

; Inicio do trecho do raster
; Final do trecho do raster

N36180 M0
; Layer 29
N36190 G1 Z41.760 F1000
N36200 X99.06 Y141.85 F1000
N36210 ID=1 WHEN $AC_TIMER[1]>=0 DO M88
N36220 X5.528 Y141.850 F300
N36230 X5.131 Y141.835
N36240 X4.761 Y141.771
N36250 X4.395 Y141.677
N36260 X4.064 Y141.546
N36270 X3.716 Y141.368
N36280 X3.401 Y141.168
N36290 X3.113 Y140.937
N36300 X2.853 Y140.677
N36310 X2.622 Y140.389
N36320 X2.418 Y140.069
N36330 X2.244 Y139.735
N36340 X2.114 Y139.400
N36350 X2.022 Y139.040
N36360 X1.964 Y138.667
N36370 X1.940 Y138.249
N36380 X1.940 Y44.730
N36390 X4.820 Y44.730
N36400 X4.822 Y126.851
N36410 X4.867 Y127.523
N36420 X4.981 Y128.191
N36430 X5.158 Y128.817
N36440 X5.338 Y129.307
N36450 X5.413 Y129.476
N36460 X5.715 Y130.043
N36470 X6.088 Y130.613
N36480 X6.522 Y131.138
N36490 X7.007 Y131.612
N36500 X7.547 Y132.035
N36510 X8.105 Y132.382
N36520 X8.700 Y132.679
N36530 X9.180 Y132.869
N36540 X9.354 Y132.925
N36550 X9.974 Y133.079
N36560 X10.494 Y133.169
N36570 X10.685 Y133.189
N36580 X11.260 Y133.210
N36590 X99.060 Y133.210
N36600 X99.060 Y141.750
N36610 ID=1 WHEN $AC_TIMER[1]>=0 DO M89
N36620 X138.2 Y121.85 F1000
N36630 ID=1 WHEN $AC_TIMER[1]>=0 DO M88
N36640 X135.320 Y121.850 F300
N36650 X135.318 Y20.136
N36660 X135.288 Y19.556
N36670 X135.267 Y19.372
N36680 X135.145 Y18.721
N36690 X134.973 Y18.106
N36700 X134.698 Y17.460
N36710 X134.352 Y16.851
N36720 X134.248 Y16.698
N36730 X133.868 Y16.208
N36740 X133.732 Y16.056
N36750 X133.305 Y15.650
N36760 X132.931 Y15.357
N36770 X132.415 Y15.028
N36780 X131.819 Y14.733
N36790 X131.260 Y14.527
N36800 X130.706 Y14.378
N36810 X129.908 Y14.261
N36820 X129.350 Y14.240
N36830 X21.940 Y14.240
N36840 X21.940 Y5.600
N36850 X135.072 Y5.600
N36860 X135.527 Y5.624
N36870 X135.916 Y5.686
N36880 X136.303 Y5.803
N36890 X136.624 Y5.938
N36900 X136.748 Y6.006
N36910 X137.012 Y6.179
N36920 X137.249 Y6.376
N36930 X137.455 Y6.582
N36940 X137.673 Y6.866
N36950 X137.914 Y7.295
N36960 X138.036 Y7.619
N36970 X138.100 Y7.859
N36980 X138.177 Y8.337
N36990 X138.200 Y8.732
N37000 X138.200 Y121.750
N37010 ID=1 WHEN $AC_TIMER[1]>=0 DO M89
N37020 X96.18 Y138.97 F1000
N37030 ID=1 WHEN $AC_TIMER[1]>=0 DO M88
N37040 X5.433 Y138.964 F300
N37050 X5.251 Y138.919
N37060 X5.040 Y138.791
N37070 X4.966 Y138.708
N37080 X4.862 Y138.521
N37090 X4.831 Y138.362
N37100 X4.820 Y138.168
N37110 X4.820 Y133.502
N37120 X5.230 Y133.878
N37130 X5.770 Y134.302
N37140 X6.025 Y134.480
N37150 X6.583 Y134.827
N37160 X6.821 Y134.960
N37170 X7.640 Y135.357
N37180 X8.467 Y135.665
N37190 X9.483 Y135.917
N37200 X10.193 Y136.033
N37210 X10.579 Y136.067
N37220 X11.260 Y136.090
N37230 X96.180 Y136.090
N37240 X96.180 Y138.870
N37250 ID=1 WHEN $AC_TIMER[1]>=0 DO M89
N37260 X135.32 Y13.5918 F1000
N37270 ID=1 WHEN $AC_TIMER[1]>=0 DO M88
N37280 X135.082 Y13.383 F300
N37290 X134.709 Y13.091
N37300 X134.480 Y12.929
N37310 X133.964 Y12.600
N37320 X133.692 Y12.446
N37330 X133.095 Y12.151
N37340 X132.816 Y12.031
N37350 X132.258 Y11.825
N37360 X132.007 Y11.745
N37370 X131.453 Y11.596
N37380 X131.122 Y11.528
N37390 X130.324 Y11.411
N37400 X130.017 Y11.383
N37410 X129.350 Y11.360
N37420 X24.820 Y11.360
N37430 X24.820 Y8.480
N37440 X134.996 Y8.480
N37450 X135.287 Y8.505
N37460 X135.310 Y8.652
N37470 X135.320 Y8.817
N37480 X135.320 Y13.492
N37490 ID=1 WHEN $AC_TIMER[1]>=0 DO M89

; Inicio do trecho do raster
; Final do trecho do raster

N37500 M0
; Layer 30
N37510 G1 Z43.200 F1000
N37520 X99.06 Y141.85 F1000
N37530 ID=1 WHEN $AC_TIMER[1]>=0 DO M88
N37540 X5.528 Y141.850 F300
N37550 X5.131 Y141.835
N37560 X4.761 Y141.771
N37570 X4.395 Y141.677
N37580 X4.064 Y141.546
N37590 X3.716 Y141.368
N37600 X3.401 Y141.168
N37610 X3.113 Y140.937
N37620 X2.853 Y140.677
N37630 X2.622 Y140.389
N37640 X2.418 Y140.069
N37650 X2.244 Y139.735
N37660 X2.114 Y139.400
N37670 X2.022 Y139.040
N37680 X1.964 Y138.667
N37690 X1.940 Y138.249
N37700 X1.940 Y44.730
N37710 X4.820 Y44.730
N37720 X4.822 Y126.851
N37730 X4.867 Y127.523
N37740 X4.981 Y128.191
N37750 X5.158 Y128.817
N37760 X5.338 Y129.307
N37770 X5.413 Y129.476
N37780 X5.715 Y130.043
N37790 X6.088 Y130.613
N37800 X6.522 Y131.138
N37810 X7.007 Y131.612
N37820 X7.547 Y132.035
N37830 X8.105 Y132.382
N37840 X8.700 Y132.679
N37850 X9.180 Y132.869
N37860 X9.354 Y132.925
N37870 X9.974 Y133.079
N37880 X10.494 Y133.169
N37890 X10.685 Y133.189
N37900 X11.260 Y133.210
N37910 X99.060 Y133.210
N37920 X99.060 Y141.750
N37930 ID=1 WHEN $AC_TIMER[1]>=0 DO M89
N37940 X138.87 Y121.85 F1000
N37950 ID=1 WHEN $AC_TIMER[1]>=0 DO M88
N37960 X135.990 Y121.850 F300
N37970 X135.988 Y19.466
N37980 X135.958 Y18.886
N37990 X135.938 Y18.707
N38000 X135.815 Y18.041
N38010 X135.725 Y17.691
N38020 X135.656 Y17.478
N38030 X135.448 Y16.956
N38040 X135.143 Y16.369
N38050 X134.799 Y15.861
N38060 X134.418 Y15.412
N38070 X133.980 Y14.984
N38080 X133.591 Y14.677
N38090 X133.064 Y14.342
N38100 X132.520 Y14.075
N38110 X131.933 Y13.849
N38120 X131.391 Y13.710
N38130 X130.716 Y13.603
N38140 X130.020 Y13.560
N38150 X21.940 Y13.560
N38160 X21.940 Y4.920
N38170 X135.730 Y4.920
N38180 X136.185 Y4.952
N38190 X136.586 Y5.016
N38200 X136.952 Y5.127
N38210 X137.315 Y5.279
N38220 X137.697 Y5.519
N38230 X137.904 Y5.682
N38240 X138.119 Y5.903
N38250 X138.359 Y6.216
N38260 X138.432 Y6.331
N38270 X138.594 Y6.640
N38280 X138.706 Y6.939
N38290 X138.770 Y7.179
N38300 X138.847 Y7.657
N38310 X138.870 Y8.061
N38320 X138.870 Y121.750
N38330 ID=1 WHEN $AC_TIMER[1]>=0 DO M89
N38340 X96.18 Y138.97 F1000
N38350 ID=1 WHEN $AC_TIMER[1]>=0 DO M88
N38360 X5.433 Y138.964 F300
N38370 X5.251 Y138.919
N38380 X5.040 Y138.791
N38390 X4.966 Y138.708
N38400 X4.862 Y138.521
N38410 X4.831 Y138.362
N38420 X4.820 Y138.168
N38430 X4.820 Y133.502
N38440 X5.230 Y133.878
N38450 X5.770 Y134.302
N38460 X6.025 Y134.480
N38470 X6.583 Y134.827
N38480 X6.821 Y134.960
N38490 X7.640 Y135.357
N38500 X8.467 Y135.665
N38510 X9.483 Y135.917
N38520 X10.193 Y136.033
N38530 X10.579 Y136.067
N38540 X11.260 Y136.090
N38550 X96.180 Y136.090
N38560 X96.180 Y138.870
N38570 ID=1 WHEN $AC_TIMER[1]>=0 DO M89
N38580 X135.99 Y12.9215 F1000
N38590 ID=1 WHEN $AC_TIMER[1]>=0 DO M88
N38600 X135.765 Y12.724 F300
N38610 X135.377 Y12.417
N38620 X135.135 Y12.246
N38630 X134.608 Y11.911
N38640 X134.333 Y11.757
N38650 X133.555 Y11.387
N38660 X132.968 Y11.161
N38670 X132.648 Y11.059
N38680 X132.106 Y10.920
N38690 X131.842 Y10.866
N38700 X131.167 Y10.759
N38710 X130.894 Y10.729
N38720 X130.020 Y10.680
N38730 X24.820 Y10.680
N38740 X24.820 Y7.800
N38750 X135.629 Y7.800
N38760 X135.958 Y7.835
N38770 X135.990 Y8.144
N38780 X135.990 Y12.822
N38790 ID=1 WHEN $AC_TIMER[1]>=0 DO M89

; Inicio do trecho do raster
; Final do trecho do raster

N38800 M0
; Layer 31
N38810 G1 Z44.640 F1000
N38820 X99.06 Y141.85 F1000
N38830 ID=1 WHEN $AC_TIMER[1]>=0 DO M88
N38840 X5.528 Y141.850 F300
N38850 X5.131 Y141.835
N38860 X4.761 Y141.771
N38870 X4.395 Y141.677
N38880 X4.064 Y141.546
N38890 X3.716 Y141.368
N38900 X3.401 Y141.168
N38910 X3.113 Y140.937
N38920 X2.853 Y140.677
N38930 X2.622 Y140.389
N38940 X2.418 Y140.069
N38950 X2.244 Y139.735
N38960 X2.114 Y139.400
N38970 X2.022 Y139.040
N38980 X1.964 Y138.667
N38990 X1.940 Y138.249
N39000 X1.940 Y44.730
N39010 X4.820 Y44.730
N39020 X4.822 Y126.851
N39030 X4.867 Y127.523
N39040 X4.981 Y128.191
N39050 X5.158 Y128.817
N39060 X5.338 Y129.307
N39070 X5.413 Y129.476
N39080 X5.715 Y130.043
N39090 X6.088 Y130.613
N39100 X6.522 Y131.138
N39110 X7.007 Y131.612
N39120 X7.547 Y132.035
N39130 X8.105 Y132.382
N39140 X8.700 Y132.679
N39150 X9.180 Y132.869
N39160 X9.354 Y132.925
N39170 X9.974 Y133.079
N39180 X10.494 Y133.169
N39190 X10.685 Y133.189
N39200 X11.260 Y133.210
N39210 X99.060 Y133.210
N39220 X99.060 Y141.750
N39230 ID=1 WHEN $AC_TIMER[1]>=0 DO M89
N39240 X139.54 Y121.85 F1000
N39250 ID=1 WHEN $AC_TIMER[1]>=0 DO M88
N39260 X136.660 Y121.850 F300
N39270 X136.658 Y18.784
N39280 X136.628 Y18.214
N39290 X136.608 Y18.037
N39300 X136.476 Y17.338
N39310 X136.280 Y16.673
N39320 X136.112 Y16.264
N39330 X135.813 Y15.699
N39340 X135.484 Y15.210
N39350 X135.204 Y14.860
N39360 X135.083 Y14.727
N39370 X134.654 Y14.317
N39380 X134.374 Y14.087
N39390 X134.037 Y13.851
N39400 X133.494 Y13.542
N39410 X133.169 Y13.389
N39420 X132.601 Y13.184
N39430 X132.053 Y13.039
N39440 X131.293 Y12.922
N39450 X130.690 Y12.890
N39460 X21.940 Y12.890
N39470 X21.940 Y4.250
N39480 X136.412 Y4.250
N39490 X136.855 Y4.273
N39500 X137.257 Y4.345
N39510 X137.622 Y4.448
N39520 X137.960 Y4.597
N39530 X138.341 Y4.820
N39540 X138.573 Y5.011
N39550 X138.794 Y5.239
N39560 X139.030 Y5.539
N39570 X139.106 Y5.661
N39580 X139.261 Y5.964
N39590 X139.376 Y6.269
N39600 X139.440 Y6.510
N39610 X139.517 Y6.978
N39620 X139.540 Y7.381
N39630 X139.540 Y121.750
N39640 ID=1 WHEN $AC_TIMER[1]>=0 DO M89
N39650 X96.18 Y138.97 F1000
N39660 ID=1 WHEN $AC_TIMER[1]>=0 DO M88
N39670 X5.433 Y138.964 F300
N39680 X5.251 Y138.919
N39690 X5.040 Y138.791
N39700 X4.966 Y138.708
N39710 X4.862 Y138.521
N39720 X4.831 Y138.362
N39730 X4.820 Y138.168
N39740 X4.820 Y133.502
N39750 X5.230 Y133.878
N39760 X5.770 Y134.302
N39770 X6.025 Y134.480
N39780 X6.583 Y134.827
N39790 X6.821 Y134.960
N39800 X7.640 Y135.357
N39810 X8.467 Y135.665
N39820 X9.483 Y135.917
N39830 X10.193 Y136.033
N39840 X10.579 Y136.067
N39850 X11.260 Y136.090
N39860 X96.180 Y136.090
N39870 X96.180 Y138.870
N39880 ID=1 WHEN $AC_TIMER[1]>=0 DO M89
N39890 X136.66 Y12.2614 F1000
N39900 ID=1 WHEN $AC_TIMER[1]>=0 DO M88
N39910 X136.482 Y12.092 F300
N39920 X136.027 Y11.729
N39930 X135.462 Y11.349
N39940 X134.720 Y10.936
N39950 X134.147 Y10.681
N39960 X133.338 Y10.400
N39970 X132.790 Y10.255
