; Generated by RP3 on 2021-02-3
; Job 0 - LMD

; General Config.--------------------
$ac_timer[1]=0
G91   ; relative positioning
G641  ;
G603  ;


R0 = 39     ; Laser Power 
R3 = 3      ; Powder feed rate

M55   ; home mirror
G4F4  ; necessary delay for positioning of the mirror
M0    ; wait for user-input

; Process Start-up--------------------
M56   ; set canal 1 as laser-source
G4F4  ; necessary delay for positioning of the mirror
M78           	    ;GAS 1 ON
M0    ; wait for user-input
; START POWDER!!!

M64		;CARRIER ON
H2 = R3	;SET POWDER FLOW
M62		;POWDER MIXER ON
M66		;POWDER FEED ON



G4F10
M0
G54   ; set process starting point (machine zero)

; Laser On and Path------------------
H1 = R0
G90   ; use absolute coordinates


; Layer 1
G1 Z1.440 F1000
X99.06 Y141.85 F1000
ID=1 WHEN $AC_TIMER[1]>=0 DO M50
X5.528 Y141.850 F300
X5.131 Y141.835
X4.761 Y141.771
X4.395 Y141.677
X4.064 Y141.546
X3.716 Y141.368
X3.401 Y141.168
X3.113 Y140.937
X2.853 Y140.677
X2.622 Y140.389
X2.418 Y140.069
X2.250 Y139.746
X2.097 Y139.334
X2.022 Y139.040
X1.964 Y138.667
X1.940 Y138.249
X1.940 Y44.730
X4.820 Y44.730
X4.822 Y126.863
X4.867 Y127.519
X4.983 Y128.208
X5.158 Y128.817
X5.408 Y129.465
X5.723 Y130.066
X6.102 Y130.629
X6.532 Y131.138
X7.004 Y131.601
X7.404 Y131.931
X7.547 Y132.035
X8.105 Y132.382
X8.709 Y132.683
X9.358 Y132.924
X9.974 Y133.079
X10.494 Y133.169
X10.685 Y133.189
X11.260 Y133.210
X99.060 Y133.210
X99.060 Y141.750
ID=1 WHEN $AC_TIMER[1]>=0 DO M51
X119.4 Y121.85 F1000
ID=1 WHEN $AC_TIMER[1]>=0 DO M50
X116.520 Y121.850 F300
X116.519 Y38.961
X116.499 Y38.544
X116.418 Y37.897
X116.340 Y37.496
X116.233 Y37.116
X116.008 Y36.510
X115.846 Y36.154
X115.640 Y35.789
X115.269 Y35.254
X114.985 Y34.919
X114.523 Y34.473
X114.237 Y34.235
X113.919 Y34.010
X113.258 Y33.638
X112.671 Y33.399
X112.301 Y33.276
X111.903 Y33.179
X111.194 Y33.072
X110.540 Y33.040
X21.940 Y33.040
X21.940 Y24.400
X116.273 Y24.400
X116.736 Y24.424
X117.305 Y24.535
X117.659 Y24.665
X117.961 Y24.820
X118.118 Y24.915
X118.533 Y25.253
X118.764 Y25.517
X118.975 Y25.834
X119.128 Y26.133
X119.256 Y26.496
X119.348 Y26.883
X119.393 Y27.302
X119.400 Y121.750
ID=1 WHEN $AC_TIMER[1]>=0 DO M51
X96.18 Y138.97 F1000
ID=1 WHEN $AC_TIMER[1]>=0 DO M50
X5.433 Y138.964 F300
X5.251 Y138.919
X5.040 Y138.791
X4.966 Y138.708
X4.887 Y138.576
X4.846 Y138.460
X4.820 Y138.168
X4.820 Y133.486
X5.171 Y133.822
X5.854 Y134.365
X6.583 Y134.827
X6.824 Y134.962
X7.428 Y135.262
X7.706 Y135.382
X8.354 Y135.623
X8.655 Y135.717
X9.483 Y135.917
X10.193 Y136.033
X10.579 Y136.067
X11.260 Y136.090
X96.180 Y136.090
X96.180 Y138.870
ID=1 WHEN $AC_TIMER[1]>=0 DO M51
X116.513 Y32.3996 F1000
ID=1 WHEN $AC_TIMER[1]>=0 DO M50
X116.363 Y32.258 F300
X115.902 Y31.885
X115.584 Y31.660
X115.331 Y31.500
X114.670 Y31.128
X114.345 Y30.971
X113.581 Y30.667
X112.983 Y30.478
X112.333 Y30.331
X111.625 Y30.224
X111.335 Y30.195
X110.540 Y30.160
X24.820 Y30.160
X24.820 Y27.280
X116.198 Y27.280
X116.384 Y27.290
X116.489 Y27.310
X116.513 Y27.456
X116.513 Y32.300
ID=1 WHEN $AC_TIMER[1]>=0 DO M51

; Inicio do trecho do raster
; Final do trecho do raster


M63		;POWDER MIXER OFF
M67		;POWDER FEED OFF
M65		;CARRIER OFF
G4F5
M79     ;GAS 1 OFF

M0

M78     ; GAS 1 ON
M64		;CARRIER ON
H2 = R3	;SET POWDER FLOW
M62		;POWDER MIXER ON
M66		;POWDER FEED ON
G4F10

; Layer 2
G1 Z2.880 F1000
X99.06 Y141.85 F1000
ID=1 WHEN $AC_TIMER[1]>=0 DO M50
X5.528 Y141.850 F300
X5.120 Y141.834
X4.770 Y141.779
X4.404 Y141.681
X4.064 Y141.546
X3.716 Y141.368
X3.401 Y141.168
X3.113 Y140.937
X2.853 Y140.677
X2.622 Y140.389
X2.418 Y140.069
X2.244 Y139.735
X2.114 Y139.400
X2.022 Y139.040
X1.964 Y138.667
X1.940 Y138.249
X1.940 Y44.730
X4.820 Y44.730
X4.822 Y126.861
X4.867 Y127.533
X4.981 Y128.201
X5.167 Y128.851
X5.423 Y129.486
X5.725 Y130.053
X6.098 Y130.623
X6.532 Y131.148
X6.902 Y131.518
X7.034 Y131.635
X7.538 Y132.022
X8.115 Y132.392
X8.743 Y132.702
X9.342 Y132.917
X10.011 Y133.093
X10.694 Y133.189
X11.260 Y133.210
X99.060 Y133.210
X99.060 Y141.750
ID=1 WHEN $AC_TIMER[1]>=0 DO M51
X120.07 Y121.85 F1000
ID=1 WHEN $AC_TIMER[1]>=0 DO M50
X117.190 Y121.850 F300
X117.188 Y38.232
X117.158 Y37.682
X117.135 Y37.492
X116.996 Y36.788
X116.846 Y36.258
X116.774 Y36.060
X116.482 Y35.431
X116.212 Y34.971
X115.795 Y34.407
X115.655 Y34.249
X115.127 Y33.748
X114.697 Y33.418
X114.540 Y33.313
X113.993 Y33.002
X113.591 Y32.819
X112.937 Y32.600
X112.397 Y32.470
X112.211 Y32.438
X111.490 Y32.370
X21.940 Y32.370
X21.940 Y23.730
X117.190 Y23.730
X117.604 Y23.782
X117.775 Y23.817
X118.318 Y23.990
X118.654 Y24.161
X118.939 Y24.355
X119.210 Y24.600
X119.450 Y24.866
X119.642 Y25.154
X119.815 Y25.500
X119.867 Y25.630
X119.984 Y26.033
X120.046 Y26.398
X120.070 Y26.857
X120.070 Y121.750
ID=1 WHEN $AC_TIMER[1]>=0 DO M51
X96.18 Y138.97 F1000
ID=1 WHEN $AC_TIMER[1]>=0 DO M50
X5.369 Y138.958 F300
X5.251 Y138.919
X5.040 Y138.791
X4.966 Y138.708
X4.862 Y138.521
X4.831 Y138.362
X4.820 Y138.168
X4.820 Y133.498
X5.126 Y133.793
X5.782 Y134.305
X6.561 Y134.817
X6.843 Y134.977
X7.472 Y135.286
X7.770 Y135.412
X8.607 Y135.701
X9.276 Y135.878
X9.611 Y135.945
X10.294 Y136.041
X10.586 Y136.067
X11.260 Y136.090
X96.180 Y136.090
X96.180 Y138.870
ID=1 WHEN $AC_TIMER[1]>=0 DO M51
X117.19 Y31.7352 F1000
ID=1 WHEN $AC_TIMER[1]>=0 DO M50
X116.880 Y31.463 F300
X116.297 Y31.023
X115.965 Y30.810
X115.417 Y30.499
X114.782 Y30.197
X114.506 Y30.089
X113.611 Y29.800
X112.886 Y29.632
X112.481 Y29.571
X111.760 Y29.503
X111.490 Y29.490
X24.820 Y29.490
X24.820 Y26.610
X117.011 Y26.610
X117.163 Y26.644
X117.179 Y26.715
X117.190 Y26.932
X117.190 Y31.635
ID=1 WHEN $AC_TIMER[1]>=0 DO M51

; Inicio do trecho do raster
; Final do trecho do raster


M63		;POWDER MIXER OFF
M67		;POWDER FEED OFF
M65		;CARRIER OFF
G4F5
M79     ;GAS 1 OFF

M0

M78     ; GAS 1 ON
M64		;CARRIER ON
H2 = R3	;SET POWDER FLOW
M62		;POWDER MIXER ON
M66		;POWDER FEED ON
G4F10

; Layer 3
G1 Z4.320 F1000
X99.06 Y141.85 F1000
ID=1 WHEN $AC_TIMER[1]>=0 DO M50
X5.528 Y141.850 F300
X5.131 Y141.835
X4.761 Y141.771
X4.395 Y141.677
X4.064 Y141.546
X3.716 Y141.368
X3.401 Y141.168
X3.113 Y140.937
X2.853 Y140.677
X2.622 Y140.389
X2.418 Y140.069
X2.244 Y139.735
X2.114 Y139.400
X2.022 Y139.040
X1.964 Y138.667
X1.940 Y138.249
X1.940 Y44.730
X4.820 Y44.730
X4.822 Y126.873
X4.867 Y127.529
X4.981 Y128.211
X5.171 Y128.870
X5.418 Y129.475
X5.738 Y130.082
X6.103 Y130.626
X6.413 Y131.016
X6.535 Y131.151
X7.027 Y131.622
X7.567 Y132.045
X8.114 Y132.387
X8.574 Y132.627
X8.743 Y132.702
X9.349 Y132.919
X10.021 Y133.093
X10.702 Y133.189
X11.260 Y133.210
X99.060 Y133.210
X99.060 Y141.750
ID=1 WHEN $AC_TIMER[1]>=0 DO M51
X118.663 Y23.2069 F1000
ID=1 WHEN $AC_TIMER[1]>=0 DO M50
X114.720 Y32.364 F300
X114.284 Y32.157
X113.764 Y31.967
X113.577 Y31.913
X112.871 Y31.768
X112.205 Y31.701
X111.890 Y31.690
X21.940 Y31.690
X21.940 Y23.050
X117.849 Y23.057
X118.289 Y23.112
X118.470 Y23.149
X118.568 Y23.178
ID=1 WHEN $AC_TIMER[1]>=0 DO M51
X120.74 Y121.85 F1000
ID=1 WHEN $AC_TIMER[1]>=0 DO M50
X117.860 Y121.850 F300
X117.856 Y37.519
X117.798 Y36.797
X117.677 Y36.141
X117.573 Y35.756
X117.383 Y35.236
X117.307 Y35.065
X116.965 Y34.432
X120.716 Y25.722
X120.740 Y26.187
X120.740 Y121.750
ID=1 WHEN $AC_TIMER[1]>=0 DO M51
X96.18 Y138.97 F1000
ID=1 WHEN $AC_TIMER[1]>=0 DO M50
X5.433 Y138.964 F300
X5.251 Y138.919
X5.040 Y138.791
X4.966 Y138.708
X4.862 Y138.521
X4.831 Y138.362
X4.820 Y138.168
X4.820 Y133.493
X5.037 Y133.703
X5.250 Y133.888
X5.790 Y134.312
X6.041 Y134.487
X6.782 Y134.940
X7.409 Y135.261
X7.772 Y135.413
X8.377 Y135.630
X8.625 Y135.706
X9.297 Y135.881
X9.621 Y135.945
X10.302 Y136.041
X10.593 Y136.067
X11.260 Y136.090
X96.180 Y136.090
X96.180 Y138.870
ID=1 WHEN $AC_TIMER[1]>=0 DO M51
X114.352 Y25.937 F1000
ID=1 WHEN $AC_TIMER[1]>=0 DO M50
X113.078 Y28.895 F300
X112.306 Y28.823
X111.890 Y28.810
X24.820 Y28.810
X24.820 Y25.930
X114.252 Y25.937
ID=1 WHEN $AC_TIMER[1]>=0 DO M51

; Inicio do trecho do raster
; Final do trecho do raster


M63		;POWDER MIXER OFF
M67		;POWDER FEED OFF
M65		;CARRIER OFF
G4F5
M79     ;GAS 1 OFF

M0

M78     ; GAS 1 ON
M64		;CARRIER ON
H2 = R3	;SET POWDER FLOW
M62		;POWDER MIXER ON
M66		;POWDER FEED ON
G4F10

; Layer 4
G1 Z5.760 F1000
X99.06 Y141.85 F1000
ID=1 WHEN $AC_TIMER[1]>=0 DO M50
X5.528 Y141.850 F300
X5.131 Y141.835
X4.761 Y141.771
X4.395 Y141.677
X4.064 Y141.546
X3.716 Y141.368
X3.401 Y141.168
X3.113 Y140.937
X2.853 Y140.677
X2.622 Y140.389
X2.418 Y140.069
X2.244 Y139.735
X2.114 Y139.400
X2.022 Y139.040
X1.964 Y138.667
X1.940 Y138.249
X1.940 Y44.730
X4.820 Y44.730
X4.822 Y126.883
X4.871 Y127.566
X4.986 Y128.202
X5.167 Y128.861
X5.418 Y129.485
X5.746 Y130.105
X6.108 Y130.633
X6.542 Y131.158
X7.017 Y131.620
X7.567 Y132.045
X8.125 Y132.392
X8.725 Y132.691
X9.349 Y132.924
X10.027 Y133.093
X10.702 Y133.189
X11.260 Y133.210
X99.060 Y133.210
X99.060 Y141.750
ID=1 WHEN $AC_TIMER[1]>=0 DO M51
X121.41 Y121.85 F1000
ID=1 WHEN $AC_TIMER[1]>=0 DO M50
X118.530 Y121.850 F300
X118.526 Y36.829
X118.467 Y36.102
X118.347 Y35.461
X118.243 Y35.076
X118.053 Y34.556
X117.977 Y34.385
X117.665 Y33.797
X117.445 Y33.464
X117.125 Y33.054
X116.996 Y32.910
X116.498 Y32.429
X116.044 Y32.071
X115.323 Y31.652
X114.921 Y31.469
X114.237 Y31.243
X113.607 Y31.108
X113.206 Y31.052
X112.560 Y31.020
X21.940 Y31.020
X21.940 Y22.380
X118.280 Y22.380
X118.741 Y22.407
X119.179 Y22.492
X119.499 Y22.581
X119.850 Y22.733
X120.142 Y22.908
X120.416 Y23.124
X120.698 Y23.413
X120.922 Y23.707
X120.981 Y23.802
X121.150 Y24.140
X121.271 Y24.490
X121.386 Y25.052
X121.410 Y25.508
X121.410 Y121.750
ID=1 WHEN $AC_TIMER[1]>=0 DO M51
X96.18 Y138.97 F1000
ID=1 WHEN $AC_TIMER[1]>=0 DO M50
X5.433 Y138.964 F300
X5.251 Y138.919
X5.040 Y138.791
X4.966 Y138.708
X4.862 Y138.521
X4.831 Y138.362
X4.820 Y138.168
X4.820 Y133.501
X5.011 Y133.686
X5.255 Y133.898
X5.805 Y134.323
X6.045 Y134.490
X6.603 Y134.837
X6.842 Y134.971
X7.443 Y135.270
X7.717 Y135.389
X8.341 Y135.622
X8.653 Y135.719
X9.332 Y135.887
X9.621 Y135.944
X10.296 Y136.040
X10.593 Y136.067
X11.260 Y136.090
X96.180 Y136.090
X96.180 Y138.870
ID=1 WHEN $AC_TIMER[1]>=0 DO M51
X118.53 Y30.3876 F1000
ID=1 WHEN $AC_TIMER[1]>=0 DO M50
X118.282 Y30.168 F300
X117.828 Y29.810
X117.491 Y29.580
X116.770 Y29.162
X116.514 Y29.029
X116.112 Y28.847
X115.825 Y28.735
X115.141 Y28.509
X114.841 Y28.427
X114.006 Y28.256
X113.348 Y28.176
X112.560 Y28.140
X24.820 Y28.140
X24.820 Y25.260
X118.197 Y25.260
X118.380 Y25.270
X118.496 Y25.293
X118.521 Y25.418
X118.530 Y25.584
X118.530 Y30.288
ID=1 WHEN $AC_TIMER[1]>=0 DO M51

; Inicio do trecho do raster
; Final do trecho do raster


M63		;POWDER MIXER OFF
M67		;POWDER FEED OFF
M65		;CARRIER OFF
G4F5
M79     ;GAS 1 OFF

M0

M78     ; GAS 1 ON
M64		;CARRIER ON
H2 = R3	;SET POWDER FLOW
M62		;POWDER MIXER ON
M66		;POWDER FEED ON
G4F10

; Layer 5
G1 Z7.200 F1000
X99.06 Y141.85 F1000
ID=1 WHEN $AC_TIMER[1]>=0 DO M50
X5.528 Y141.850 F300
X5.131 Y141.835
X4.761 Y141.771
X4.395 Y141.677
X4.064 Y141.546
X3.716 Y141.368
X3.401 Y141.168
X3.113 Y140.937
X2.853 Y140.677
X2.622 Y140.389
X2.418 Y140.069
X2.244 Y139.735
X2.114 Y139.400
X2.022 Y139.040
X1.964 Y138.667
X1.940 Y138.249
X1.940 Y44.730
X4.820 Y44.730
X4.822 Y126.893
X4.871 Y127.576
X4.993 Y128.238
X5.177 Y128.871
X5.433 Y129.506
X5.734 Y130.071
X6.088 Y130.613
X6.535 Y131.151
X7.037 Y131.632
X7.577 Y132.055
X8.157 Y132.413
X8.739 Y132.693
X9.388 Y132.934
X10.031 Y133.093
X10.711 Y133.189
X11.260 Y133.210
X99.060 Y133.210
X99.060 Y141.750
ID=1 WHEN $AC_TIMER[1]>=0 DO M51
X122.08 Y121.85 F1000
ID=1 WHEN $AC_TIMER[1]>=0 DO M50
X119.200 Y121.850 F300
X119.197 Y36.151
X119.140 Y35.433
X119.022 Y34.785
X118.801 Y34.087
X118.526 Y33.462
X118.416 Y33.252
X118.125 Y32.807
X117.805 Y32.387
X117.654 Y32.218
X117.107 Y31.708
X116.677 Y31.378
X116.502 Y31.263
X116.072 Y31.023
X115.908 Y30.944
X115.188 Y30.654
X114.999 Y30.593
X114.522 Y30.479
X113.876 Y30.382
X113.230 Y30.350
X21.940 Y30.350
X21.940 Y21.710
X118.952 Y21.710
X119.387 Y21.733
X119.846 Y21.820
X120.223 Y21.934
X120.526 Y22.066
X120.845 Y22.253
X120.963 Y22.340
X121.195 Y22.546
X121.470 Y22.863
X121.664 Y23.156
X121.826 Y23.472
X121.886 Y23.627
X121.998 Y24.007
X122.032 Y24.187
X122.080 Y24.829
X122.080 Y121.750
ID=1 WHEN $AC_TIMER[1]>=0 DO M51
X96.18 Y138.97 F1000
ID=1 WHEN $AC_TIMER[1]>=0 DO M50
X5.433 Y138.964 F300
X5.251 Y138.919
X5.040 Y138.791
X4.966 Y138.708
X4.862 Y138.521
X4.831 Y138.362
X4.820 Y138.168
X4.820 Y133.496
X5.260 Y133.898
X5.800 Y134.322
X6.063 Y134.505
X6.643 Y134.863
X6.912 Y135.010
X7.494 Y135.290
X7.736 Y135.392
X8.384 Y135.633
X8.694 Y135.729
X9.338 Y135.889
X9.630 Y135.945
X10.311 Y136.041
X10.600 Y136.067
X11.260 Y136.090
X96.180 Y136.090
X96.180 Y138.870
ID=1 WHEN $AC_TIMER[1]>=0 DO M51
X119.2 Y29.7218 F1000
ID=1 WHEN $AC_TIMER[1]>=0 DO M50
X118.860 Y29.423 F300
X118.259 Y28.972
X117.905 Y28.748
X117.150 Y28.346
X116.077 Y27.915
X115.669 Y27.792
X114.949 Y27.631
X114.302 Y27.534
X114.018 Y27.506
X113.230 Y27.470
X24.820 Y27.470
X24.820 Y24.590
X118.876 Y24.590
X119.040 Y24.599
X119.177 Y24.627
X119.200 Y24.937
X119.200 Y29.622
ID=1 WHEN $AC_TIMER[1]>=0 DO M51

; Inicio do trecho do raster
; Final do trecho do raster


M63		;POWDER MIXER OFF
M67		;POWDER FEED OFF
M65		;CARRIER OFF
G4F5
M79     ;GAS 1 OFF

M0

M78     ; GAS 1 ON
M64		;CARRIER ON
H2 = R3	;SET POWDER FLOW
M62		;POWDER MIXER ON
M66		;POWDER FEED ON
G4F10

; Layer 6
G1 Z8.640 F1000
X99.06 Y141.85 F1000
ID=1 WHEN $AC_TIMER[1]>=0 DO M50
X5.528 Y141.850 F300
X5.131 Y141.835
X4.761 Y141.771
X4.395 Y141.677
X4.064 Y141.546
X3.716 Y141.368
X3.401 Y141.168
X3.113 Y140.937
X2.853 Y140.677
X2.622 Y140.389
X2.418 Y140.069
X2.244 Y139.735
X2.114 Y139.400
X2.022 Y139.040
X1.964 Y138.667
X1.940 Y138.249
X1.940 Y44.730
X4.820 Y44.730
X4.822 Y126.885
X4.872 Y127.590
X4.991 Y128.231
X5.181 Y128.890
X5.428 Y129.495
X5.743 Y130.095
X6.096 Y130.622
X6.565 Y131.182
X7.043 Y131.639
X7.557 Y132.041
X8.134 Y132.397
X8.594 Y132.637
X8.763 Y132.712
X9.394 Y132.935
X10.041 Y133.093
X10.720 Y133.189
X11.260 Y133.210
X99.060 Y133.210
X99.060 Y141.750
ID=1 WHEN $AC_TIMER[1]>=0 DO M51
X122.75 Y121.85 F1000
ID=1 WHEN $AC_TIMER[1]>=0 DO M50
X119.870 Y121.850 F300
X119.867 Y35.461
X119.827 Y34.881
X119.802 Y34.698
X119.659 Y34.014
X119.499 Y33.484
X119.436 Y33.315
X119.236 Y32.865
X119.155 Y32.709
X118.808 Y32.144
X118.550 Y31.807
X118.091 Y31.307
X117.754 Y31.008
X117.354 Y30.708
X116.767 Y30.363
X116.597 Y30.276
X115.981 Y30.019
X115.567 Y29.893
X115.017 Y29.773
X114.816 Y29.744
X113.900 Y29.680
X21.940 Y29.680
X21.940 Y21.040
X119.658 Y21.040
X120.047 Y21.059
X120.539 Y21.151
X120.864 Y21.249
X121.362 Y21.483
X121.542 Y21.607
X122.750 Y24.426
X122.750 Y121.750
ID=1 WHEN $AC_TIMER[1]>=0 DO M51
X96.18 Y138.97 F1000
ID=1 WHEN $AC_TIMER[1]>=0 DO M50
X5.433 Y138.964 F300
X5.251 Y138.919
X5.040 Y138.791
X4.966 Y138.708
X4.862 Y138.521
X4.831 Y138.362
X4.820 Y138.168
X4.820 Y133.498
X5.267 Y133.905
X5.780 Y134.308
X6.046 Y134.493
X6.802 Y134.950
X7.429 Y135.271
X7.801 Y135.426
X8.432 Y135.650
X8.711 Y135.733
X9.358 Y135.891
X9.640 Y135.945
X10.319 Y136.041
X10.607 Y136.067
X11.260 Y136.090
X96.180 Y136.090
X96.180 Y138.870
ID=1 WHEN $AC_TIMER[1]>=0 DO M51
X119.87 Y29.0382 F1000
ID=1 WHEN $AC_TIMER[1]>=0 DO M50
X119.482 Y28.704 F300
X119.082 Y28.404
X118.814 Y28.225
X118.073 Y27.796
X117.707 Y27.619
X117.090 Y27.361
X116.820 Y27.264
X116.181 Y27.079
X115.431 Y26.923
X115.017 Y26.871
X113.900 Y26.800
X24.820 Y26.800
X24.820 Y23.920
X119.400 Y23.920
X119.870 Y25.017
X119.870 Y28.938
ID=1 WHEN $AC_TIMER[1]>=0 DO M51

; Inicio do trecho do raster
; Final do trecho do raster


M63		;POWDER MIXER OFF
M67		;POWDER FEED OFF
M65		;CARRIER OFF
G4F5
M79     ;GAS 1 OFF

M0

M78     ; GAS 1 ON
M64		;CARRIER ON
H2 = R3	;SET POWDER FLOW
M62		;POWDER MIXER ON
M66		;POWDER FEED ON
G4F10

; Layer 7
G1 Z10.080 F1000
X99.06 Y141.85 F1000
ID=1 WHEN $AC_TIMER[1]>=0 DO M50
X5.528 Y141.850 F300
X5.131 Y141.835
X4.761 Y141.771
X4.395 Y141.677
X4.052 Y141.542
X3.749 Y141.394
X3.404 Y141.171
X3.113 Y140.937
X2.853 Y140.677
X2.622 Y140.389
X2.418 Y140.069
X2.244 Y139.735
X2.114 Y139.400
X2.022 Y139.040
X1.964 Y138.667
X1.940 Y138.249
X1.940 Y44.730
X4.820 Y44.730
X4.822 Y126.903
X4.871 Y127.586
X4.993 Y128.248
X5.177 Y128.881
X5.367 Y129.371
X5.445 Y129.538
X5.739 Y130.073
X6.088 Y130.613
X6.522 Y131.138
X7.007 Y131.612
X7.539 Y132.030
X8.167 Y132.423
X8.751 Y132.703
X9.191 Y132.873
X9.361 Y132.927
X10.051 Y133.093
X10.729 Y133.189
X11.260 Y133.210
X99.060 Y133.210
X99.060 Y141.750
ID=1 WHEN $AC_TIMER[1]>=0 DO M51
X123.42 Y121.85 F1000
ID=1 WHEN $AC_TIMER[1]>=0 DO M50
X120.540 Y121.850 F300
X120.537 Y34.776
X120.487 Y34.156
X120.367 Y33.486
X120.312 Y33.273
X120.062 Y32.543
X119.977 Y32.345
X119.727 Y31.865
X119.627 Y31.701
X119.210 Y31.127
X118.850 Y30.727
X118.713 Y30.593
X118.179 Y30.152
X117.586 Y29.768
X117.156 Y29.548
X116.969 Y29.469
X116.299 Y29.241
X116.079 Y29.181
X115.523 Y29.078
X114.810 Y29.010
X21.940 Y29.010
X21.940 Y20.370
X120.403 Y20.370
X120.746 Y20.392
X121.124 Y20.454
X121.562 Y20.582
X121.689 Y20.636
X122.029 Y20.813
X122.320 Y21.018
X122.670 Y21.343
X122.930 Y21.681
X123.099 Y21.973
X123.291 Y22.500
X123.376 Y22.890
X123.420 Y23.306
X123.420 Y121.750
ID=1 WHEN $AC_TIMER[1]>=0 DO M51
X96.18 Y138.97 F1000
ID=1 WHEN $AC_TIMER[1]>=0 DO M50
X5.433 Y138.964 F300
X5.216 Y138.905
X5.040 Y138.791
X4.966 Y138.708
X4.862 Y138.521
X4.831 Y138.362
X4.820 Y138.168
X4.820 Y133.502
X5.227 Y133.876
X5.759 Y134.294
X6.009 Y134.470
X6.638 Y134.864
X6.923 Y135.021
X7.713 Y135.390
X8.491 Y135.673
X9.377 Y135.893
X9.649 Y135.945
X10.327 Y136.041
X10.613 Y136.066
X11.260 Y136.090
X96.180 Y136.090
X96.180 Y138.870
ID=1 WHEN $AC_TIMER[1]>=0 DO M51
X120.54 Y28.3668 F1000
ID=1 WHEN $AC_TIMER[1]>=0 DO M50
X120.013 Y27.931 F300
X119.744 Y27.734
X119.151 Y27.350
X118.898 Y27.204
X118.284 Y26.898
X117.896 Y26.742
X117.057 Y26.462
X116.602 Y26.349
X115.797 Y26.211
X115.084 Y26.143
X114.810 Y26.130
X24.820 Y26.130
X24.820 Y23.250
X120.419 Y23.257
X120.508 Y23.275
X120.540 Y23.457
X120.540 Y28.267
ID=1 WHEN $AC_TIMER[1]>=0 DO M51

; Inicio do trecho do raster
; Final do trecho do raster


M63		;POWDER MIXER OFF
M67		;POWDER FEED OFF
M65		;CARRIER OFF
G4F5
M79     ;GAS 1 OFF

M0

M78     ; GAS 1 ON
M64		;CARRIER ON
H2 = R3	;SET POWDER FLOW
M62		;POWDER MIXER ON
M66		;POWDER FEED ON
G4F10

; Layer 8
G1 Z11.520 F1000
X99.06 Y141.85 F1000
ID=1 WHEN $AC_TIMER[1]>=0 DO M50
X5.528 Y141.850 F300
X5.131 Y141.835
X4.761 Y141.771
X4.395 Y141.677
X4.064 Y141.546
X3.716 Y141.368
X3.401 Y141.168
X3.113 Y140.937
X2.853 Y140.677
X2.622 Y140.389
X2.418 Y140.069
X2.251 Y139.748
X2.103 Y139.357
X2.022 Y139.040
X1.964 Y138.667
X1.940 Y138.249
X1.940 Y44.730
X4.820 Y44.730
X4.824 Y126.940
X4.877 Y127.569
X4.957 Y128.089
X5.001 Y128.284
X5.177 Y128.862
X5.337 Y129.302
X5.417 Y129.484
X5.758 Y130.112
X6.139 Y130.676
X6.562 Y131.178
X7.023 Y131.624
X7.597 Y132.065
X8.177 Y132.423
X8.751 Y132.699
X9.181 Y132.869
X9.367 Y132.928
X10.057 Y133.093
X10.729 Y133.189
X11.260 Y133.210
X99.060 Y133.210
X99.060 Y141.750
ID=1 WHEN $AC_TIMER[1]>=0 DO M51
X124.1 Y121.85 F1000
ID=1 WHEN $AC_TIMER[1]>=0 DO M50
X121.220 Y121.850 F300
X121.217 Y34.211
X121.159 Y33.486
X121.049 Y32.846
X120.926 Y32.395
X120.778 Y31.978
X120.647 Y31.665
X120.327 Y31.065
X120.103 Y30.736
X119.643 Y30.176
X119.467 Y29.997
X118.887 Y29.505
X118.516 Y29.250
X118.234 Y29.082
X117.658 Y28.805
X117.053 Y28.592
X116.605 Y28.478
X115.937 Y28.376
X115.470 Y28.340
X21.940 Y28.340
X21.940 Y19.700
X121.082 Y19.700
X121.418 Y19.722
X121.799 Y19.784
X122.282 Y19.942
X122.517 Y20.038
X122.999 Y20.347
X123.340 Y20.662
X123.567 Y20.958
X123.778 Y21.329
X123.843 Y21.469
X123.967 Y21.828
X124.079 Y22.435
X124.100 Y22.828
X124.100 Y121.750
ID=1 WHEN $AC_TIMER[1]>=0 DO M51
X96.18 Y138.97 F1000
ID=1 WHEN $AC_TIMER[1]>=0 DO M50
X5.433 Y138.964 F300
X5.251 Y138.919
X5.040 Y138.791
X4.966 Y138.708
X4.884 Y138.569
X4.846 Y138.460
X4.820 Y138.168
X4.820 Y133.500
X5.020 Y133.694
X5.269 Y133.909
X5.843 Y134.349
X6.083 Y134.515
X6.663 Y134.873
X6.929 Y135.019
X7.692 Y135.377
X8.306 Y135.613
X8.700 Y135.730
X9.391 Y135.894
X9.649 Y135.944
X10.321 Y136.040
X10.613 Y136.066
X11.260 Y136.090
X96.180 Y136.090
X96.180 Y138.870
ID=1 WHEN $AC_TIMER[1]>=0 DO M51
X121.22 Y27.7071 F1000
ID=1 WHEN $AC_TIMER[1]>=0 DO M50
X120.748 Y27.307 F300
X120.523 Y27.135
X119.986 Y26.773
X119.481 Y26.486
X118.905 Y26.209
X118.616 Y26.089
X118.011 Y25.876
X117.316 Y25.687
X117.039 Y25.631
X116.156 Y25.504
X115.470 Y25.460
X24.820 Y25.460
X24.820 Y22.580
X121.117 Y22.591
X121.183 Y22.613
X121.213 Y22.774
X121.220 Y27.607
ID=1 WHEN $AC_TIMER[1]>=0 DO M51

; Inicio do trecho do raster
; Final do trecho do raster


M63		;POWDER MIXER OFF
M67		;POWDER FEED OFF
M65		;CARRIER OFF
G4F5
M79     ;GAS 1 OFF

M0

M78     ; GAS 1 ON
M64		;CARRIER ON
H2 = R3	;SET POWDER FLOW
M62		;POWDER MIXER ON
M66		;POWDER FEED ON
G4F10

; Layer 9
G1 Z12.960 F1000
X99.06 Y141.85 F1000
ID=1 WHEN $AC_TIMER[1]>=0 DO M50
X5.528 Y141.850 F300
X5.131 Y141.835
X4.761 Y141.771
X4.395 Y141.677
X4.064 Y141.546
X3.716 Y141.368
X3.401 Y141.168
X3.113 Y140.937
X2.853 Y140.677
X2.622 Y140.389
X2.418 Y140.069
X2.244 Y139.735
X2.114 Y139.400
X2.022 Y139.040
X1.964 Y138.667
X1.940 Y138.249
X1.940 Y44.730
X4.820 Y44.730
X4.824 Y126.950
X4.877 Y127.581
X4.984 Y128.199
X5.180 Y128.882
X5.412 Y129.474
X5.757 Y130.121
X6.088 Y130.613
X6.534 Y131.150
X7.074 Y131.665
X7.609 Y132.073
X8.164 Y132.412
X8.700 Y132.679
X9.180 Y132.869
X9.367 Y132.928
X10.033 Y133.089
X10.493 Y133.169
X10.685 Y133.189
X11.260 Y133.210
X99.060 Y133.210
X99.060 Y141.750
ID=1 WHEN $AC_TIMER[1]>=0 DO M51
X124.77 Y121.85 F1000
ID=1 WHEN $AC_TIMER[1]>=0 DO M50
X121.890 Y121.850 F300
X121.888 Y33.566
X121.858 Y32.986
X121.837 Y32.802
X121.707 Y32.125
X121.557 Y31.585
X121.499 Y31.416
X121.452 Y31.325
X121.300 Y30.962
X120.940 Y30.312
X120.819 Y30.130
X120.479 Y29.690
X120.358 Y29.552
X119.875 Y29.080
X119.490 Y28.780
X118.893 Y28.407
X118.403 Y28.167
X118.241 Y28.099
X117.599 Y27.883
X117.275 Y27.808
X116.603 Y27.705
X116.130 Y27.670
X21.940 Y27.670
X21.940 Y19.030
X121.757 Y19.030
X122.208 Y19.070
X122.501 Y19.118
X122.889 Y19.239
X123.222 Y19.385
X123.650 Y19.656
X123.768 Y19.754
X124.021 Y20.008
X124.270 Y20.337
X124.435 Y20.635
X124.575 Y20.961
X124.701 Y21.434
X124.746 Y21.707
X124.770 Y22.158
X124.770 Y121.750
ID=1 WHEN $AC_TIMER[1]>=0 DO M51
X96.18 Y138.97 F1000
ID=1 WHEN $AC_TIMER[1]>=0 DO M50
X5.433 Y138.964 F300
X5.251 Y138.919
X5.040 Y138.791
X4.966 Y138.708
X4.862 Y138.521
X4.831 Y138.362
X4.820 Y138.168
X4.820 Y133.495
X5.087 Y133.750
X5.329 Y133.957
X5.865 Y134.364
X6.107 Y134.530
X6.879 Y134.990
X7.640 Y135.357
X8.304 Y135.613
X8.693 Y135.729
X9.540 Y135.926
X10.190 Y136.033
X10.579 Y136.067
X11.260 Y136.090
X96.180 Y136.090
X96.180 Y138.870
ID=1 WHEN $AC_TIMER[1]>=0 DO M51
X121.887 Y27.0191 F1000
ID=1 WHEN $AC_TIMER[1]>=0 DO M50
X121.646 Y26.809 F300
X121.262 Y26.509
X121.016 Y26.337
X120.419 Y25.964
X120.160 Y25.820
X119.348 Y25.440
X118.519 Y25.154
X117.926 Y25.002
X117.037 Y24.858
X116.344 Y24.798
X24.820 Y24.790
X24.820 Y21.910
X121.631 Y21.910
X121.854 Y21.933
X121.879 Y22.030
X121.890 Y22.234
X121.887 Y26.919
ID=1 WHEN $AC_TIMER[1]>=0 DO M51

; Inicio do trecho do raster
; Final do trecho do raster


M63		;POWDER MIXER OFF
M67		;POWDER FEED OFF
M65		;CARRIER OFF
G4F5
M79     ;GAS 1 OFF

M0

M78     ; GAS 1 ON
M64		;CARRIER ON
H2 = R3	;SET POWDER FLOW
M62		;POWDER MIXER ON
M66		;POWDER FEED ON
G4F10

; Layer 10
G1 Z14.400 F1000
X99.06 Y141.85 F1000
ID=1 WHEN $AC_TIMER[1]>=0 DO M50
X5.528 Y141.850 F300
X5.131 Y141.835
X4.761 Y141.771
X4.395 Y141.677
X4.052 Y141.542
X3.766 Y141.402
X3.402 Y141.169
X3.113 Y140.937
X2.853 Y140.677
X2.622 Y140.389
X2.418 Y140.069
X2.244 Y139.735
X2.114 Y139.400
X2.022 Y139.040
X1.964 Y138.667
X1.940 Y138.249
X1.940 Y44.730
X4.820 Y44.730
X4.824 Y126.948
X4.882 Y127.620
X5.003 Y128.268
X5.187 Y128.901
X5.377 Y129.391
X5.455 Y129.558
X5.752 Y130.099
X5.992 Y130.479
X6.100 Y130.627
X6.572 Y131.188
X7.019 Y131.621
X7.607 Y132.075
X8.187 Y132.433
X8.793 Y132.722
X9.424 Y132.945
X10.069 Y133.103
X10.685 Y133.189
X11.260 Y133.210
X99.060 Y133.210
X99.060 Y141.750
ID=1 WHEN $AC_TIMER[1]>=0 DO M51
X125.44 Y121.85 F1000
ID=1 WHEN $AC_TIMER[1]>=0 DO M50
X122.560 Y121.850 F300
X122.558 Y32.896
X122.528 Y32.316
X122.508 Y32.137
X122.376 Y31.438
X122.226 Y30.908
X121.863 Y30.066
X121.721 Y29.807
X121.480 Y29.437
X121.028 Y28.882
X120.530 Y28.398
X120.110 Y28.068
X119.610 Y27.756
X119.244 Y27.567
X118.606 Y27.315
X117.995 Y27.146
X117.227 Y27.022
X116.590 Y26.990
X21.940 Y26.990
X21.940 Y18.350
X122.291 Y18.350
X122.897 Y18.400
X123.171 Y18.448
X123.376 Y18.502
X123.894 Y18.713
X124.166 Y18.872
X124.451 Y19.098
X124.701 Y19.347
X124.910 Y19.614
X125.114 Y19.974
X125.248 Y20.296
X125.345 Y20.633
X125.432 Y21.171
X125.440 Y21.469
X125.440 Y121.750
ID=1 WHEN $AC_TIMER[1]>=0 DO M51
X96.18 Y138.97 F1000
ID=1 WHEN $AC_TIMER[1]>=0 DO M50
X5.433 Y138.964 F300
X5.284 Y138.932
X5.178 Y138.887
X4.999 Y138.750
X4.862 Y138.521
X4.831 Y138.362
X4.820 Y138.168
X4.820 Y133.501
X5.016 Y133.691
X5.260 Y133.902
X5.848 Y134.355
X6.093 Y134.525
X6.673 Y134.883
X6.951 Y135.035
X7.557 Y135.323
X7.831 Y135.436
X8.462 Y135.660
X8.741 Y135.743
X9.385 Y135.901
X9.670 Y135.955
X10.286 Y136.041
X10.579 Y136.067
X11.260 Y136.090
X96.180 Y136.090
X96.180 Y138.870
ID=1 WHEN $AC_TIMER[1]>=0 DO M51
X122.56 Y26.3548 F1000
ID=1 WHEN $AC_TIMER[1]>=0 DO M50
X122.309 Y26.133 F300
X121.889 Y25.803
X121.634 Y25.624
X120.933 Y25.198
X120.568 Y25.009
X120.299 Y24.887
X119.661 Y24.636
X119.373 Y24.540
X118.763 Y24.371
X118.455 Y24.304
X117.688 Y24.179
X117.372 Y24.146
X116.590 Y24.110
X24.820 Y24.110
X24.820 Y21.230
X122.173 Y21.230
X122.530 Y21.267
X122.560 Y21.509
X122.560 Y26.255
ID=1 WHEN $AC_TIMER[1]>=0 DO M51

; Inicio do trecho do raster
; Final do trecho do raster


M63		;POWDER MIXER OFF
M67		;POWDER FEED OFF
M65		;CARRIER OFF
G4F5
M79     ;GAS 1 OFF

M0

M78     ; GAS 1 ON
M64		;CARRIER ON
H2 = R3	;SET POWDER FLOW
M62		;POWDER MIXER ON
M66		;POWDER FEED ON
G4F10

; Layer 11
G1 Z15.840 F1000
X99.06 Y141.85 F1000
ID=1 WHEN $AC_TIMER[1]>=0 DO M50
X5.528 Y141.850 F300
X5.131 Y141.835
X4.761 Y141.771
X4.395 Y141.677
X4.064 Y141.546
X3.716 Y141.368
X3.401 Y141.168
X3.113 Y140.937
X2.853 Y140.677
X2.622 Y140.389
X2.418 Y140.069
X2.244 Y139.735
X2.114 Y139.400
X2.022 Y139.040
X1.964 Y138.667
X1.940 Y138.249
X1.940 Y44.730
X4.820 Y44.730
X4.824 Y126.960
X4.881 Y127.616
X5.003 Y128.278
X5.184 Y128.903
X5.417 Y129.483
X5.776 Y130.145
X6.136 Y130.670
X6.522 Y131.138
X7.007 Y131.612
X7.555 Y132.040
X8.197 Y132.433
X8.776 Y132.711
X9.354 Y132.925
X9.974 Y133.079
X10.494 Y133.169
X10.685 Y133.189
X11.260 Y133.210
X99.060 Y133.210
X99.060 Y141.750
ID=1 WHEN $AC_TIMER[1]>=0 DO M51
X126.11 Y121.85 F1000
ID=1 WHEN $AC_TIMER[1]>=0 DO M50
X123.230 Y121.850 F300
X123.229 Y32.251
X123.206 Y31.720
X123.100 Y31.013
X122.970 Y30.473
X122.911 Y30.284
X122.679 Y29.700
X122.495 Y29.319
X122.255 Y28.919
X122.141 Y28.756
X121.681 Y28.186
X121.530 Y28.026
X121.190 Y27.716
X120.785 Y27.402
X120.223 Y27.057
X119.576 Y26.751
X119.060 Y26.576
X118.639 Y26.472
X117.897 Y26.352
X117.260 Y26.320
X21.940 Y26.320
X21.940 Y17.680
X122.982 Y17.680
X123.418 Y17.703
X123.926 Y17.799
X124.249 Y17.902
X124.685 Y18.110
X124.876 Y18.231
X125.128 Y18.426
X125.365 Y18.670
X125.580 Y18.944
X125.784 Y19.304
X125.928 Y19.649
X125.981 Y19.815
X126.091 Y20.401
X126.110 Y20.638
X126.110 Y121.750
ID=1 WHEN $AC_TIMER[1]>=0 DO M51
X96.18 Y138.97 F1000
ID=1 WHEN $AC_TIMER[1]>=0 DO M50
X5.433 Y138.964 F300
X5.251 Y138.919
X5.040 Y138.791
X4.966 Y138.708
X4.862 Y138.521
X4.831 Y138.362
X4.820 Y138.168
X4.820 Y133.502
X5.233 Y133.881
X5.781 Y134.309
X6.050 Y134.495
X6.692 Y134.889
X6.951 Y135.030
X7.531 Y135.308
X7.777 Y135.412
X8.354 Y135.626
X8.662 Y135.721
X9.483 Y135.917
X10.193 Y136.033
X10.579 Y136.067
X11.260 Y136.090
X96.180 Y136.090
X96.180 Y138.870
ID=1 WHEN $AC_TIMER[1]>=0 DO M51
X123.23 Y25.6841 F1000
ID=1 WHEN $AC_TIMER[1]>=0 DO M50
X122.954 Y25.439 F300
X122.549 Y25.125
X122.293 Y24.948
X121.731 Y24.603
X121.453 Y24.453
X120.806 Y24.147
X120.502 Y24.024
X119.751 Y23.780
X119.097 Y23.628
X118.355 Y23.509
X118.042 Y23.476
X117.260 Y23.440
X24.820 Y23.440
X24.820 Y20.560
X122.906 Y20.560
X123.074 Y20.569
X123.197 Y20.592
X123.230 Y20.771
X123.230 Y25.584
ID=1 WHEN $AC_TIMER[1]>=0 DO M51

; Inicio do trecho do raster
; Final do trecho do raster


M63		;POWDER MIXER OFF
M67		;POWDER FEED OFF
M65		;CARRIER OFF
G4F5
M79     ;GAS 1 OFF

M0

M78     ; GAS 1 ON
M64		;CARRIER ON
H2 = R3	;SET POWDER FLOW
M62		;POWDER MIXER ON
M66		;POWDER FEED ON
G4F10

; Layer 12
G1 Z17.280 F1000
X99.06 Y141.85 F1000
ID=1 WHEN $AC_TIMER[1]>=0 DO M50
X5.528 Y141.850 F300
X5.131 Y141.835
X4.761 Y141.771
X4.395 Y141.677
X4.064 Y141.546
X3.716 Y141.368
X3.401 Y141.168
X3.113 Y140.937
X2.853 Y140.677
X2.622 Y140.389
X2.418 Y140.069
X2.238 Y139.724
X2.122 Y139.433
X2.022 Y139.040
X1.964 Y138.667
X1.940 Y138.249
X1.940 Y44.730
X4.820 Y44.730
X4.824 Y126.970
X4.881 Y127.626
X5.011 Y128.314
X5.188 Y128.895
X5.338 Y129.305
X5.421 Y129.491
X5.767 Y130.125
X6.088 Y130.613
X6.522 Y131.138
X7.016 Y131.619
X7.496 Y131.999
X7.649 Y132.105
X8.183 Y132.421
X8.700 Y132.679
X9.180 Y132.869
X9.361 Y132.927
X10.079 Y133.101
X10.685 Y133.189
X11.260 Y133.210
X99.060 Y133.210
X99.060 Y141.750
ID=1 WHEN $AC_TIMER[1]>=0 DO M51
X126.78 Y121.85 F1000
ID=1 WHEN $AC_TIMER[1]>=0 DO M50
X123.900 Y121.850 F300
X123.900 Y31.583
X123.874 Y31.018
X123.764 Y30.278
X123.596 Y29.646
X123.496 Y29.366
X123.321 Y28.963
X123.038 Y28.431
X122.680 Y27.905
X122.368 Y27.532
X121.902 Y27.076
X121.312 Y26.632
X120.894 Y26.382
X120.514 Y26.192
X120.345 Y26.121
X119.715 Y25.901
X119.504 Y25.844
X118.754 Y25.704
X118.567 Y25.682
X117.930 Y25.650
X21.940 Y25.650
X21.940 Y17.010
X123.652 Y17.010
X124.093 Y17.033
X124.373 Y17.079
X124.888 Y17.217
X125.086 Y17.299
X125.350 Y17.434
X125.646 Y17.632
X125.784 Y17.742
X126.104 Y18.077
X126.295 Y18.338
X126.534 Y18.790
X126.691 Y19.291
X126.773 Y19.853
X126.780 Y121.750
ID=1 WHEN $AC_TIMER[1]>=0 DO M51
X96.18 Y138.97 F1000
ID=1 WHEN $AC_TIMER[1]>=0 DO M50
X5.433 Y138.964 F300
X5.251 Y138.919
X5.040 Y138.791
X4.966 Y138.708
X4.865 Y138.533
X4.831 Y138.362
X4.820 Y138.168
X4.820 Y133.501
X5.229 Y133.877
X5.858 Y134.368
X6.180 Y134.582
X6.899 Y134.999
X7.640 Y135.357
X8.299 Y135.611
X8.681 Y135.726
X9.399 Y135.900
X9.666 Y135.952
X10.272 Y136.039
X10.579 Y136.067
X11.260 Y136.090
X96.180 Y136.090
X96.180 Y138.870
ID=1 WHEN $AC_TIMER[1]>=0 DO M51
X123.893 Y24.9973 F1000
ID=1 WHEN $AC_TIMER[1]>=0 DO M50
X123.633 Y24.774 F300
X123.044 Y24.331
X122.790 Y24.160
X122.182 Y23.806
X121.466 Y23.468
X120.456 Y23.117
X120.033 Y23.013
X119.096 Y22.845
X118.712 Y22.806
X117.930 Y22.770
X24.820 Y22.770
X24.820 Y19.890
X123.576 Y19.890
X123.775 Y19.900
X123.874 Y19.933
X123.893 Y20.060
X123.893 Y24.897
ID=1 WHEN $AC_TIMER[1]>=0 DO M51

; Inicio do trecho do raster
; Final do trecho do raster


M63		;POWDER MIXER OFF
M67		;POWDER FEED OFF
M65		;CARRIER OFF
G4F5
M79     ;GAS 1 OFF

M0

M78     ; GAS 1 ON
M64		;CARRIER ON
H2 = R3	;SET POWDER FLOW
M62		;POWDER MIXER ON
M66		;POWDER FEED ON
G4F10

; Layer 13
G1 Z18.720 F1000
X99.06 Y141.85 F1000
ID=1 WHEN $AC_TIMER[1]>=0 DO M50
X5.528 Y141.850 F300
X5.131 Y141.835
X4.761 Y141.771
X4.395 Y141.677
X4.051 Y141.541
X3.783 Y141.411
X3.400 Y141.168
X3.113 Y140.937
X2.853 Y140.677
X2.622 Y140.389
X2.418 Y140.069
X2.244 Y139.735
X2.114 Y139.400
X2.022 Y139.040
X1.964 Y138.667
X1.940 Y138.249
X1.940 Y44.730
X4.820 Y44.730
X4.824 Y126.980
X4.882 Y127.640
X5.009 Y128.306
X5.201 Y128.940
X5.465 Y129.578
X5.778 Y130.142
X6.155 Y130.702
X6.522 Y131.138
X7.007 Y131.612
X7.548 Y132.036
X8.068 Y132.366
X8.230 Y132.454
X8.775 Y132.707
X9.175 Y132.867
X9.361 Y132.927
X10.079 Y133.101
X10.685 Y133.189
X11.260 Y133.210
X99.060 Y133.210
X99.060 Y141.750
ID=1 WHEN $AC_TIMER[1]>=0 DO M51
X124.166 Y28.6856 F1000
ID=1 WHEN $AC_TIMER[1]>=0 DO M50
X123.968 Y28.233 F300
X123.871 Y28.042
X123.493 Y27.430
X123.198 Y27.043
X122.838 Y26.653
X122.699 Y26.522
X122.192 Y26.108
X121.839 Y25.871
X121.244 Y25.551
X120.764 Y25.351
X120.586 Y25.290
X119.961 Y25.129
X119.220 Y25.009
X119.027 Y24.990
X118.600 Y24.980
X21.940 Y24.980
X21.940 Y16.340
X124.323 Y16.340
X124.790 Y16.364
X125.018 Y16.400
X125.538 Y16.541
X125.944 Y16.720
X126.216 Y16.885
X126.458 Y17.077
X126.788 Y17.421
X126.929 Y17.612
X127.053 Y17.810
X127.216 Y18.156
X127.362 Y18.611
X127.415 Y18.909
X127.450 Y19.313
X127.450 Y121.850
X124.570 Y121.850
X124.570 Y30.914
X124.544 Y30.335
X124.400 Y29.444
X124.266 Y28.966
X124.200 Y28.780
ID=1 WHEN $AC_TIMER[1]>=0 DO M51
X96.18 Y138.97 F1000
ID=1 WHEN $AC_TIMER[1]>=0 DO M50
X5.433 Y138.964 F300
X5.284 Y138.932
X5.190 Y138.893
X5.040 Y138.791
X4.966 Y138.708
X4.862 Y138.521
X4.831 Y138.362
X4.820 Y138.168
X4.820 Y133.502
X5.231 Y133.879
X5.772 Y134.303
X6.005 Y134.468
X6.684 Y134.891
X7.019 Y135.067
X7.706 Y135.381
X8.289 Y135.607
X8.681 Y135.726
X9.399 Y135.900
X9.666 Y135.952
X10.272 Y136.039
X10.579 Y136.067
X11.260 Y136.090
X96.180 Y136.090
X96.180 Y138.870
ID=1 WHEN $AC_TIMER[1]>=0 DO M51
X124.57 Y24.3357 F1000
ID=1 WHEN $AC_TIMER[1]>=0 DO M50
X124.013 Y23.877 F300
X123.443 Y23.479
X123.204 Y23.335
X122.609 Y23.015
X122.352 Y22.892
X121.696 Y22.626
X121.306 Y22.501
X120.680 Y22.340
X120.422 Y22.286
X119.489 Y22.141
X119.098 Y22.111
X118.600 Y22.100
X24.820 Y22.100
X24.820 Y19.220
X124.248 Y19.220
X124.451 Y19.230
X124.544 Y19.256
X124.570 Y19.439
X124.570 Y24.236
ID=1 WHEN $AC_TIMER[1]>=0 DO M51

; Inicio do trecho do raster
; Final do trecho do raster


M63		;POWDER MIXER OFF
M67		;POWDER FEED OFF
M65		;CARRIER OFF
G4F5
M79     ;GAS 1 OFF

M0

M78     ; GAS 1 ON
M64		;CARRIER ON
H2 = R3	;SET POWDER FLOW
M62		;POWDER MIXER ON
M66		;POWDER FEED ON
G4F10

; Layer 14
G1 Z20.160 F1000
X99.06 Y141.85 F1000
ID=1 WHEN $AC_TIMER[1]>=0 DO M50
X5.528 Y141.850 F300
X5.131 Y141.835
X4.761 Y141.771
X4.395 Y141.677
X4.064 Y141.546
X3.716 Y141.368
X3.401 Y141.168
X3.113 Y140.937
X2.853 Y140.677
X2.622 Y140.389
X2.418 Y140.069
X2.244 Y139.735
X2.114 Y139.400
X2.022 Y139.040
X1.964 Y138.667
X1.940 Y138.249
X1.940 Y44.730
X4.820 Y44.730
X4.823 Y126.861
X4.881 Y127.642
X4.985 Y128.203
X5.192 Y128.916
X5.413 Y129.476
X5.715 Y130.043
X6.088 Y130.613
X6.522 Y131.138
X7.007 Y131.612
X7.559 Y132.042
X8.217 Y132.443
X8.803 Y132.724
X9.366 Y132.928
X10.083 Y133.100
X10.503 Y133.170
X10.685 Y133.189
X11.260 Y133.210
X99.060 Y133.210
X99.060 Y141.750
ID=1 WHEN $AC_TIMER[1]>=0 DO M51
X128.13 Y121.85 F1000
ID=1 WHEN $AC_TIMER[1]>=0 DO M50
X125.250 Y121.850 F300
X125.245 Y30.155
X125.213 Y29.653
X125.103 Y28.933
X125.059 Y28.734
X124.844 Y28.053
X124.646 Y27.574
X124.312 Y26.972
X124.034 Y26.570
X123.834 Y26.320
X123.567 Y26.032
X123.197 Y25.701
X122.531 Y25.209
X122.163 Y25.003
X121.463 Y24.693
X121.283 Y24.628
X120.803 Y24.488
X120.178 Y24.370
X119.706 Y24.320
X119.270 Y24.310
X21.940 Y24.310
X21.940 Y15.670
X124.993 Y15.670
X125.456 Y15.694
X125.838 Y15.756
X126.199 Y15.863
X126.632 Y16.058
X126.741 Y16.119
X127.161 Y16.435
X127.381 Y16.649
X127.646 Y17.010
X127.808 Y17.302
X127.938 Y17.623
X128.030 Y17.939
X128.115 Y18.513
X128.130 Y18.797
X128.130 Y121.750
ID=1 WHEN $AC_TIMER[1]>=0 DO M51
X96.18 Y138.97 F1000
ID=1 WHEN $AC_TIMER[1]>=0 DO M50
X5.433 Y138.964 F300
X5.251 Y138.919
X5.040 Y138.791
X4.966 Y138.708
X4.862 Y138.521
X4.831 Y138.362
X4.820 Y138.168
X4.820 Y133.502
X5.235 Y133.882
X5.787 Y134.313
X6.060 Y134.502
X6.719 Y134.903
X6.973 Y135.041
X7.559 Y135.322
X7.821 Y135.431
X8.384 Y135.636
X8.694 Y135.729
X9.610 Y135.941
X10.392 Y136.054
X11.260 Y136.090
X96.180 Y136.090
X96.180 Y138.870
ID=1 WHEN $AC_TIMER[1]>=0 DO M51
X125.25 Y23.6729 F1000
ID=1 WHEN $AC_TIMER[1]>=0 DO M50
X124.906 Y23.382 F300
X124.240 Y22.891
X123.938 Y22.696
X123.329 Y22.370
X122.452 Y21.988
X122.090 Y21.863
X121.610 Y21.723
X121.336 Y21.657
X120.478 Y21.505
X119.775 Y21.441
X119.270 Y21.430
X24.820 Y21.430
X24.820 Y18.550
X124.918 Y18.550
X125.213 Y18.578
X125.250 Y18.871
X125.250 Y23.573
ID=1 WHEN $AC_TIMER[1]>=0 DO M51

; Inicio do trecho do raster
; Final do trecho do raster


M63		;POWDER MIXER OFF
M67		;POWDER FEED OFF
M65		;CARRIER OFF
G4F5
M79     ;GAS 1 OFF

M0

M78     ; GAS 1 ON
M64		;CARRIER ON
H2 = R3	;SET POWDER FLOW
M62		;POWDER MIXER ON
M66		;POWDER FEED ON
G4F10

; Layer 15
G1 Z21.600 F1000
X99.06 Y141.85 F1000
ID=1 WHEN $AC_TIMER[1]>=0 DO M50
X5.528 Y141.850 F300
X5.131 Y141.835
X4.761 Y141.771
X4.395 Y141.677
X4.064 Y141.546
X3.716 Y141.368
X3.401 Y141.168
X3.113 Y140.937
X2.853 Y140.677
X2.622 Y140.389
X2.418 Y140.069
X2.244 Y139.735
X2.114 Y139.400
X2.022 Y139.040
X1.964 Y138.667
X1.940 Y138.249
X1.940 Y44.730
X4.820 Y44.730
X4.823 Y126.861
X4.881 Y127.642
X4.983 Y128.197
X5.196 Y128.937
X5.413 Y129.476
X5.715 Y130.043
X6.088 Y130.613
X6.522 Y131.138
X7.007 Y131.612
X7.547 Y132.035
X8.105 Y132.382
X8.700 Y132.679
X9.180 Y132.869
X9.371 Y132.930
X10.088 Y133.099
X10.498 Y133.169
X10.685 Y133.189
X11.260 Y133.210
X99.060 Y133.210
X99.060 Y141.750
ID=1 WHEN $AC_TIMER[1]>=0 DO M51
X128.8 Y121.85 F1000
ID=1 WHEN $AC_TIMER[1]>=0 DO M50
X125.920 Y121.850 F300
X125.915 Y29.495
X125.883 Y28.970
X125.773 Y28.260
X125.724 Y28.049
X125.462 Y27.238
X125.237 Y26.738
X124.970 Y26.274
X124.704 Y25.900
X124.385 Y25.518
X123.890 Y25.048
X123.470 Y24.718
X123.317 Y24.613
X122.695 Y24.254
X122.181 Y24.036
X121.511 Y23.826
X121.292 Y23.776
X120.552 Y23.666
X119.940 Y23.640
X21.940 Y23.640
X21.940 Y15.000
X125.994 Y15.007
X126.522 Y15.088
X126.882 Y15.197
X127.219 Y15.339
X127.570 Y15.547
X127.820 Y15.746
X128.055 Y15.982
X128.266 Y16.256
X128.492 Y16.657
X128.625 Y16.986
X128.703 Y17.273
X128.777 Y17.693
X128.800 Y18.129
X128.800 Y121.750
ID=1 WHEN $AC_TIMER[1]>=0 DO M51
X96.18 Y138.97 F1000
ID=1 WHEN $AC_TIMER[1]>=0 DO M50
X5.433 Y138.964 F300
X5.251 Y138.919
X5.040 Y138.791
X4.966 Y138.708
X4.862 Y138.521
X4.831 Y138.362
X4.820 Y138.168
X4.820 Y133.502
X5.230 Y133.878
X5.770 Y134.302
X6.025 Y134.480
X6.583 Y134.827
X6.821 Y134.960
X7.640 Y135.357
X8.309 Y135.614
X8.707 Y135.732
X9.603 Y135.938
X10.386 Y136.053
X11.260 Y136.090
X96.180 Y136.090
X96.180 Y138.870
ID=1 WHEN $AC_TIMER[1]>=0 DO M51
X125.92 Y23.0042 F1000
ID=1 WHEN $AC_TIMER[1]>=0 DO M50
X125.669 Y22.783 F300
X125.100 Y22.343
X124.756 Y22.118
X124.134 Y21.759
X123.820 Y21.603
X123.306 Y21.385
X123.042 Y21.288
X122.155 Y21.019
X121.715 Y20.927
X120.975 Y20.817
X120.672 Y20.788
X119.940 Y20.760
X24.820 Y20.760
X24.820 Y17.880
X125.775 Y17.887
X125.890 Y17.907
X125.910 Y18.021
X125.920 Y18.206
X125.920 Y22.904
ID=1 WHEN $AC_TIMER[1]>=0 DO M51

; Inicio do trecho do raster
; Final do trecho do raster


M63		;POWDER MIXER OFF
M67		;POWDER FEED OFF
M65		;CARRIER OFF
G4F5
M79     ;GAS 1 OFF

M0

M78     ; GAS 1 ON
M64		;CARRIER ON
H2 = R3	;SET POWDER FLOW
M62		;POWDER MIXER ON
M66		;POWDER FEED ON
G4F10

; Layer 16
G1 Z23.040 F1000
X99.06 Y141.85 F1000
ID=1 WHEN $AC_TIMER[1]>=0 DO M50
X5.528 Y141.850 F300
X5.131 Y141.835
X4.761 Y141.771
X4.395 Y141.677
X4.064 Y141.546
X3.716 Y141.368
X3.401 Y141.168
X3.113 Y140.937
X2.853 Y140.677
X2.622 Y140.389
X2.418 Y140.069
X2.244 Y139.735
X2.114 Y139.400
X2.022 Y139.040
X1.964 Y138.667
X1.940 Y138.249
X1.940 Y44.730
X4.820 Y44.730
X4.822 Y126.851
X4.867 Y127.523
X4.947 Y128.033
X4.987 Y128.211
X5.199 Y128.928
X5.339 Y129.308
X5.421 Y129.490
X5.781 Y130.152
X6.088 Y130.613
X6.522 Y131.138
X7.007 Y131.612
X7.553 Y132.039
X8.230 Y132.455
X8.700 Y132.679
X9.180 Y132.869
X9.376 Y132.931
X10.092 Y133.098
X10.492 Y133.168
X10.685 Y133.189
X11.260 Y133.210
X99.060 Y133.210
X99.060 Y141.750
ID=1 WHEN $AC_TIMER[1]>=0 DO M51
X123.987 Y23.9429 F1000
ID=1 WHEN $AC_TIMER[1]>=0 DO M50
X123.347 Y23.576 F300
X122.787 Y23.336
X122.604 Y23.272
X121.965 Y23.106
X121.092 Y22.982
X120.620 Y22.960
X21.940 Y22.960
X21.940 Y14.320
X126.346 Y14.320
X126.655 Y14.335
X127.183 Y14.416
X127.671 Y14.569
X128.028 Y14.737
X128.318 Y14.935
X128.484 Y15.070
X128.725 Y15.312
X128.943 Y15.596
X129.200 Y16.050
X129.353 Y16.497
X129.430 Y16.881
X129.470 Y17.469
X129.470 Y121.850
X126.590 Y121.850
X126.588 Y28.866
X126.558 Y28.286
X126.537 Y28.102
X126.407 Y27.425
X126.257 Y26.885
X126.169 Y26.649
X125.922 Y26.098
X125.824 Y25.912
X125.564 Y25.492
X125.456 Y25.339
X124.939 Y24.723
X124.669 Y24.463
X124.527 Y24.343
X124.067 Y24.002
ID=1 WHEN $AC_TIMER[1]>=0 DO M51
X96.18 Y138.97 F1000
ID=1 WHEN $AC_TIMER[1]>=0 DO M50
X5.433 Y138.964 F300
X5.251 Y138.919
X5.040 Y138.791
X4.966 Y138.708
X4.862 Y138.521
X4.831 Y138.362
X4.820 Y138.168
X4.820 Y133.502
X5.233 Y133.880
X5.778 Y134.307
X6.045 Y134.492
X6.722 Y134.908
X6.991 Y135.055
X7.640 Y135.357
X8.314 Y135.616
X8.719 Y135.735
X9.595 Y135.935
X10.188 Y136.032
X10.579 Y136.067
X11.260 Y136.090
X96.180 Y136.090
X96.180 Y138.870
ID=1 WHEN $AC_TIMER[1]>=0 DO M51
X126.59 Y22.3302 F1000
ID=1 WHEN $AC_TIMER[1]>=0 DO M50
X126.387 Y22.144 F300
X125.701 Y21.629
X125.418 Y21.444
X124.778 Y21.077
X124.482 Y20.929
X123.741 Y20.619
X123.328 Y20.485
X122.688 Y20.319
X122.371 Y20.255
X121.498 Y20.131
X120.620 Y20.080
X24.820 Y20.080
X24.820 Y17.200
X126.365 Y17.204
X126.566 Y17.248
X126.590 Y17.568
X126.590 Y22.230
ID=1 WHEN $AC_TIMER[1]>=0 DO M51

; Inicio do trecho do raster
; Final do trecho do raster


M63		;POWDER MIXER OFF
M67		;POWDER FEED OFF
M65		;CARRIER OFF
G4F5
M79     ;GAS 1 OFF

M0

M78     ; GAS 1 ON
M64		;CARRIER ON
H2 = R3	;SET POWDER FLOW
M62		;POWDER MIXER ON
M66		;POWDER FEED ON
G4F10

; Layer 17
G1 Z24.480 F1000
X99.06 Y141.85 F1000
ID=1 WHEN $AC_TIMER[1]>=0 DO M50
X5.528 Y141.850 F300
X5.131 Y141.835
X4.761 Y141.771
X4.395 Y141.677
X4.064 Y141.546
X3.716 Y141.368
X3.401 Y141.168
X3.113 Y140.937
X2.853 Y140.677
X2.622 Y140.389
X2.418 Y140.069
X2.244 Y139.735
X2.114 Y139.400
X2.022 Y139.040
X1.964 Y138.667
X1.940 Y138.249
X1.940 Y44.730
X4.820 Y44.730
X4.822 Y126.851
X4.867 Y127.523
X4.947 Y128.033
X4.987 Y128.211
X5.199 Y128.928
X5.339 Y129.308
X5.413 Y129.476
X5.715 Y130.043
X6.088 Y130.613
X6.522 Y131.138
X7.007 Y131.612
X7.547 Y132.035
X8.116 Y132.388
X8.830 Y132.737
X9.354 Y132.925
X9.974 Y133.079
X10.494 Y133.169
X10.685 Y133.189
X11.260 Y133.210
X99.060 Y133.210
X99.060 Y141.750
ID=1 WHEN $AC_TIMER[1]>=0 DO M51
X130.14 Y121.85 F1000
ID=1 WHEN $AC_TIMER[1]>=0 DO M50
X127.260 Y121.850 F300
X127.259 Y28.217
X127.229 Y27.640
X127.208 Y27.437
X127.076 Y26.738
X126.926 Y26.208
X126.858 Y26.020
X126.563 Y25.373
X126.253 Y24.843
X126.116 Y24.648
X125.609 Y24.053
X125.230 Y23.698
X124.675 Y23.274
X124.069 Y22.932
X123.890 Y22.845
X123.272 Y22.604
X122.689 Y22.445
X121.927 Y22.322
X121.290 Y22.290
X21.940 Y22.290
X21.940 Y13.650
X127.017 Y13.650
X127.334 Y13.665
X127.893 Y13.753
X128.153 Y13.829
X128.496 Y13.964
X128.728 Y14.083
X128.962 Y14.236
X129.228 Y14.466
X129.393 Y14.637
X129.605 Y14.907
X129.867 Y15.383
X130.022 Y15.842
X130.117 Y16.359
X130.140 Y16.789
X130.140 Y121.750
ID=1 WHEN $AC_TIMER[1]>=0 DO M51
X96.18 Y138.97 F1000
ID=1 WHEN $AC_TIMER[1]>=0 DO M50
X5.433 Y138.964 F300
X5.251 Y138.919
X5.040 Y138.791
X4.966 Y138.708
X4.862 Y138.521
X4.831 Y138.362
X4.820 Y138.168
X4.820 Y133.502
X5.230 Y133.878
X5.770 Y134.302
X6.029 Y134.482
X6.598 Y134.835
X6.852 Y134.976
X7.567 Y135.325
X7.855 Y135.447
X8.379 Y135.635
X8.662 Y135.721
X9.483 Y135.917
X10.193 Y136.033
X10.579 Y136.067
X11.260 Y136.090
X96.180 Y136.090
X96.180 Y138.870
ID=1 WHEN $AC_TIMER[1]>=0 DO M51
X127.26 Y21.6534 F1000
ID=1 WHEN $AC_TIMER[1]>=0 DO M50
X126.978 Y21.409 F300
X126.423 Y20.985
X126.088 Y20.764
X125.330 Y20.343
X124.935 Y20.161
X124.317 Y19.921
X124.030 Y19.826
X123.448 Y19.667
X123.149 Y19.602
X122.387 Y19.479
X122.072 Y19.446
X121.290 Y19.410
X24.820 Y19.410
X24.820 Y16.530
X127.043 Y16.534
X127.227 Y16.567
X127.251 Y16.697
X127.260 Y16.866
X127.260 Y21.553
ID=1 WHEN $AC_TIMER[1]>=0 DO M51

; Inicio do trecho do raster
; Final do trecho do raster


M63		;POWDER MIXER OFF
M67		;POWDER FEED OFF
M65		;CARRIER OFF
G4F5
M79     ;GAS 1 OFF

M0

M78     ; GAS 1 ON
M64		;CARRIER ON
H2 = R3	;SET POWDER FLOW
M62		;POWDER MIXER ON
M66		;POWDER FEED ON
G4F10

; Layer 18
G1 Z25.920 F1000
X99.06 Y141.85 F1000
ID=1 WHEN $AC_TIMER[1]>=0 DO M50
X5.528 Y141.850 F300
X5.131 Y141.835
X4.761 Y141.771
X4.395 Y141.677
X4.064 Y141.546
X3.716 Y141.368
X3.401 Y141.168
X3.113 Y140.937
X2.853 Y140.677
X2.622 Y140.389
X2.418 Y140.069
X2.244 Y139.735
X2.114 Y139.400
X2.022 Y139.040
X1.964 Y138.667
X1.940 Y138.249
X1.940 Y44.730
X4.820 Y44.730
X4.822 Y126.851
X4.871 Y127.544
X4.981 Y128.184
X5.203 Y128.950
X5.413 Y129.476
X5.715 Y130.043
X6.088 Y130.613
X6.522 Y131.138
X7.007 Y131.612
X7.547 Y132.035
X8.105 Y132.382
X8.700 Y132.679
X9.180 Y132.869
X9.354 Y132.925
X9.974 Y133.079
X10.494 Y133.169
X10.685 Y133.189
X11.260 Y133.210
X99.060 Y133.210
X99.060 Y141.750
ID=1 WHEN $AC_TIMER[1]>=0 DO M51
X130.81 Y121.85 F1000
ID=1 WHEN $AC_TIMER[1]>=0 DO M50
X127.930 Y121.850 F300
X127.929 Y27.539
X127.919 Y27.259
X127.882 Y26.792
X127.792 Y26.232
X127.749 Y26.044
X127.589 Y25.514
X127.297 Y24.819
X126.927 Y24.179
X126.788 Y23.980
X126.308 Y23.412
X126.015 Y23.130
X125.495 Y22.710
X125.294 Y22.574
X124.833 Y22.308
X124.213 Y22.028
X124.012 Y21.954
X123.339 Y21.772
X122.597 Y21.652
X121.960 Y21.620
X21.940 Y21.620
X21.940 Y12.980
X127.682 Y12.980
X128.125 Y13.003
X128.527 Y13.075
X128.877 Y13.174
X129.422 Y13.428
X129.512 Y13.484
X129.904 Y13.803
X130.063 Y13.967
X130.275 Y14.237
X130.542 Y14.722
X130.723 Y15.263
X130.786 Y15.666
X130.810 Y16.109
X130.810 Y121.750
ID=1 WHEN $AC_TIMER[1]>=0 DO M51
X96.18 Y138.97 F1000
ID=1 WHEN $AC_TIMER[1]>=0 DO M50
X5.433 Y138.964 F300
X5.251 Y138.919
X5.040 Y138.791
X4.966 Y138.708
X4.862 Y138.521
X4.831 Y138.362
X4.820 Y138.168
X4.820 Y133.502
X5.230 Y133.878
X5.770 Y134.302
X6.025 Y134.480
X6.583 Y134.827
X6.821 Y134.960
X7.640 Y135.357
X8.467 Y135.665
X9.483 Y135.917
X10.193 Y136.033
X10.579 Y136.067
X11.260 Y136.090
X96.180 Y136.090
X96.180 Y138.870
ID=1 WHEN $AC_TIMER[1]>=0 DO M51
X127.93 Y20.9875 F1000
ID=1 WHEN $AC_TIMER[1]>=0 DO M50
X127.824 Y20.889 F300
X127.109 Y20.325
X126.733 Y20.079
X126.272 Y19.813
X126.018 Y19.683
X125.200 Y19.322
X124.767 Y19.175
X124.093 Y18.992
X123.797 Y18.928
X123.055 Y18.809
X122.742 Y18.776
X121.960 Y18.740
X24.820 Y18.740
X24.820 Y15.860
X127.606 Y15.860
X127.874 Y15.884
X127.898 Y15.895
X127.918 Y15.966
X127.930 Y16.188
X127.930 Y20.888
ID=1 WHEN $AC_TIMER[1]>=0 DO M51

; Inicio do trecho do raster
; Final do trecho do raster


M63		;POWDER MIXER OFF
M67		;POWDER FEED OFF
M65		;CARRIER OFF
G4F5
M79     ;GAS 1 OFF

M0

M78     ; GAS 1 ON
M64		;CARRIER ON
H2 = R3	;SET POWDER FLOW
M62		;POWDER MIXER ON
M66		;POWDER FEED ON
G4F10

; Layer 19
G1 Z27.360 F1000
X99.06 Y141.85 F1000
ID=1 WHEN $AC_TIMER[1]>=0 DO M50
X5.528 Y141.850 F300
X5.131 Y141.835
X4.761 Y141.771
X4.395 Y141.677
X4.064 Y141.546
X3.716 Y141.368
X3.401 Y141.168
X3.113 Y140.937
X2.853 Y140.677
X2.622 Y140.389
X2.418 Y140.069
X2.244 Y139.735
X2.114 Y139.400
X2.022 Y139.040
X1.964 Y138.667
X1.940 Y138.249
X1.940 Y44.730
X4.820 Y44.730
X4.822 Y126.845
X4.867 Y127.523
X4.984 Y128.200
X5.208 Y128.972
X5.413 Y129.476
X5.715 Y130.043
X6.088 Y130.613
X6.522 Y131.138
X7.007 Y131.612
X7.557 Y132.041
X8.251 Y132.465
X8.700 Y132.679
X9.180 Y132.869
X9.366 Y132.928
X10.135 Y133.112
X10.685 Y133.189
X11.260 Y133.210
X99.060 Y133.210
X99.060 Y141.750
ID=1 WHEN $AC_TIMER[1]>=0 DO M51
X131.48 Y121.85 F1000
ID=1 WHEN $AC_TIMER[1]>=0 DO M50
X128.600 Y121.850 F300
X128.599 Y26.872
X128.589 Y26.572
X128.552 Y26.122
X128.462 Y25.562
X128.419 Y25.374
X128.212 Y24.713
X127.993 Y24.196
X127.747 Y23.745
X127.384 Y23.205
X126.970 Y22.723
X126.567 Y22.348
X126.137 Y22.018
X125.989 Y21.918
X125.444 Y21.602
X125.061 Y21.423
X124.468 Y21.218
X124.009 Y21.102
X123.267 Y20.982
X122.630 Y20.950
X21.940 Y20.950
X21.940 Y12.310
X128.353 Y12.310
X128.810 Y12.334
X129.155 Y12.394
X129.479 Y12.478
X129.906 Y12.657
X130.268 Y12.876
X130.503 Y13.062
X130.735 Y13.299
X130.965 Y13.593
X131.097 Y13.809
X131.253 Y14.148
X131.391 Y14.589
X131.465 Y15.106
X131.480 Y15.433
X131.480 Y121.750
ID=1 WHEN $AC_TIMER[1]>=0 DO M51
X96.18 Y138.97 F1000
ID=1 WHEN $AC_TIMER[1]>=0 DO M50
X5.433 Y138.964 F300
X5.251 Y138.919
X5.040 Y138.791
X4.966 Y138.708
X4.862 Y138.521
X4.831 Y138.362
X4.820 Y138.168
X4.820 Y133.502
X5.234 Y133.882
X5.784 Y134.311
X6.055 Y134.499
X6.749 Y134.923
X7.014 Y135.066
X7.640 Y135.357
X8.304 Y135.612
X8.696 Y135.729
X9.465 Y135.913
X9.738 Y135.965
X10.287 Y136.041
X10.579 Y136.067
X11.260 Y136.090
X96.180 Y136.090
X96.180 Y138.870
ID=1 WHEN $AC_TIMER[1]>=0 DO M51
X128.6 Y20.3058 F1000
ID=1 WHEN $AC_TIMER[1]>=0 DO M50
X128.320 Y20.063 F300
X127.598 Y19.529
X126.889 Y19.111
X126.282 Y18.814
X126.001 Y18.701
X125.175 Y18.426
X124.467 Y18.258
X123.725 Y18.139
X123.412 Y18.106
X122.630 Y18.070
X24.820 Y18.070
X24.820 Y15.190
X128.278 Y15.190
X128.573 Y15.226
X128.600 Y15.500
X128.600 Y20.206
ID=1 WHEN $AC_TIMER[1]>=0 DO M51

; Inicio do trecho do raster
; Final do trecho do raster


M63		;POWDER MIXER OFF
M67		;POWDER FEED OFF
M65		;CARRIER OFF
G4F5
M79     ;GAS 1 OFF

M0

M78     ; GAS 1 ON
M64		;CARRIER ON
H2 = R3	;SET POWDER FLOW
M62		;POWDER MIXER ON
M66		;POWDER FEED ON
G4F10

; Layer 20
G1 Z28.800 F1000
X99.06 Y141.85 F1000
ID=1 WHEN $AC_TIMER[1]>=0 DO M50
X5.528 Y141.850 F300
X5.131 Y141.835
X4.761 Y141.771
X4.395 Y141.677
X4.064 Y141.546
X3.716 Y141.368
X3.401 Y141.168
X3.113 Y140.937
X2.853 Y140.677
X2.622 Y140.389
X2.418 Y140.069
X2.244 Y139.735
X2.114 Y139.400
X2.022 Y139.040
X1.964 Y138.667
X1.940 Y138.249
X1.940 Y44.730
X4.820 Y44.730
X4.822 Y126.851
X4.867 Y127.523
X4.981 Y128.191
X5.158 Y128.817
X5.338 Y129.307
X5.413 Y129.476
X5.715 Y130.043
X6.088 Y130.613
X6.522 Y131.138
X7.007 Y131.612
X7.547 Y132.035
X8.105 Y132.382
X8.700 Y132.679
X9.180 Y132.869
X9.371 Y132.929
X10.140 Y133.111
X10.685 Y133.189
X11.260 Y133.210
X99.060 Y133.210
X99.060 Y141.750
ID=1 WHEN $AC_TIMER[1]>=0 DO M51
X132.15 Y121.85 F1000
ID=1 WHEN $AC_TIMER[1]>=0 DO M50
X129.270 Y121.850 F300
X129.268 Y26.174
X129.222 Y25.451
X129.132 Y24.891
X129.089 Y24.704
X128.878 Y24.032
X128.617 Y23.424
X128.414 Y23.054
X128.078 Y22.565
X127.724 Y22.138
X127.237 Y21.678
X126.807 Y21.348
X126.632 Y21.233
X125.952 Y20.853
X125.740 Y20.756
X125.176 Y20.555
X124.826 Y20.455
X124.637 Y20.415
X123.805 Y20.301
X123.300 Y20.280
X21.940 Y20.280
X21.940 Y11.640
X129.023 Y11.640
X129.486 Y11.664
X129.868 Y11.726
X130.359 Y11.881
X130.645 Y12.018
X130.996 Y12.243
X131.237 Y12.445
X131.406 Y12.620
X131.625 Y12.908
X131.809 Y13.217
X131.979 Y13.627
X132.065 Y13.925
X132.119 Y14.242
X132.150 Y14.772
X132.150 Y121.750
ID=1 WHEN $AC_TIMER[1]>=0 DO M51
X96.18 Y138.97 F1000
ID=1 WHEN $AC_TIMER[1]>=0 DO M50
X5.433 Y138.964 F300
X5.251 Y138.919
X5.040 Y138.791
X4.966 Y138.708
X4.862 Y138.521
X4.831 Y138.362
X4.820 Y138.168
X4.820 Y133.502
X5.230 Y133.878
X5.770 Y134.302
X6.025 Y134.480
X6.583 Y134.827
X6.821 Y134.960
X7.640 Y135.357
X8.309 Y135.614
X8.707 Y135.732
X9.476 Y135.914
X9.734 Y135.963
X10.279 Y136.040
X10.579 Y136.067
X11.260 Y136.090
X96.180 Y136.090
X96.180 Y138.870
ID=1 WHEN $AC_TIMER[1]>=0 DO M51
X129.27 Y19.6365 F1000
ID=1 WHEN $AC_TIMER[1]>=0 DO M50
X128.990 Y19.393 F300
X128.390 Y18.942
X128.037 Y18.719
X127.149 Y18.233
X126.704 Y18.042
X125.967 Y17.786
X125.240 Y17.599
X124.195 Y17.448
X123.928 Y17.424
X123.300 Y17.400
X24.820 Y17.400
X24.820 Y14.520
X128.948 Y14.520
X129.200 Y14.536
X129.244 Y14.549
X129.270 Y14.855
X129.270 Y19.537
ID=1 WHEN $AC_TIMER[1]>=0 DO M51

; Inicio do trecho do raster
; Final do trecho do raster


M63		;POWDER MIXER OFF
M67		;POWDER FEED OFF
M65		;CARRIER OFF
G4F5
M79     ;GAS 1 OFF

M0

M78     ; GAS 1 ON
M64		;CARRIER ON
H2 = R3	;SET POWDER FLOW
M62		;POWDER MIXER ON
M66		;POWDER FEED ON
G4F10

; Layer 21
G1 Z30.240 F1000
X99.06 Y141.85 F1000
ID=1 WHEN $AC_TIMER[1]>=0 DO M50
X5.528 Y141.850 F300
X5.131 Y141.835
X4.761 Y141.771
X4.395 Y141.677
X4.064 Y141.546
X3.716 Y141.368
X3.401 Y141.168
X3.113 Y140.937
X2.853 Y140.677
X2.622 Y140.389
X2.418 Y140.069
X2.244 Y139.735
X2.114 Y139.400
X2.022 Y139.040
X1.964 Y138.667
X1.940 Y138.249
X1.940 Y44.730
X4.820 Y44.730
X4.822 Y126.851
X4.867 Y127.523
X4.981 Y128.191
X5.158 Y128.817
X5.338 Y129.307
X5.413 Y129.476
X5.715 Y130.043
X6.088 Y130.613
X6.522 Y131.138
X7.007 Y131.612
X7.547 Y132.035
X8.105 Y132.382
X8.700 Y132.679
X9.180 Y132.869
X9.371 Y132.929
X10.140 Y133.111
X10.685 Y133.189
X11.260 Y133.210
X99.060 Y133.210
X99.060 Y141.750
ID=1 WHEN $AC_TIMER[1]>=0 DO M51
X132.83 Y121.85 F1000
ID=1 WHEN $AC_TIMER[1]>=0 DO M50
X129.950 Y121.850 F300
X129.946 Y25.479
X129.892 Y24.782
X129.767 Y24.063
X129.592 Y23.474
X129.342 Y22.864
X129.256 Y22.689
X128.939 Y22.163
X128.539 Y21.633
X128.394 Y21.468
X127.958 Y21.049
X127.660 Y20.806
X127.270 Y20.536
X126.857 Y20.294
X126.410 Y20.086
X125.846 Y19.885
X125.496 Y19.785
X124.735 Y19.652
X123.970 Y19.610
X21.940 Y19.610
X21.940 Y10.970
X129.949 Y10.977
X130.161 Y10.995
X130.538 Y11.056
X130.918 Y11.169
X131.184 Y11.279
X131.486 Y11.447
X131.865 Y11.739
X132.084 Y11.952
X132.295 Y12.236
X132.490 Y12.557
X132.672 Y13.002
X132.729 Y13.225
X132.815 Y13.757
X132.830 Y14.092
X132.830 Y121.750
ID=1 WHEN $AC_TIMER[1]>=0 DO M51
X96.18 Y138.97 F1000
ID=1 WHEN $AC_TIMER[1]>=0 DO M50
X5.433 Y138.964 F300
X5.251 Y138.919
X5.040 Y138.791
X4.966 Y138.708
X4.862 Y138.521
X4.831 Y138.362
X4.820 Y138.168
X4.820 Y133.502
X5.230 Y133.878
X5.770 Y134.302
X6.025 Y134.480
X6.583 Y134.827
X6.821 Y134.960
X7.640 Y135.357
X8.309 Y135.614
X8.707 Y135.732
X9.476 Y135.914
X9.734 Y135.963
X10.279 Y136.040
X10.579 Y136.067
X11.260 Y136.090
X96.180 Y136.090
X96.180 Y138.870
ID=1 WHEN $AC_TIMER[1]>=0 DO M51
X129.95 Y18.9786 F1000
ID=1 WHEN $AC_TIMER[1]>=0 DO M50
X129.776 Y18.815 F300
X129.299 Y18.438
X128.728 Y18.053
X128.316 Y17.810
X128.071 Y17.682
X127.374 Y17.372
X126.637 Y17.116
X126.287 Y17.016
X125.991 Y16.948
X125.230 Y16.815
X124.894 Y16.777
X123.970 Y16.730
X24.820 Y16.730
X24.820 Y13.850
X129.819 Y13.857
X129.917 Y13.876
X129.950 Y14.156
X129.950 Y18.879
ID=1 WHEN $AC_TIMER[1]>=0 DO M51

; Inicio do trecho do raster
; Final do trecho do raster


M63		;POWDER MIXER OFF
M67		;POWDER FEED OFF
M65		;CARRIER OFF
G4F5
M79     ;GAS 1 OFF

M0

M78     ; GAS 1 ON
M64		;CARRIER ON
H2 = R3	;SET POWDER FLOW
M62		;POWDER MIXER ON
M66		;POWDER FEED ON
G4F10

; Layer 22
G1 Z31.680 F1000
X99.06 Y141.85 F1000
ID=1 WHEN $AC_TIMER[1]>=0 DO M50
X5.528 Y141.850 F300
X5.131 Y141.835
X4.761 Y141.771
X4.395 Y141.677
X4.064 Y141.546
X3.716 Y141.368
X3.401 Y141.168
X3.113 Y140.937
X2.853 Y140.677
X2.622 Y140.389
X2.418 Y140.069
X2.244 Y139.735
X2.114 Y139.400
X2.022 Y139.040
X1.964 Y138.667
X1.940 Y138.249
X1.940 Y44.730
X4.820 Y44.730
X4.822 Y126.851
X4.867 Y127.523
X4.947 Y128.033
X4.986 Y128.208
X5.215 Y128.984
X5.413 Y129.476
X5.715 Y130.043
X6.088 Y130.613
X6.522 Y131.138
X7.007 Y131.612
X7.417 Y131.942
X7.561 Y132.044
X8.141 Y132.403
X8.300 Y132.489
X8.852 Y132.740
X9.354 Y132.925
X9.974 Y133.079
X10.494 Y133.169
X10.685 Y133.189
X11.260 Y133.210
X99.060 Y133.210
X99.060 Y141.750
ID=1 WHEN $AC_TIMER[1]>=0 DO M51
X133.5 Y121.85 F1000
ID=1 WHEN $AC_TIMER[1]>=0 DO M50
X130.620 Y121.850 F300
X130.618 Y24.836
X130.588 Y24.256
X130.567 Y24.072
X130.437 Y23.395
X130.287 Y22.855
X130.022 Y22.218
X129.922 Y22.011
X129.597 Y21.464
X129.391 Y21.180
X129.008 Y20.742
X128.718 Y20.452
X128.573 Y20.325
X128.062 Y19.941
X127.784 Y19.767
X127.274 Y19.497
X127.090 Y19.416
X126.526 Y19.215
X126.176 Y19.115
X125.990 Y19.075
X125.163 Y18.961
X124.640 Y18.940
X21.940 Y18.940
X21.940 Y10.300
X130.636 Y10.307
X130.829 Y10.324
X131.216 Y10.386
X131.582 Y10.497
X131.945 Y10.649
X132.041 Y10.702
X132.344 Y10.906
X132.505 Y11.032
X132.755 Y11.282
X133.032 Y11.657
X133.143 Y11.852
X133.348 Y12.351
X133.399 Y12.552
X133.485 Y13.078
X133.500 Y13.421
X133.500 Y121.750
ID=1 WHEN $AC_TIMER[1]>=0 DO M51
X96.18 Y138.97 F1000
ID=1 WHEN $AC_TIMER[1]>=0 DO M50
X5.433 Y138.964 F300
X5.251 Y138.919
X5.040 Y138.791
X4.966 Y138.708
X4.862 Y138.521
X4.831 Y138.362
X4.820 Y138.168
X4.820 Y133.502
X5.201 Y133.855
X5.895 Y134.393
X6.779 Y134.941
X7.109 Y135.111
X7.854 Y135.441
X8.356 Y135.627
X8.662 Y135.721
X9.483 Y135.917
X10.193 Y136.033
X10.579 Y136.067
X11.260 Y136.090
X96.180 Y136.090
X96.180 Y138.870
ID=1 WHEN $AC_TIMER[1]>=0 DO M51
X130.613 Y18.2833 F1000
ID=1 WHEN $AC_TIMER[1]>=0 DO M50
X130.303 Y18.022 F300
X129.586 Y17.497
X129.131 Y17.222
X128.440 Y16.864
X128.054 Y16.702
X127.317 Y16.446
X126.596 Y16.260
X125.556 Y16.108
X125.280 Y16.084
X124.640 Y16.060
X24.820 Y16.060
X24.820 Y13.180
X130.493 Y13.187
X130.589 Y13.213
X130.615 Y13.375
X130.614 Y18.183
ID=1 WHEN $AC_TIMER[1]>=0 DO M51

; Inicio do trecho do raster
; Final do trecho do raster


M63		;POWDER MIXER OFF
M67		;POWDER FEED OFF
M65		;CARRIER OFF
G4F5
M79     ;GAS 1 OFF

M0

M78     ; GAS 1 ON
M64		;CARRIER ON
H2 = R3	;SET POWDER FLOW
M62		;POWDER MIXER ON
M66		;POWDER FEED ON
G4F10

; Layer 23
G1 Z33.120 F1000
X99.06 Y141.85 F1000
ID=1 WHEN $AC_TIMER[1]>=0 DO M50
X5.528 Y141.850 F300
X5.131 Y141.835
X4.761 Y141.771
X4.395 Y141.677
X4.064 Y141.546
X3.716 Y141.368
X3.401 Y141.168
X3.113 Y140.937
X2.853 Y140.677
X2.622 Y140.389
X2.418 Y140.069
X2.244 Y139.735
X2.114 Y139.400
X2.022 Y139.040
X1.964 Y138.667
X1.940 Y138.249
X1.940 Y44.730
X4.820 Y44.730
X4.822 Y126.845
X4.867 Y127.523
X4.981 Y128.191
X5.158 Y128.817
X5.338 Y129.307
X5.423 Y129.495
X5.815 Y130.209
X6.088 Y130.613
X6.522 Y131.138
X7.007 Y131.612
X7.547 Y132.035
X8.105 Y132.382
X8.700 Y132.679
X9.180 Y132.869
X9.354 Y132.925
X9.974 Y133.079
X10.494 Y133.169
X10.685 Y133.189
X11.260 Y133.210
X99.060 Y133.210
X99.060 Y141.750
ID=1 WHEN $AC_TIMER[1]>=0 DO M51
X134.17 Y121.85 F1000
ID=1 WHEN $AC_TIMER[1]>=0 DO M50
X131.290 Y121.850 F300
X131.288 Y24.166
X131.258 Y23.586
X131.237 Y23.402
X131.107 Y22.725
X130.957 Y22.185
X130.888 Y21.990
X130.614 Y21.380
X130.445 Y21.077
X130.137 Y20.611
X129.671 Y20.055
X129.243 Y19.655
X128.687 Y19.243
X128.099 Y18.900
X127.799 Y18.761
X127.269 Y18.561
X126.695 Y18.411
X125.948 Y18.292
X125.320 Y18.260
X21.940 Y18.260
X21.940 Y9.620
X131.041 Y9.620
X131.308 Y9.634
X131.897 Y9.720
X132.252 Y9.827
X132.581 Y9.965
X133.018 Y10.233
X133.239 Y10.417
X133.431 Y10.615
X133.527 Y10.734
X133.724 Y11.020
X133.886 Y11.328
X134.014 Y11.664
X134.069 Y11.882
X134.155 Y12.408
X134.170 Y12.751
X134.170 Y121.750
ID=1 WHEN $AC_TIMER[1]>=0 DO M51
X96.18 Y138.97 F1000
ID=1 WHEN $AC_TIMER[1]>=0 DO M50
X5.433 Y138.964 F300
X5.251 Y138.919
X5.040 Y138.791
X4.966 Y138.708
X4.862 Y138.521
X4.831 Y138.362
X4.820 Y138.168
X4.820 Y133.502
X5.230 Y133.878
X5.770 Y134.302
X6.025 Y134.480
X6.583 Y134.827
X6.821 Y134.960
X7.640 Y135.357
X8.467 Y135.665
X9.483 Y135.917
X10.193 Y136.033
X10.579 Y136.067
X11.260 Y136.090
X96.180 Y136.090
X96.180 Y138.870
ID=1 WHEN $AC_TIMER[1]>=0 DO M51
X131.29 Y17.626 F1000
ID=1 WHEN $AC_TIMER[1]>=0 DO M50
X130.957 Y17.340 F300
X130.401 Y16.929
X130.138 Y16.755
X129.550 Y16.412
X129.010 Y16.148
X128.285 Y15.866
X127.996 Y15.774
X127.422 Y15.624
X127.147 Y15.567
X126.401 Y15.448
X126.096 Y15.416
X125.320 Y15.380
X24.820 Y15.380
X24.820 Y12.500
X131.023 Y12.503
X131.258 Y12.537
X131.290 Y12.814
X131.290 Y17.526
ID=1 WHEN $AC_TIMER[1]>=0 DO M51

; Inicio do trecho do raster
; Final do trecho do raster


M63		;POWDER MIXER OFF
M67		;POWDER FEED OFF
M65		;CARRIER OFF
G4F5
M79     ;GAS 1 OFF

M0

M78     ; GAS 1 ON
M64		;CARRIER ON
H2 = R3	;SET POWDER FLOW
M62		;POWDER MIXER ON
M66		;POWDER FEED ON
G4F10

; Layer 24
G1 Z34.560 F1000
X99.06 Y141.85 F1000
ID=1 WHEN $AC_TIMER[1]>=0 DO M50
X5.528 Y141.850 F300
X5.131 Y141.835
X4.761 Y141.771
X4.395 Y141.677
X4.064 Y141.546
X3.716 Y141.368
X3.401 Y141.168
X3.113 Y140.937
X2.853 Y140.677
X2.622 Y140.389
X2.418 Y140.069
X2.244 Y139.735
X2.114 Y139.400
X2.022 Y139.040
X1.964 Y138.667
X1.940 Y138.249
X1.940 Y44.730
X4.820 Y44.730
X4.824 Y126.873
X4.892 Y127.720
X4.981 Y128.191
X5.158 Y128.817
X5.338 Y129.307
X5.413 Y129.476
X5.715 Y130.043
X6.088 Y130.613
X6.522 Y131.138
X7.007 Y131.612
X7.547 Y132.035
X8.105 Y132.382
X8.700 Y132.679
X9.180 Y132.869
X9.354 Y132.925
X9.974 Y133.079
X10.494 Y133.169
X10.685 Y133.189
X11.260 Y133.210
X99.060 Y133.210
X99.060 Y141.750
ID=1 WHEN $AC_TIMER[1]>=0 DO M51
X134.84 Y121.85 F1000
ID=1 WHEN $AC_TIMER[1]>=0 DO M50
X131.960 Y121.850 F300
X131.958 Y23.496
X131.928 Y22.916
X131.908 Y22.737
X131.787 Y22.081
X131.691 Y21.711
X131.556 Y21.315
X131.386 Y20.910
X131.309 Y20.753
X130.999 Y20.213
X130.874 Y20.030
X130.474 Y19.530
X130.351 Y19.395
X129.930 Y18.998
X129.510 Y18.668
X129.308 Y18.535
X128.628 Y18.165
X128.439 Y18.079
X127.865 Y17.873
X127.365 Y17.741
X126.618 Y17.622
X125.990 Y17.590
X21.940 Y17.590
X21.940 Y8.950
X131.712 Y8.950
X132.155 Y8.973
X132.557 Y9.045
X132.922 Y9.148
X133.259 Y9.297
X133.575 Y9.478
X133.867 Y9.705
X134.095 Y9.939
X134.308 Y10.211
X134.485 Y10.511
X134.679 Y10.965
X134.739 Y11.202
X134.825 Y11.728
X134.840 Y12.080
X134.840 Y121.750
ID=1 WHEN $AC_TIMER[1]>=0 DO M51
X96.18 Y138.97 F1000
ID=1 WHEN $AC_TIMER[1]>=0 DO M50
X5.433 Y138.964 F300
X5.251 Y138.919
X5.040 Y138.791
X4.966 Y138.708
X4.862 Y138.521
X4.831 Y138.362
X4.820 Y138.168
X4.820 Y133.502
X5.230 Y133.878
X5.770 Y134.302
X6.025 Y134.480
X6.583 Y134.827
X6.821 Y134.960
X7.640 Y135.357
X8.467 Y135.665
X9.483 Y135.917
X10.193 Y136.033
X10.579 Y136.067
X11.260 Y136.090
X96.180 Y136.090
X96.180 Y138.870
ID=1 WHEN $AC_TIMER[1]>=0 DO M51
X131.96 Y16.9632 F1000
ID=1 WHEN $AC_TIMER[1]>=0 DO M50
X131.709 Y16.733 F300
X131.093 Y16.262
X130.685 Y16.005
X129.819 Y15.543
X129.416 Y15.370
X128.842 Y15.163
X128.097 Y14.956
X127.817 Y14.897
X127.071 Y14.778
X126.766 Y14.746
X125.990 Y14.710
X24.820 Y14.710
X24.820 Y11.830
X131.636 Y11.830
X131.928 Y11.860
X131.955 Y12.023
X131.960 Y16.863
ID=1 WHEN $AC_TIMER[1]>=0 DO M51

; Inicio do trecho do raster
; Final do trecho do raster


M63		;POWDER MIXER OFF
M67		;POWDER FEED OFF
M65		;CARRIER OFF
G4F5
M79     ;GAS 1 OFF

M0

M78     ; GAS 1 ON
M64		;CARRIER ON
H2 = R3	;SET POWDER FLOW
M62		;POWDER MIXER ON
M66		;POWDER FEED ON
G4F10

; Layer 25
G1 Z36.000 F1000
X99.06 Y141.85 F1000
ID=1 WHEN $AC_TIMER[1]>=0 DO M50
X5.528 Y141.850 F300
X5.131 Y141.835
X4.761 Y141.771
X4.395 Y141.677
X4.064 Y141.546
X3.716 Y141.368
X3.401 Y141.168
X3.113 Y140.937
X2.853 Y140.677
X2.622 Y140.389
X2.418 Y140.069
X2.244 Y139.735
X2.114 Y139.400
X2.022 Y139.040
X1.964 Y138.667
X1.940 Y138.249
X1.940 Y44.730
X4.820 Y44.730
X4.822 Y126.851
X4.867 Y127.523
X4.981 Y128.191
X5.158 Y128.817
X5.338 Y129.307
X5.413 Y129.476
X5.715 Y130.043
X6.088 Y130.613
X6.522 Y131.138
X7.007 Y131.612
X7.417 Y131.942
X7.564 Y132.046
X8.164 Y132.416
X8.320 Y132.499
X8.880 Y132.753
X9.354 Y132.925
X9.974 Y133.079
X10.494 Y133.169
X10.685 Y133.189
X11.260 Y133.210
X99.060 Y133.210
X99.060 Y141.750
ID=1 WHEN $AC_TIMER[1]>=0 DO M51
X135.51 Y121.85 F1000
ID=1 WHEN $AC_TIMER[1]>=0 DO M50
X132.630 Y121.850 F300
X132.628 Y22.814
X132.582 Y22.092
X132.492 Y21.532
X132.449 Y21.344
X132.251 Y20.705
X132.113 Y20.367
X131.873 Y19.877
X131.778 Y19.711
X131.426 Y19.198
X131.021 Y18.725
X130.600 Y18.328
X130.059 Y17.913
X129.765 Y17.733
X129.285 Y17.483
X129.110 Y17.406
X128.535 Y17.203
X128.030 Y17.070
X127.380 Y16.960
X127.200 Y16.941
X126.660 Y16.920
X21.940 Y16.920
X21.940 Y8.280
X132.384 Y8.280
X132.818 Y8.302
X133.227 Y8.375
X133.583 Y8.476
X134.063 Y8.694
X134.221 Y8.791
X134.579 Y9.077
X134.764 Y9.268
X135.047 Y9.643
X135.241 Y10.023
X135.312 Y10.195
X135.422 Y10.558
X135.495 Y11.039
X135.510 Y11.400
X135.510 Y121.750
ID=1 WHEN $AC_TIMER[1]>=0 DO M51
X96.18 Y138.97 F1000
ID=1 WHEN $AC_TIMER[1]>=0 DO M50
X5.433 Y138.964 F300
X5.251 Y138.919
X5.040 Y138.791
X4.966 Y138.708
X4.862 Y138.521
X4.831 Y138.362
X4.820 Y138.168
X4.820 Y133.502
X5.201 Y133.855
X5.902 Y134.398
X6.806 Y134.955
X7.131 Y135.122
X7.896 Y135.459
X8.370 Y135.632
X8.662 Y135.721
X9.483 Y135.917
X10.193 Y136.033
X10.579 Y136.067
X11.260 Y136.090
X96.180 Y136.090
X96.180 Y138.870
ID=1 WHEN $AC_TIMER[1]>=0 DO M51
X132.63 Y16.2837 F1000
ID=1 WHEN $AC_TIMER[1]>=0 DO M50
X132.354 Y16.043 F300
X131.813 Y15.628
X131.562 Y15.456
X131.096 Y15.179
X130.443 Y14.846
X130.071 Y14.691
X129.265 Y14.417
X128.511 Y14.231
X127.681 Y14.096
X127.313 Y14.063
X126.660 Y14.040
X24.820 Y14.040
X24.820 Y11.160
X132.311 Y11.160
X132.605 Y11.195
X132.630 Y11.462
X132.630 Y16.184
ID=1 WHEN $AC_TIMER[1]>=0 DO M51

; Inicio do trecho do raster
; Final do trecho do raster


M63		;POWDER MIXER OFF
M67		;POWDER FEED OFF
M65		;CARRIER OFF
G4F5
M79     ;GAS 1 OFF

M0

M78     ; GAS 1 ON
M64		;CARRIER ON
H2 = R3	;SET POWDER FLOW
M62		;POWDER MIXER ON
M66		;POWDER FEED ON
G4F10

; Layer 26
G1 Z37.440 F1000
X99.06 Y141.85 F1000
ID=1 WHEN $AC_TIMER[1]>=0 DO M50
X5.528 Y141.850 F300
X5.131 Y141.835
X4.761 Y141.771
X4.395 Y141.677
X4.064 Y141.546
X3.716 Y141.368
X3.401 Y141.168
X3.113 Y140.937
X2.853 Y140.677
X2.622 Y140.389
X2.418 Y140.069
X2.244 Y139.735
X2.114 Y139.400
X2.022 Y139.040
X1.964 Y138.667
X1.940 Y138.249
X1.940 Y44.730
X4.820 Y44.730
X4.822 Y126.851
X4.867 Y127.523
X4.947 Y128.033
X4.987 Y128.211
X5.227 Y129.020
X5.413 Y129.476
X5.715 Y130.043
X6.088 Y130.613
X6.522 Y131.138
X7.007 Y131.612
X7.547 Y132.035
X8.105 Y132.382
X8.700 Y132.679
X9.180 Y132.869
X9.354 Y132.925
X9.974 Y133.079
X10.494 Y133.169
X10.685 Y133.189
X11.260 Y133.210
X99.060 Y133.210
X99.060 Y141.750
ID=1 WHEN $AC_TIMER[1]>=0 DO M51
X136.18 Y121.85 F1000
ID=1 WHEN $AC_TIMER[1]>=0 DO M50
X133.300 Y121.850 F300
X133.298 Y22.144
X133.252 Y21.422
X133.162 Y20.862
X133.119 Y20.674
X132.928 Y20.054
X132.778 Y19.676
X132.538 Y19.196
X132.111 Y18.547
X131.701 Y18.055
X131.267 Y17.648
X130.837 Y17.318
X130.689 Y17.218
X130.229 Y16.948
X130.070 Y16.868
X129.560 Y16.648
X129.382 Y16.584
X128.704 Y16.401
X128.064 Y16.291
X127.879 Y16.271
X127.330 Y16.250
X21.940 Y16.250
X21.940 Y7.610
X133.053 Y7.610
X133.516 Y7.634
X133.855 Y7.689
X134.215 Y7.787
X134.608 Y7.957
X134.909 Y8.134
X135.246 Y8.397
X135.426 Y8.589
X135.678 Y8.909
X135.823 Y9.148
X136.033 Y9.662
X136.089 Y9.868
X136.165 Y10.360
X136.180 Y10.730
X136.180 Y121.750
ID=1 WHEN $AC_TIMER[1]>=0 DO M51
X96.18 Y138.97 F1000
ID=1 WHEN $AC_TIMER[1]>=0 DO M50
X5.433 Y138.964 F300
X5.251 Y138.919
X5.040 Y138.791
X4.966 Y138.708
X4.862 Y138.521
X4.831 Y138.362
X4.820 Y138.168
X4.820 Y133.502
X5.230 Y133.878
X5.770 Y134.302
X6.025 Y134.480
X6.583 Y134.827
X6.821 Y134.960
X7.640 Y135.357
X8.467 Y135.665
X9.483 Y135.917
X10.193 Y136.033
X10.579 Y136.067
X11.260 Y136.090
X96.180 Y136.090
X96.180 Y138.870
ID=1 WHEN $AC_TIMER[1]>=0 DO M51
X133.3 Y15.6061 F1000
ID=1 WHEN $AC_TIMER[1]>=0 DO M50
X133.020 Y15.363 F300
X132.298 Y14.829
X131.531 Y14.379
X131.211 Y14.223
X130.525 Y13.934
X130.135 Y13.804
X129.457 Y13.621
X129.192 Y13.562
X128.367 Y13.427
X127.990 Y13.393
X127.330 Y13.370
X24.820 Y13.370
X24.820 Y10.490
X132.978 Y10.490
X133.271 Y10.517
X133.294 Y10.640
X133.300 Y15.506
ID=1 WHEN $AC_TIMER[1]>=0 DO M51

; Inicio do trecho do raster
; Final do trecho do raster


M63		;POWDER MIXER OFF
M67		;POWDER FEED OFF
M65		;CARRIER OFF
G4F5
M79     ;GAS 1 OFF

M0

M78     ; GAS 1 ON
M64		;CARRIER ON
H2 = R3	;SET POWDER FLOW
M62		;POWDER MIXER ON
M66		;POWDER FEED ON
G4F10

; Layer 27
G1 Z38.880 F1000
X99.06 Y141.85 F1000
ID=1 WHEN $AC_TIMER[1]>=0 DO M50
X5.528 Y141.850 F300
X5.131 Y141.835
X4.761 Y141.771
X4.395 Y141.677
X4.064 Y141.546
X3.716 Y141.368
X3.401 Y141.168
X3.113 Y140.937
X2.853 Y140.677
X2.622 Y140.389
X2.418 Y140.069
X2.250 Y139.747
X2.105 Y139.366
X2.022 Y139.040
X1.964 Y138.667
X1.940 Y138.249
X1.940 Y44.730
X4.820 Y44.730
X4.822 Y126.851
X4.867 Y127.523
X4.981 Y128.191
X5.158 Y128.817
X5.338 Y129.307
X5.413 Y129.476
X5.715 Y130.043
X6.088 Y130.613
X6.522 Y131.138
X7.007 Y131.612
X7.547 Y132.035
X8.105 Y132.382
X8.700 Y132.679
X9.180 Y132.869
X9.375 Y132.930
X10.198 Y133.123
X10.685 Y133.189
X11.260 Y133.210
X99.060 Y133.210
X99.060 Y141.750
ID=1 WHEN $AC_TIMER[1]>=0 DO M51
X136.85 Y121.85 F1000
ID=1 WHEN $AC_TIMER[1]>=0 DO M50
X133.970 Y121.850 F300
X133.968 Y21.474
X133.922 Y20.752
X133.832 Y20.192
X133.789 Y20.004
X133.578 Y19.332
X133.368 Y18.832
X133.271 Y18.643
X132.901 Y18.033
X132.763 Y17.843
X132.388 Y17.412
X132.078 Y17.102
X131.937 Y16.978
X131.415 Y16.583
X131.085 Y16.378
X130.469 Y16.073
X129.910 Y15.867
X129.352 Y15.717
X128.549 Y15.601
X128.000 Y15.580
X21.940 Y15.580
X21.940 Y6.940
X133.723 Y6.940
X134.193 Y6.964
X134.548 Y7.021
X134.933 Y7.135
X135.404 Y7.350
X135.686 Y7.538
X135.886 Y7.694
X136.107 Y7.922
X136.325 Y8.207
X136.508 Y8.515
X136.703 Y8.992
X136.762 Y9.211
X136.834 Y9.629
X136.850 Y10.056
X136.850 Y121.750
ID=1 WHEN $AC_TIMER[1]>=0 DO M51
X96.18 Y138.97 F1000
ID=1 WHEN $AC_TIMER[1]>=0 DO M50
X5.433 Y138.964 F300
X5.251 Y138.919
X5.040 Y138.791
X4.966 Y138.708
X4.882 Y138.565
X4.846 Y138.460
X4.820 Y138.168
X4.820 Y133.502
X5.230 Y133.878
X5.770 Y134.302
X6.025 Y134.480
X6.583 Y134.827
X6.821 Y134.960
X7.640 Y135.357
X8.312 Y135.615
X8.719 Y135.735
X9.542 Y135.927
X9.810 Y135.976
X10.297 Y136.043
X10.579 Y136.067
X11.260 Y136.090
X96.180 Y136.090
X96.180 Y138.870
ID=1 WHEN $AC_TIMER[1]>=0 DO M51
X133.97 Y14.9304 F1000
ID=1 WHEN $AC_TIMER[1]>=0 DO M50
X133.675 Y14.681 F300
X133.153 Y14.286
X132.605 Y13.932
X132.362 Y13.796
X131.746 Y13.491
X131.466 Y13.371
X130.908 Y13.165
X130.656 Y13.085
X130.098 Y12.935
X129.764 Y12.867
X128.960 Y12.751
X128.660 Y12.723
X128.000 Y12.700
X24.820 Y12.700
X24.820 Y9.820
X133.648 Y9.820
X133.942 Y9.848
X133.963 Y9.928
X133.970 Y14.830
ID=1 WHEN $AC_TIMER[1]>=0 DO M51

; Inicio do trecho do raster
; Final do trecho do raster


M63		;POWDER MIXER OFF
M67		;POWDER FEED OFF
M65		;CARRIER OFF
G4F5
M79     ;GAS 1 OFF

M0

M78     ; GAS 1 ON
M64		;CARRIER ON
H2 = R3	;SET POWDER FLOW
M62		;POWDER MIXER ON
M66		;POWDER FEED ON
G4F10

; Layer 28
G1 Z40.320 F1000
X99.06 Y141.85 F1000
ID=1 WHEN $AC_TIMER[1]>=0 DO M50
X5.528 Y141.850 F300
X5.131 Y141.835
X4.761 Y141.771
X4.395 Y141.677
X4.064 Y141.546
X3.716 Y141.368
X3.401 Y141.168
X3.113 Y140.937
X2.863 Y140.686
X2.606 Y140.364
X2.418 Y140.069
X2.244 Y139.735
X2.114 Y139.400
X2.022 Y139.040
X1.964 Y138.667
X1.940 Y138.249
X1.940 Y44.730
X4.820 Y44.730
X4.822 Y126.851
X4.867 Y127.523
X4.981 Y128.191
X5.158 Y128.817
X5.338 Y129.307
X5.413 Y129.476
X5.715 Y130.043
X5.995 Y130.483
X6.522 Y131.138
X7.007 Y131.612
X7.547 Y132.035
X8.105 Y132.382
X8.700 Y132.679
X9.180 Y132.869
X9.375 Y132.930
X10.198 Y133.123
X10.685 Y133.189
X11.260 Y133.210
X99.060 Y133.210
X99.060 Y141.750
ID=1 WHEN $AC_TIMER[1]>=0 DO M51
X137.53 Y121.85 F1000
ID=1 WHEN $AC_TIMER[1]>=0 DO M50
X134.650 Y121.850 F300
X134.647 Y20.781
X134.591 Y20.067
X134.501 Y19.517
X134.459 Y19.334
X134.264 Y18.703
X134.015 Y18.100
X133.566 Y17.354
X133.443 Y17.184
X133.052 Y16.726
X132.626 Y16.323
X132.116 Y15.927
X131.734 Y15.692
X131.368 Y15.500
X130.590 Y15.200
X130.220 Y15.090
X130.032 Y15.047
X129.228 Y14.931
X128.670 Y14.910
X21.940 Y14.910
X21.940 Y6.270
X134.393 Y6.270
X134.858 Y6.294
X135.246 Y6.356
X135.612 Y6.467
X135.957 Y6.612
X136.324 Y6.834
X136.579 Y7.046
X136.777 Y7.244
X137.101 Y7.692
X137.178 Y7.830
X137.362 Y8.272
X137.429 Y8.527
X137.507 Y9.016
X137.530 Y9.403
X137.530 Y121.750
ID=1 WHEN $AC_TIMER[1]>=0 DO M51
X96.18 Y138.97 F1000
ID=1 WHEN $AC_TIMER[1]>=0 DO M50
X5.433 Y138.964 F300
X5.251 Y138.919
X5.014 Y138.764
X4.914 Y138.627
X4.862 Y138.521
X4.831 Y138.362
X4.820 Y138.168
X4.820 Y133.502
X5.230 Y133.878
X5.770 Y134.302
X6.025 Y134.480
X6.583 Y134.827
X6.821 Y134.960
X7.640 Y135.357
X8.312 Y135.615
X8.719 Y135.735
X9.542 Y135.927
X9.810 Y135.976
X10.297 Y136.043
X10.579 Y136.067
X11.260 Y136.090
X96.180 Y136.090
X96.180 Y138.870
ID=1 WHEN $AC_TIMER[1]>=0 DO M51
X134.65 Y14.2729 F1000
ID=1 WHEN $AC_TIMER[1]>=0 DO M50
X134.392 Y14.047 F300
X133.882 Y13.652
X133.625 Y13.474
X133.070 Y13.141
X132.704 Y12.949
X132.406 Y12.814
X131.411 Y12.439
X130.854 Y12.280
X130.444 Y12.197
X129.639 Y12.081
X129.337 Y12.053
X128.670 Y12.030
X24.820 Y12.030
X24.820 Y9.150
X134.318 Y9.150
X134.616 Y9.175
X134.650 Y9.489
X134.650 Y14.173
ID=1 WHEN $AC_TIMER[1]>=0 DO M51

; Inicio do trecho do raster
; Final do trecho do raster


M63		;POWDER MIXER OFF
M67		;POWDER FEED OFF
M65		;CARRIER OFF
G4F5
M79     ;GAS 1 OFF

M0

M78     ; GAS 1 ON
M64		;CARRIER ON
H2 = R3	;SET POWDER FLOW
M62		;POWDER MIXER ON
M66		;POWDER FEED ON
G4F10

; Layer 29
G1 Z41.760 F1000
X99.06 Y141.85 F1000
ID=1 WHEN $AC_TIMER[1]>=0 DO M50
X5.528 Y141.850 F300
X5.131 Y141.835
X4.761 Y141.771
X4.395 Y141.677
X4.064 Y141.546
X3.716 Y141.368
X3.401 Y141.168
X3.113 Y140.937
X2.853 Y140.677
X2.622 Y140.389
X2.418 Y140.069
X2.244 Y139.735
X2.114 Y139.400
X2.022 Y139.040
X1.964 Y138.667
X1.940 Y138.249
X1.940 Y44.730
X4.820 Y44.730
X4.822 Y126.851
X4.867 Y127.523
X4.981 Y128.191
X5.158 Y128.817
X5.338 Y129.307
X5.413 Y129.476
X5.715 Y130.043
X6.088 Y130.613
X6.522 Y131.138
X7.007 Y131.612
X7.547 Y132.035
X8.105 Y132.382
X8.700 Y132.679
X9.180 Y132.869
X9.354 Y132.925
X9.974 Y133.079
X10.494 Y133.169
X10.685 Y133.189
X11.260 Y133.210
X99.060 Y133.210
X99.060 Y141.750
ID=1 WHEN $AC_TIMER[1]>=0 DO M51
X138.2 Y121.85 F1000
ID=1 WHEN $AC_TIMER[1]>=0 DO M50
X135.320 Y121.850 F300
X135.318 Y20.136
X135.288 Y19.556
X135.267 Y19.372
X135.145 Y18.721
X134.973 Y18.106
X134.698 Y17.460
X134.352 Y16.851
X134.248 Y16.698
X133.868 Y16.208
X133.732 Y16.056
X133.305 Y15.650
X132.931 Y15.357
X132.415 Y15.028
X131.819 Y14.733
X131.260 Y14.527
X130.706 Y14.378
X129.908 Y14.261
X129.350 Y14.240
X21.940 Y14.240
X21.940 Y5.600
X135.072 Y5.600
X135.527 Y5.624
X135.916 Y5.686
X136.303 Y5.803
X136.624 Y5.938
X136.748 Y6.006
X137.012 Y6.179
X137.249 Y6.376
X137.455 Y6.582
X137.673 Y6.866
X137.914 Y7.295
X138.036 Y7.619
X138.100 Y7.859
X138.177 Y8.337
X138.200 Y8.732
X138.200 Y121.750
ID=1 WHEN $AC_TIMER[1]>=0 DO M51
X96.18 Y138.97 F1000
ID=1 WHEN $AC_TIMER[1]>=0 DO M50
X5.433 Y138.964 F300
X5.251 Y138.919
X5.040 Y138.791
X4.966 Y138.708
X4.862 Y138.521
X4.831 Y138.362
X4.820 Y138.168
X4.820 Y133.502
X5.230 Y133.878
X5.770 Y134.302
X6.025 Y134.480
X6.583 Y134.827
X6.821 Y134.960
X7.640 Y135.357
X8.467 Y135.665
X9.483 Y135.917
X10.193 Y136.033
X10.579 Y136.067
X11.260 Y136.090
X96.180 Y136.090
X96.180 Y138.870
ID=1 WHEN $AC_TIMER[1]>=0 DO M51
X135.32 Y13.5918 F1000
ID=1 WHEN $AC_TIMER[1]>=0 DO M50
X135.082 Y13.383 F300
X134.709 Y13.091
X134.480 Y12.929
X133.964 Y12.600
X133.692 Y12.446
X133.095 Y12.151
X132.816 Y12.031
X132.258 Y11.825
X132.007 Y11.745
X131.453 Y11.596
X131.122 Y11.528
X130.324 Y11.411
X130.017 Y11.383
X129.350 Y11.360
X24.820 Y11.360
X24.820 Y8.480
X134.996 Y8.480
X135.287 Y8.505
X135.310 Y8.652
X135.320 Y8.817
X135.320 Y13.492
ID=1 WHEN $AC_TIMER[1]>=0 DO M51

; Inicio do trecho do raster
; Final do trecho do raster


M63		;POWDER MIXER OFF
M67		;POWDER FEED OFF
M65		;CARRIER OFF
G4F5
M79     ;GAS 1 OFF

M0

M78     ; GAS 1 ON
M64		;CARRIER ON
H2 = R3	;SET POWDER FLOW
M62		;POWDER MIXER ON
M66		;POWDER FEED ON
G4F10

; Layer 30
G1 Z43.200 F1000
X99.06 Y141.85 F1000
ID=1 WHEN $AC_TIMER[1]>=0 DO M50
X5.528 Y141.850 F300
X5.131 Y141.835
X4.761 Y141.771
X4.395 Y141.677
X4.064 Y141.546
X3.716 Y141.368
X3.401 Y141.168
X3.113 Y140.937
X2.853 Y140.677
X2.622 Y140.389
X2.418 Y140.069
X2.244 Y139.735
X2.114 Y139.400
X2.022 Y139.040
X1.964 Y138.667
X1.940 Y138.249
X1.940 Y44.730
X4.820 Y44.730
X4.822 Y126.851
X4.867 Y127.523
X4.981 Y128.191
X5.158 Y128.817
X5.338 Y129.307
X5.413 Y129.476
X5.715 Y130.043
X6.088 Y130.613
X6.522 Y131.138
X7.007 Y131.612
X7.547 Y132.035
X8.105 Y132.382
X8.700 Y132.679
X9.180 Y132.869
X9.354 Y132.925
X9.974 Y133.079
X10.494 Y133.169
X10.685 Y133.189
X11.260 Y133.210
X99.060 Y133.210
X99.060 Y141.750
ID=1 WHEN $AC_TIMER[1]>=0 DO M51
X138.87 Y121.85 F1000
ID=1 WHEN $AC_TIMER[1]>=0 DO M50
X135.990 Y121.850 F300
X135.988 Y19.466
X135.958 Y18.886
X135.938 Y18.707
X135.815 Y18.041
X135.725 Y17.691
X135.656 Y17.478
X135.448 Y16.956
X135.143 Y16.369
X134.799 Y15.861
X134.418 Y15.412
X133.980 Y14.984
X133.591 Y14.677
X133.064 Y14.342
X132.520 Y14.075
X131.933 Y13.849
X131.391 Y13.710
X130.716 Y13.603
X130.020 Y13.560
X21.940 Y13.560
X21.940 Y4.920
X135.730 Y4.920
X136.185 Y4.952
X136.586 Y5.016
X136.952 Y5.127
X137.315 Y5.279
X137.697 Y5.519
X137.904 Y5.682
X138.119 Y5.903
X138.359 Y6.216
X138.432 Y6.331
X138.594 Y6.640
X138.706 Y6.939
X138.770 Y7.179
X138.847 Y7.657
X138.870 Y8.061
X138.870 Y121.750
ID=1 WHEN $AC_TIMER[1]>=0 DO M51
X96.18 Y138.97 F1000
ID=1 WHEN $AC_TIMER[1]>=0 DO M50
X5.433 Y138.964 F300
X5.251 Y138.919
X5.040 Y138.791
X4.966 Y138.708
X4.862 Y138.521
X4.831 Y138.362
X4.820 Y138.168
X4.820 Y133.502
X5.230 Y133.878
X5.770 Y134.302
X6.025 Y134.480
X6.583 Y134.827
X6.821 Y134.960
X7.640 Y135.357
X8.467 Y135.665
X9.483 Y135.917
X10.193 Y136.033
X10.579 Y136.067
X11.260 Y136.090
X96.180 Y136.090
X96.180 Y138.870
ID=1 WHEN $AC_TIMER[1]>=0 DO M51
X135.99 Y12.9215 F1000
ID=1 WHEN $AC_TIMER[1]>=0 DO M50
X135.765 Y12.724 F300
X135.377 Y12.417
X135.135 Y12.246
X134.608 Y11.911
X134.333 Y11.757
X133.555 Y11.387
X132.968 Y11.161
X132.648 Y11.059
X132.106 Y10.920
X131.842 Y10.866
X131.167 Y10.759
X130.894 Y10.729
X130.020 Y10.680
X24.820 Y10.680
X24.820 Y7.800
X135.629 Y7.800
X135.958 Y7.835
X135.990 Y8.144
X135.990 Y12.822
ID=1 WHEN $AC_TIMER[1]>=0 DO M51

; Inicio do trecho do raster
; Final do trecho do raster


M63		;POWDER MIXER OFF
M67		;POWDER FEED OFF
M65		;CARRIER OFF
G4F5
M79     ;GAS 1 OFF

M0

M78     ; GAS 1 ON
M64		;CARRIER ON
H2 = R3	;SET POWDER FLOW
M62		;POWDER MIXER ON
M66		;POWDER FEED ON
G4F10

; Layer 31
G1 Z44.640 F1000
X99.06 Y141.85 F1000
ID=1 WHEN $AC_TIMER[1]>=0 DO M50
X5.528 Y141.850 F300
X5.131 Y141.835
X4.761 Y141.771
X4.395 Y141.677
X4.064 Y141.546
X3.716 Y141.368
X3.401 Y141.168
X3.113 Y140.937
X2.853 Y140.677
X2.622 Y140.389
X2.418 Y140.069
X2.244 Y139.735
X2.114 Y139.400
X2.022 Y139.040
X1.964 Y138.667
X1.940 Y138.249
X1.940 Y44.730
X4.820 Y44.730
X4.822 Y126.851
X4.867 Y127.523
X4.981 Y128.191
X5.158 Y128.817
X5.338 Y129.307
X5.413 Y129.476
X5.715 Y130.043
X6.088 Y130.613
X6.522 Y131.138
X7.007 Y131.612
X7.547 Y132.035
X8.105 Y132.382
X8.700 Y132.679
X9.180 Y132.869
X9.354 Y132.925
X9.974 Y133.079
X10.494 Y133.169
X10.685 Y133.189
X11.260 Y133.210
X99.060 Y133.210
X99.060 Y141.750
ID=1 WHEN $AC_TIMER[1]>=0 DO M51
X139.54 Y121.85 F1000
ID=1 WHEN $AC_TIMER[1]>=0 DO M50
X136.660 Y121.850 F300
X136.658 Y18.784
X136.628 Y18.214
X136.608 Y18.037
X136.476 Y17.338
X136.280 Y16.673
X136.112 Y16.264
X135.813 Y15.699
X135.484 Y15.210
X135.204 Y14.860
X135.083 Y14.727
X134.654 Y14.317
X134.374 Y14.087
X134.037 Y13.851
X133.494 Y13.542
X133.169 Y13.389
X132.601 Y13.184
X132.053 Y13.039
X131.293 Y12.922
X130.690 Y12.890
X21.940 Y12.890
X21.940 Y4.250
X136.412 Y4.250
X136.855 Y4.273
X137.257 Y4.345
X137.622 Y4.448
X137.960 Y4.597
X138.341 Y4.820
X138.573 Y5.011
X138.794 Y5.239
X139.030 Y5.539
X139.106 Y5.661
X139.261 Y5.964
X139.376 Y6.269
X139.440 Y6.510
X139.517 Y6.978
X139.540 Y7.381
X139.540 Y121.750
ID=1 WHEN $AC_TIMER[1]>=0 DO M51
X96.18 Y138.97 F1000
ID=1 WHEN $AC_TIMER[1]>=0 DO M50
X5.433 Y138.964 F300
X5.251 Y138.919
X5.040 Y138.791
X4.966 Y138.708
X4.862 Y138.521
X4.831 Y138.362
X4.820 Y138.168
X4.820 Y133.502
X5.230 Y133.878
X5.770 Y134.302
X6.025 Y134.480
X6.583 Y134.827
X6.821 Y134.960
X7.640 Y135.357
X8.467 Y135.665
X9.483 Y135.917
X10.193 Y136.033
X10.579 Y136.067
X11.260 Y136.090
X96.180 Y136.090
X96.180 Y138.870
ID=1 WHEN $AC_TIMER[1]>=0 DO M51
X136.66 Y12.2614 F1000
ID=1 WHEN $AC_TIMER[1]>=0 DO M50
X136.482 Y12.092 F300
X136.027 Y11.729
X135.462 Y11.349
X134.720 Y10.936
X134.147 Y10.681
X133.338 Y10.400
X132.790 Y10.255
X132.490 Y10.192
X131.730 Y10.076
X131.447 Y10.047
X130.690 Y10.010
X24.820 Y10.010
X24.820 Y7.130
X136.336 Y7.130
X136.628 Y7.160
X136.650 Y7.295
X136.660 Y7.464
X136.660 Y12.161
ID=1 WHEN $AC_TIMER[1]>=0 DO M51

; Inicio do trecho do raster
; Final do trecho do raster


M63		;POWDER MIXER OFF
M67		;POWDER FEED OFF
M65		;CARRIER OFF
G4F5
M79     ;GAS 1 OFF

M0

M78     ; GAS 1 ON
M64		;CARRIER ON
H2 = R3	;SET POWDER FLOW
M62		;POWDER MIXER ON
M66		;POWDER FEED ON
G4F10

; Layer 32
G1 Z46.080 F1000
X99.06 Y141.85 F1000
ID=1 WHEN $AC_TIMER[1]>=0 DO M50
X5.528 Y141.850 F300
X5.131 Y141.835
X4.761 Y141.771
X4.395 Y141.677
X4.064 Y141.546
X3.716 Y141.368
X3.401 Y141.168
X3.113 Y140.937
X2.853 Y140.677
X2.622 Y140.389
X2.418 Y140.069
X2.244 Y139.735
X2.114 Y139.400
X2.022 Y139.040
X1.964 Y138.667
X1.940 Y138.249
X1.940 Y44.730
X4.820 Y44.730
X4.822 Y126.851
X4.867 Y127.523
X4.981 Y128.191
X5.158 Y128.817
X5.338 Y129.307
X5.413 Y129.476
X5.715 Y130.043
X6.088 Y130.613
X6.522 Y131.138
X7.007 Y131.612
X7.547 Y132.035
X8.105 Y132.382
X8.700 Y132.679
X9.180 Y132.869
X9.354 Y132.925
X9.974 Y133.079
X10.494 Y133.169
X10.685 Y133.189
X11.260 Y133.210
X99.060 Y133.210
X99.060 Y141.750
ID=1 WHEN $AC_TIMER[1]>=0 DO M51
X140.21 Y121.85 F1000
ID=1 WHEN $AC_TIMER[1]>=0 DO M50
X137.330 Y121.850 F300
X137.329 Y18.134
X137.292 Y17.451
X137.192 Y16.831
X137.149 Y16.644
X136.928 Y15.950
X136.639 Y15.313
X136.369 Y14.843
X136.251 Y14.669
X135.768 Y14.072
X135.438 Y13.742
X135.297 Y13.618
X134.753 Y13.209
X134.418 Y13.004
X133.839 Y12.713
X133.238 Y12.495
X132.731 Y12.370
X132.056 Y12.263
X131.360 Y12.220
X21.940 Y12.220
X21.940 Y3.580
X137.082 Y3.580
X137.535 Y3.604
X137.927 Y3.668
X138.179 Y3.739
X138.502 Y3.861
X138.784 Y4.002
X139.016 Y4.152
X139.241 Y4.339
X139.477 Y4.582
X139.622 Y4.757
X139.781 Y5.010
X139.936 Y5.305
X140.052 Y5.606
X140.119 Y5.843
X140.186 Y6.288
X140.210 Y6.711
X140.210 Y121.750
ID=1 WHEN $AC_TIMER[1]>=0 DO M51
X96.18 Y138.97 F1000
ID=1 WHEN $AC_TIMER[1]>=0 DO M50
X5.433 Y138.964 F300
X5.251 Y138.919
X5.040 Y138.791
X4.966 Y138.708
X4.862 Y138.521
X4.831 Y138.362
X4.820 Y138.168
X4.820 Y133.502
X5.230 Y133.878
X5.770 Y134.302
X6.025 Y134.480
X6.583 Y134.827
X6.821 Y134.960
X7.640 Y135.357
X8.467 Y135.665
X9.483 Y135.917
X10.193 Y136.033
X10.579 Y136.067
X11.260 Y136.090
X96.180 Y136.090
X96.180 Y138.870
ID=1 WHEN $AC_TIMER[1]>=0 DO M51
X137.33 Y11.5704 F1000
ID=1 WHEN $AC_TIMER[1]>=0 DO M50
X137.028 Y11.316 F300
X136.484 Y10.907
X135.919 Y10.546
X135.133 Y10.140
X134.820 Y10.005
X134.219 Y9.787
X133.927 Y9.699
X133.182 Y9.526
X132.507 Y9.419
X132.234 Y9.389
X131.360 Y9.340
X24.820 Y9.340
X24.820 Y6.460
X137.006 Y6.460
X137.304 Y6.487
X137.330 Y6.792
X137.330 Y11.470
ID=1 WHEN $AC_TIMER[1]>=0 DO M51

; Inicio do trecho do raster
; Final do trecho do raster


M63		;POWDER MIXER OFF
M67		;POWDER FEED OFF
M65		;CARRIER OFF
G4F5
M79     ;GAS 1 OFF

M0

M78     ; GAS 1 ON
M64		;CARRIER ON
H2 = R3	;SET POWDER FLOW
M62		;POWDER MIXER ON
M66		;POWDER FEED ON
G4F10

; Layer 33
G1 Z47.520 F1000
X99.06 Y141.85 F1000
ID=1 WHEN $AC_TIMER[1]>=0 DO M50
X5.528 Y141.850 F300
X5.131 Y141.835
X4.761 Y141.771
X4.395 Y141.677
X4.064 Y141.546
X3.716 Y141.368
X3.401 Y141.168
X3.113 Y140.937
X2.853 Y140.677
X2.622 Y140.389
X2.418 Y140.069
X2.244 Y139.735
X2.114 Y139.400
X2.022 Y139.040
X1.964 Y138.667
X1.940 Y138.249
X1.940 Y44.730
X4.820 Y44.730
X4.822 Y126.845
X4.867 Y127.523
X4.981 Y128.191
X5.158 Y128.817
X5.338 Y129.307
X5.413 Y129.476
X5.715 Y130.043
X6.088 Y130.613
X6.522 Y131.138
X7.007 Y131.612
X7.547 Y132.035
X8.105 Y132.382
X8.700 Y132.679
X9.180 Y132.869
X9.354 Y132.925
X9.974 Y133.079
X10.494 Y133.169
X10.685 Y133.189
X11.260 Y133.210
X99.060 Y133.210
X99.060 Y141.750
ID=1 WHEN $AC_TIMER[1]>=0 DO M51
X140.88 Y121.85 F1000
ID=1 WHEN $AC_TIMER[1]>=0 DO M50
X138.000 Y121.850 F300
X137.999 Y17.466
X137.979 Y16.936
X137.960 Y16.753
X137.826 Y15.999
X137.673 Y15.481
X137.383 Y14.769
X137.299 Y14.610
X136.939 Y14.020
X136.822 Y13.855
X136.448 Y13.412
X136.108 Y13.072
X135.967 Y12.948
X135.436 Y12.547
X135.066 Y12.318
X134.492 Y12.037
X133.909 Y11.823
X133.401 Y11.700
X132.650 Y11.582
X132.030 Y11.550
X21.940 Y11.550
X21.940 Y2.910
X137.753 Y2.910
X138.216 Y2.934
X138.562 Y2.995
X138.875 Y3.075
X139.175 Y3.188
X139.448 Y3.328
X139.688 Y3.484
X139.903 Y3.661
X140.149 Y3.914
X140.309 Y4.106
X140.462 Y4.342
X140.602 Y4.615
X140.721 Y4.931
X140.793 Y5.187
X140.864 Y5.608
X140.880 Y6.027
X140.880 Y121.750
ID=1 WHEN $AC_TIMER[1]>=0 DO M51
X96.18 Y138.97 F1000
ID=1 WHEN $AC_TIMER[1]>=0 DO M50
X5.433 Y138.964 F300
X5.251 Y138.919
X5.040 Y138.791
X4.966 Y138.708
X4.862 Y138.521
X4.831 Y138.362
X4.820 Y138.168
X4.820 Y133.502
X5.230 Y133.878
X5.770 Y134.302
X6.025 Y134.480
X6.583 Y134.827
X6.821 Y134.960
X7.640 Y135.357
X8.467 Y135.665
X9.483 Y135.917
X10.193 Y136.033
X10.579 Y136.067
X11.260 Y136.090
X96.180 Y136.090
X96.180 Y138.870
ID=1 WHEN $AC_TIMER[1]>=0 DO M51
X138 Y10.9005 F1000
ID=1 WHEN $AC_TIMER[1]>=0 DO M50
X137.702 Y10.649 F300
X137.172 Y10.249
X136.582 Y9.869
X136.334 Y9.732
X135.760 Y9.451
X135.484 Y9.333
X134.901 Y9.119
X134.585 Y9.023
X133.848 Y8.855
X133.097 Y8.737
X132.799 Y8.706
X132.030 Y8.670
X24.820 Y8.670
X24.820 Y5.790
X137.678 Y5.790
X137.980 Y5.826
X138.000 Y6.080
X138.000 Y10.800
ID=1 WHEN $AC_TIMER[1]>=0 DO M51

; Inicio do trecho do raster
; Final do trecho do raster


M63		;POWDER MIXER OFF
M67		;POWDER FEED OFF
M65		;CARRIER OFF
G4F5
M79     ;GAS 1 OFF

M0

M78     ; GAS 1 ON
M64		;CARRIER ON
H2 = R3	;SET POWDER FLOW
M62		;POWDER MIXER ON
M66		;POWDER FEED ON
G4F10

; Layer 34
G1 Z48.960 F1000
X99.06 Y141.85 F1000
ID=1 WHEN $AC_TIMER[1]>=0 DO M50
X5.528 Y141.850 F300
X5.131 Y141.835
X4.761 Y141.771
X4.395 Y141.677
X4.064 Y141.546
X3.716 Y141.368
X3.401 Y141.168
X3.113 Y140.937
X2.853 Y140.677
X2.622 Y140.389
X2.418 Y140.069
X2.252 Y139.751
X2.107 Y139.372
X2.022 Y139.040
X1.964 Y138.667
X1.940 Y138.249
X1.940 Y44.730
X4.820 Y44.730
X4.822 Y126.851
X4.867 Y127.523
X4.970 Y128.146
X5.054 Y128.483
X5.158 Y128.817
X5.338 Y129.307
X5.413 Y129.476
X5.715 Y130.043
X6.088 Y130.613
X6.522 Y131.138
X7.007 Y131.612
X7.547 Y132.035
X8.105 Y132.382
X8.700 Y132.679
X9.180 Y132.869
X9.354 Y132.925
X9.974 Y133.079
X10.494 Y133.169
X10.685 Y133.189
X11.260 Y133.210
X99.060 Y133.210
X99.060 Y141.750
ID=1 WHEN $AC_TIMER[1]>=0 DO M51
X138.657 Y16.9202 F1000
ID=1 WHEN $AC_TIMER[1]>=0 DO M50
X138.608 Y16.277 F300
X138.487 Y15.621
X138.387 Y15.221
X138.325 Y15.031
X138.050 Y14.371
X137.753 Y13.828
X137.381 Y13.282
X136.963 Y12.797
X136.502 Y12.360
X136.021 Y11.987
X135.524 Y11.672
X134.926 Y11.384
X134.266 Y11.155
X133.682 Y11.011
X133.272 Y10.941
X133.089 Y10.921
X132.540 Y10.900
X21.940 Y10.900
X21.940 Y2.260
X138.271 Y2.260
X138.642 Y2.275
X138.959 Y2.328
X139.298 Y2.422
X139.627 Y2.543
X139.919 Y2.690
X140.197 Y2.872
X140.455 Y3.083
X140.694 Y3.329
X140.918 Y3.603
X141.104 Y3.886
X141.255 Y4.182
X141.377 Y4.492
X141.459 Y4.815
X141.517 Y5.171
X141.540 Y5.535
X141.530 Y121.850
X138.650 Y121.850
X138.657 Y17.020
ID=1 WHEN $AC_TIMER[1]>=0 DO M51
X96.18 Y138.97 F1000
ID=1 WHEN $AC_TIMER[1]>=0 DO M50
X5.433 Y138.964 F300
X5.251 Y138.919
X5.040 Y138.791
X4.966 Y138.708
X4.882 Y138.565
X4.846 Y138.460
X4.820 Y138.168
X4.820 Y133.502
X5.230 Y133.878
X5.770 Y134.302
X6.025 Y134.480
X6.583 Y134.827
X6.821 Y134.960
X7.640 Y135.357
X8.467 Y135.665
X9.483 Y135.917
X10.193 Y136.033
X10.579 Y136.067
X11.260 Y136.090
X96.180 Y136.090
X96.180 Y138.870
ID=1 WHEN $AC_TIMER[1]>=0 DO M51
X138.66 Y10.4365 F1000
ID=1 WHEN $AC_TIMER[1]>=0 DO M50
X138.267 Y10.083 F300
X137.785 Y9.710
X137.561 Y9.553
X137.065 Y9.239
X136.772 Y9.076
X136.174 Y8.789
X135.873 Y8.665
X135.213 Y8.435
X134.957 Y8.359
X134.167 Y8.172
X133.390 Y8.057
X132.540 Y8.020
X24.820 Y8.020
X24.820 Y5.140
X138.341 Y5.145
X138.506 Y5.209
X138.630 Y5.376
X138.652 Y5.494
X138.659 Y10.337
ID=1 WHEN $AC_TIMER[1]>=0 DO M51

; Inicio do trecho do raster
; Final do trecho do raster


M63		;POWDER MIXER OFF
M67		;POWDER FEED OFF
M65		;CARRIER OFF
G4F5
M79     ;GAS 1 OFF

M0

M78     ; GAS 1 ON
M64		;CARRIER ON
H2 = R3	;SET POWDER FLOW
M62		;POWDER MIXER ON
M66		;POWDER FEED ON
G4F10

; Layer 35
G1 Z50.400 F1000
X99.06 Y141.85 F1000
ID=1 WHEN $AC_TIMER[1]>=0 DO M50
X5.528 Y141.850 F300
X5.131 Y141.835
X4.761 Y141.771
X4.395 Y141.677
X4.064 Y141.546
X3.716 Y141.368
X3.401 Y141.168
X3.113 Y140.937
X2.853 Y140.677
X2.622 Y140.389
X2.418 Y140.069
X2.244 Y139.735
X2.114 Y139.400
X2.022 Y139.040
X1.964 Y138.667
X1.940 Y138.249
X1.940 Y44.730
X4.820 Y44.730
X4.822 Y126.851
X4.867 Y127.523
X4.981 Y128.191
X5.158 Y128.817
X5.338 Y129.307
X5.413 Y129.476
X5.715 Y130.043
X6.088 Y130.613
X6.522 Y131.138
X7.007 Y131.612
X7.547 Y132.035
X8.105 Y132.382
X8.700 Y132.679
X9.180 Y132.869
X9.354 Y132.925
X9.974 Y133.079
X10.494 Y133.169
X10.685 Y133.189
X11.260 Y133.210
X99.060 Y133.210
X99.060 Y141.750
ID=1 WHEN $AC_TIMER[1]>=0 DO M51
X141.85 Y121.85 F1000
ID=1 WHEN $AC_TIMER[1]>=0 DO M50
X138.970 Y121.850 F300
X138.968 Y16.927
X138.923 Y16.267
X138.809 Y15.599
X138.619 Y14.940
X138.383 Y14.357
X138.153 Y13.887
X138.062 Y13.728
X137.681 Y13.164
X137.272 Y12.676
X136.912 Y12.306
X136.373 Y11.858
X135.696 Y11.423
X135.091 Y11.117
X134.442 Y10.876
X133.826 Y10.721
X133.306 Y10.631
X133.115 Y10.611
X132.540 Y10.590
X21.940 Y10.590
X21.940 Y1.950
X138.262 Y1.950
X138.706 Y1.973
X139.064 Y2.036
X139.433 Y2.138
X139.770 Y2.271
X140.099 Y2.443
X140.413 Y2.650
X140.693 Y2.881
X140.953 Y3.148
X141.192 Y3.453
X141.369 Y3.719
X141.544 Y4.077
X141.679 Y4.445
X141.771 Y4.768
X141.826 Y5.123
X141.850 Y5.531
X141.850 Y121.750
ID=1 WHEN $AC_TIMER[1]>=0 DO M51
X96.18 Y138.97 F1000
ID=1 WHEN $AC_TIMER[1]>=0 DO M50
X5.433 Y138.964 F300
X5.251 Y138.919
X5.040 Y138.791
X4.966 Y138.708
X4.862 Y138.521
X4.831 Y138.362
X4.820 Y138.168
X4.820 Y133.502
X5.230 Y133.878
X5.770 Y134.302
X6.025 Y134.480
X6.583 Y134.827
X6.821 Y134.960
X7.640 Y135.357
X8.467 Y135.665
X9.483 Y135.917
X10.193 Y136.033
X10.579 Y136.067
X11.260 Y136.090
X96.180 Y136.090
X96.180 Y138.870
ID=1 WHEN $AC_TIMER[1]>=0 DO M51
X138.97 Y10.2916 F1000
ID=1 WHEN $AC_TIMER[1]>=0 DO M50
X138.752 Y10.090 F300
X138.212 Y9.642
X137.930 Y9.435
X137.253 Y9.000
X136.995 Y8.853
X136.389 Y8.547
X136.094 Y8.418
X135.446 Y8.177
X135.145 Y8.083
X134.317 Y7.883
X133.607 Y7.767
X133.221 Y7.733
X132.540 Y7.710
X24.820 Y7.710
X24.820 Y4.830
X138.186 Y4.830
X138.431 Y4.849
X138.571 Y4.894
X138.739 Y5.002
X138.867 Y5.158
X138.959 Y5.430
X138.970 Y5.614
X138.970 Y10.192
ID=1 WHEN $AC_TIMER[1]>=0 DO M51

; Inicio do trecho do raster
; Final do trecho do raster


M63		;POWDER MIXER OFF
M67		;POWDER FEED OFF
M65		;CARRIER OFF
G4F5
M79     ;GAS 1 OFF

M0

M78     ; GAS 1 ON
M64		;CARRIER ON
H2 = R3	;SET POWDER FLOW
M62		;POWDER MIXER ON
M66		;POWDER FEED ON
G4F10

; Layer 36
G1 Z51.840 F1000
X99.06 Y141.85 F1000
ID=1 WHEN $AC_TIMER[1]>=0 DO M50
X5.528 Y141.850 F300
X5.131 Y141.835
X4.761 Y141.771
X4.395 Y141.677
X4.064 Y141.546
X3.716 Y141.368
X3.401 Y141.168
X3.113 Y140.937
X2.853 Y140.677
X2.622 Y140.389
X2.418 Y140.069
X2.244 Y139.735
X2.114 Y139.400
X2.022 Y139.040
X1.964 Y138.667
X1.940 Y138.249
X1.940 Y44.730
X4.820 Y44.730
X4.822 Y126.851
X4.867 Y127.523
X4.981 Y128.191
X5.158 Y128.817
X5.338 Y129.307
X5.413 Y129.476
X5.715 Y130.043
X6.088 Y130.613
X6.522 Y131.138
X7.007 Y131.612
X7.547 Y132.035
X8.105 Y132.382
X8.700 Y132.679
X9.180 Y132.869
X9.354 Y132.925
X9.974 Y133.079
X10.494 Y133.169
X10.685 Y133.189
X11.260 Y133.210
X99.060 Y133.210
X99.060 Y141.750
ID=1 WHEN $AC_TIMER[1]>=0 DO M51
X141.73 Y121.85 F1000
ID=1 WHEN $AC_TIMER[1]>=0 DO M50
X138.850 Y121.850 F300
X138.847 Y16.924
X138.803 Y16.287
X138.692 Y15.631
X138.562 Y15.141
X138.505 Y14.970
X138.268 Y14.396
X137.957 Y13.794
X137.583 Y13.237
X137.168 Y12.742
X136.735 Y12.313
X136.368 Y12.008
X135.778 Y11.608
X135.625 Y11.518
X135.026 Y11.222
X134.409 Y10.998
X133.778 Y10.838
X133.163 Y10.744
X132.540 Y10.700
X21.940 Y10.700
X21.940 Y2.070
X138.244 Y2.060
X138.640 Y2.091
X139.011 Y2.150
X139.361 Y2.243
X139.698 Y2.370
X140.007 Y2.528
X140.406 Y2.795
X140.698 Y3.055
X140.831 Y3.195
X141.066 Y3.482
X141.254 Y3.770
X141.496 Y4.270
X141.557 Y4.431
X141.649 Y4.777
X141.707 Y5.145
X141.730 Y5.533
X141.730 Y121.750
ID=1 WHEN $AC_TIMER[1]>=0 DO M51
X96.18 Y138.97 F1000
ID=1 WHEN $AC_TIMER[1]>=0 DO M50
X5.433 Y138.964 F300
X5.251 Y138.919
X5.040 Y138.791
X4.966 Y138.708
X4.862 Y138.521
X4.831 Y138.362
X4.820 Y138.168
X4.820 Y133.502
X5.230 Y133.878
X5.770 Y134.302
X6.025 Y134.480
X6.583 Y134.827
X6.821 Y134.960
X7.640 Y135.357
X8.467 Y135.665
X9.483 Y135.917
X10.193 Y136.033
X10.579 Y136.067
X11.260 Y136.090
X96.180 Y136.090
X96.180 Y138.870
ID=1 WHEN $AC_TIMER[1]>=0 DO M51
X138.85 Y10.3628 F1000
ID=1 WHEN $AC_TIMER[1]>=0 DO M50
X138.577 Y10.100 F300
X138.210 Y9.794
X137.984 Y9.624
X137.244 Y9.129
X136.900 Y8.935
X136.301 Y8.639
X136.008 Y8.514
X135.391 Y8.291
X135.117 Y8.206
X134.485 Y8.046
X134.211 Y7.991
X133.367 Y7.872
X132.540 Y7.820
X24.820 Y7.820
X24.820 Y4.950
X138.131 Y4.940
X138.413 Y4.971
X138.546 Y5.016
X138.682 Y5.117
X138.741 Y5.189
X138.827 Y5.371
X138.850 Y5.619
X138.850 Y10.263
ID=1 WHEN $AC_TIMER[1]>=0 DO M51

; Inicio do trecho do raster
; Final do trecho do raster


M63		;POWDER MIXER OFF
M67		;POWDER FEED OFF
M65		;CARRIER OFF
G4F5
M79     ;GAS 1 OFF

M0

M78     ; GAS 1 ON
M64		;CARRIER ON
H2 = R3	;SET POWDER FLOW
M62		;POWDER MIXER ON
M66		;POWDER FEED ON
G4F10

; Layer 37
G1 Z53.280 F1000
X99.06 Y141.85 F1000
ID=1 WHEN $AC_TIMER[1]>=0 DO M50
X5.528 Y141.850 F300
X5.131 Y141.835
X4.761 Y141.771
X4.395 Y141.677
X4.064 Y141.546
X3.716 Y141.368
X3.401 Y141.168
X3.113 Y140.937
X2.853 Y140.677
X2.622 Y140.389
X2.418 Y140.069
X2.244 Y139.735
X2.114 Y139.400
X2.022 Y139.040
X1.964 Y138.667
X1.940 Y138.249
X1.940 Y44.730
X4.820 Y44.730
X4.822 Y126.851
X4.867 Y127.523
X4.981 Y128.191
X5.158 Y128.817
X5.338 Y129.307
X5.413 Y129.476
X5.715 Y130.043
X6.088 Y130.613
X6.522 Y131.138
X7.007 Y131.612
X7.547 Y132.035
X8.105 Y132.382
X8.700 Y132.679
X9.180 Y132.869
X9.354 Y132.925
X9.974 Y133.079
X10.494 Y133.169
X10.685 Y133.189
X11.260 Y133.210
X99.060 Y133.210
X99.060 Y141.750
ID=1 WHEN $AC_TIMER[1]>=0 DO M51
X141.18 Y121.85 F1000
ID=1 WHEN $AC_TIMER[1]>=0 DO M50
X138.300 Y121.850 F300
X138.298 Y17.144
X138.252 Y16.422
X138.126 Y15.699
X137.969 Y15.171
X137.758 Y14.647
X137.562 Y14.259
X137.232 Y13.729
X137.095 Y13.543
X136.618 Y13.002
X136.290 Y12.686
X135.890 Y12.366
X135.731 Y12.255
X135.184 Y11.932
X134.831 Y11.759
X134.382 Y11.584
X133.701 Y11.400
X132.950 Y11.282
X132.330 Y11.250
X21.940 Y11.250
X21.940 Y2.610
X138.053 Y2.610
X138.503 Y2.633
X138.894 Y2.704
X139.253 Y2.806
X139.629 Y2.977
X139.926 Y3.155
X140.180 Y3.358
X140.432 Y3.617
X140.602 Y3.819
X140.836 Y4.194
X141.024 Y4.641
X141.090 Y4.875
X141.156 Y5.309
X141.180 Y5.740
X141.180 Y121.750
ID=1 WHEN $AC_TIMER[1]>=0 DO M51
X96.18 Y138.97 F1000
ID=1 WHEN $AC_TIMER[1]>=0 DO M50
X5.433 Y138.964 F300
X5.251 Y138.919
X5.040 Y138.791
X4.966 Y138.708
X4.862 Y138.521
X4.831 Y138.362
X4.820 Y138.168
X4.820 Y133.502
X5.230 Y133.878
X5.770 Y134.302
X6.025 Y134.480
X6.583 Y134.827
X6.821 Y134.960
X7.640 Y135.357
X8.467 Y135.665
X9.483 Y135.917
X10.193 Y136.033
X10.579 Y136.067
X11.260 Y136.090
X96.180 Y136.090
X96.180 Y138.870
ID=1 WHEN $AC_TIMER[1]>=0 DO M51
X138.3 Y10.6333 F1000
ID=1 WHEN $AC_TIMER[1]>=0 DO M50
X138.089 Y10.437 F300
X137.534 Y10.001
X137.196 Y9.776
X136.448 Y9.344
X135.878 Y9.076
X135.429 Y8.901
X135.134 Y8.804
X134.452 Y8.620
X134.148 Y8.555
X133.397 Y8.437
X133.099 Y8.406
X132.330 Y8.370
X24.820 Y8.370
X24.820 Y5.490
X137.978 Y5.490
X138.272 Y5.527
X138.288 Y5.607
X138.300 Y5.820
X138.300 Y10.533
ID=1 WHEN $AC_TIMER[1]>=0 DO M51

; Inicio do trecho do raster
; Final do trecho do raster


M63		;POWDER MIXER OFF
M67		;POWDER FEED OFF
M65		;CARRIER OFF
G4F5
M79     ;GAS 1 OFF

M0

M78     ; GAS 1 ON
M64		;CARRIER ON
H2 = R3	;SET POWDER FLOW
M62		;POWDER MIXER ON
M66		;POWDER FEED ON
G4F10

; Layer 38
G1 Z54.720 F1000
X99.06 Y141.85 F1000
ID=1 WHEN $AC_TIMER[1]>=0 DO M50
X5.528 Y141.850 F300
X5.131 Y141.835
X4.761 Y141.771
X4.395 Y141.677
X4.064 Y141.546
X3.716 Y141.368
X3.401 Y141.168
X3.113 Y140.937
X2.853 Y140.677
X2.622 Y140.389
X2.418 Y140.069
X2.252 Y139.751
X2.109 Y139.379
X2.022 Y139.040
X1.964 Y138.667
X1.940 Y138.249
X1.940 Y44.730
X4.820 Y44.730
X4.822 Y126.845
X4.867 Y127.523
X4.981 Y128.191
X5.158 Y128.817
X5.338 Y129.307
X5.413 Y129.476
X5.715 Y130.043
X6.088 Y130.613
X6.522 Y131.138
X7.007 Y131.612
X7.547 Y132.035
X8.105 Y132.382
X8.700 Y132.679
X9.180 Y132.869
X9.354 Y132.925
X9.974 Y133.079
X10.494 Y133.169
X10.685 Y133.189
X11.260 Y133.210
X99.060 Y133.210
X99.060 Y141.750
ID=1 WHEN $AC_TIMER[1]>=0 DO M51
X140.51 Y121.85 F1000
ID=1 WHEN $AC_TIMER[1]>=0 DO M50
X137.630 Y121.850 F300
X137.628 Y17.804
X137.598 Y17.234
X137.578 Y17.057
X137.446 Y16.358
X137.296 Y15.828
X137.228 Y15.640
X137.008 Y15.140
X136.674 Y14.551
X136.562 Y14.383
X136.232 Y13.953
X136.095 Y13.798
X135.587 Y13.318
X135.021 Y12.895
X134.686 Y12.688
X134.129 Y12.413
X133.519 Y12.193
X133.011 Y12.070
X132.263 Y11.952
X131.660 Y11.920
X21.940 Y11.920
X21.940 Y3.280
X137.391 Y3.280
X137.826 Y3.303
X138.226 Y3.373
X138.595 Y3.485
X138.952 Y3.639
X139.307 Y3.847
X139.508 Y4.014
X139.773 Y4.280
X139.999 Y4.576
X140.157 Y4.838
X140.354 Y5.324
X140.419 Y5.561
X140.486 Y6.000
X140.510 Y6.421
X140.510 Y121.750
ID=1 WHEN $AC_TIMER[1]>=0 DO M51
X96.18 Y138.97 F1000
ID=1 WHEN $AC_TIMER[1]>=0 DO M50
X5.433 Y138.964 F300
X5.251 Y138.919
X5.040 Y138.791
X4.966 Y138.708
X4.857 Y138.502
X4.831 Y138.362
X4.820 Y138.168
X4.820 Y133.502
X5.230 Y133.878
X5.770 Y134.302
X6.025 Y134.480
X6.583 Y134.827
X6.821 Y134.960
X7.640 Y135.357
X8.467 Y135.665
X9.483 Y135.917
X10.193 Y136.033
X10.579 Y136.067
X11.260 Y136.090
X96.180 Y136.090
X96.180 Y138.870
ID=1 WHEN $AC_TIMER[1]>=0 DO M51
X137.63 Y11.2861 F1000
ID=1 WHEN $AC_TIMER[1]>=0 DO M50
X137.310 Y11.010 F300
X136.744 Y10.587
X136.202 Y10.239
X135.962 Y10.106
X135.404 Y9.831
X135.106 Y9.704
X134.497 Y9.484
X134.195 Y9.393
X133.459 Y9.225
X132.711 Y9.108
X132.417 Y9.077
X131.660 Y9.040
X24.820 Y9.040
X24.820 Y6.160
X137.314 Y6.160
X137.598 Y6.192
X137.618 Y6.299
X137.630 Y6.502
X137.630 Y11.186
ID=1 WHEN $AC_TIMER[1]>=0 DO M51

; Inicio do trecho do raster
; Final do trecho do raster


M63		;POWDER MIXER OFF
M67		;POWDER FEED OFF
M65		;CARRIER OFF
G4F5
M79     ;GAS 1 OFF

M0

M78     ; GAS 1 ON
M64		;CARRIER ON
H2 = R3	;SET POWDER FLOW
M62		;POWDER MIXER ON
M66		;POWDER FEED ON
G4F10

; Layer 39
G1 Z56.160 F1000
X99.06 Y141.85 F1000
ID=1 WHEN $AC_TIMER[1]>=0 DO M50
X5.528 Y141.850 F300
X5.131 Y141.835
X4.761 Y141.771
X4.395 Y141.677
X4.064 Y141.546
X3.716 Y141.368
X3.401 Y141.168
X3.113 Y140.937
X2.853 Y140.677
X2.622 Y140.389
X2.418 Y140.069
X2.244 Y139.735
X2.114 Y139.400
X2.022 Y139.040
X1.964 Y138.667
X1.940 Y138.249
X1.940 Y44.730
X4.820 Y44.730
X4.821 Y126.820
X4.839 Y127.225
X4.911 Y127.827
X4.981 Y128.191
X5.158 Y128.817
X5.338 Y129.307
X5.413 Y129.476
X5.715 Y130.043
X6.088 Y130.613
X6.522 Y131.138
X7.007 Y131.612
X7.547 Y132.035
X8.105 Y132.382
X8.700 Y132.679
X9.180 Y132.869
X9.354 Y132.925
X9.974 Y133.079
X10.494 Y133.169
X10.685 Y133.189
X11.260 Y133.210
X99.060 Y133.210
X99.060 Y141.750
ID=1 WHEN $AC_TIMER[1]>=0 DO M51
X139.84 Y121.85 F1000
ID=1 WHEN $AC_TIMER[1]>=0 DO M50
X136.960 Y121.850 F300
X136.958 Y18.473
X136.908 Y17.741
X136.808 Y17.171
X136.567 Y16.355
X136.392 Y15.934
X136.103 Y15.389
X135.774 Y14.900
X135.428 Y14.482
X134.930 Y13.996
X134.499 Y13.663
X134.006 Y13.358
X133.449 Y13.083
X132.863 Y12.869
X132.297 Y12.726
X131.576 Y12.623
X130.990 Y12.590
X21.940 Y12.590
X21.940 Y3.950
X136.633 Y3.950
X137.143 Y3.975
X137.575 Y4.047
X137.934 Y4.153
X138.120 Y4.227
X138.406 Y4.381
X138.666 Y4.549
X138.848 Y4.695
X139.115 Y4.962
X139.255 Y5.137
X139.414 Y5.388
X139.561 Y5.683
X139.679 Y5.987
X139.748 Y6.246
X139.816 Y6.691
X139.840 Y7.092
X139.840 Y121.750
ID=1 WHEN $AC_TIMER[1]>=0 DO M51
X96.18 Y138.97 F1000
ID=1 WHEN $AC_TIMER[1]>=0 DO M50
X5.433 Y138.964 F300
X5.251 Y138.919
X5.040 Y138.791
X4.966 Y138.708
X4.862 Y138.521
X4.831 Y138.362
X4.820 Y138.168
X4.820 Y133.502
X5.230 Y133.878
X5.770 Y134.302
X6.025 Y134.480
X6.583 Y134.827
X6.821 Y134.960
X7.640 Y135.357
X8.467 Y135.665
X9.483 Y135.917
X10.193 Y136.033
X10.579 Y136.067
X11.260 Y136.090
X96.180 Y136.090
X96.180 Y138.870
ID=1 WHEN $AC_TIMER[1]>=0 DO M51
X136.96 Y11.9529 F1000
ID=1 WHEN $AC_TIMER[1]>=0 DO M50
X136.692 Y11.717 F300
X136.261 Y11.384
X136.012 Y11.212
X135.520 Y10.908
X135.282 Y10.776
X134.724 Y10.501
X134.436 Y10.377
X133.850 Y10.164
X133.567 Y10.077
X133.001 Y9.934
X132.708 Y9.876
X131.987 Y9.772
