; Generated by RP3 on 2021-02-9
; Job 0 - LMD

; General Config.--------------------
$ac_timer[1]=0
G91   ; relative positioning
G641  ;
G603  ;

R0 = 39     ; Laser Power 
R3 = 3      ; Powder feed rate

M55   ; home mirror
G4F4  ; necessary delay for positioning of the mirror
M0    ; wait for user-input

; Process Start-up--------------------
M56   ; set canal 1 as laser-source
G4F4  ; necessary delay for positioning of the mirror


; Laser On and Path------------------
H1 = R0
G54   ; set process starting point (machine zero)
G90   ; use absolute coordinates


; Layer 1
G1 Z1.440 F1000

N4590 M0

N4600 M78     ; GAS 1 ON
N4610 M64		;CARRIER ON
N4620 H2 = R3	;SET POWDER FLOW
N4630 M62		;POWDER MIXER ON
N4640 M66		;POWDER FEED ON
N4650 G4F3

X54.0422 Y22.2497 F1000
ID=1 WHEN $AC_TIMER[1]>=0 DO M88
X53.984 Y22.609 F300
X53.841 Y23.008
X53.626 Y23.384
X53.285 Y23.782
X49.187 Y27.880
X48.847 Y28.177
X48.528 Y28.382
X48.198 Y28.523
X47.876 Y28.608
X47.501 Y28.640
X27.574 Y28.640
X26.726 Y28.551
X26.443 Y28.478
X26.135 Y28.353
X25.850 Y28.207
X25.608 Y28.036
X25.373 Y27.827
X25.179 Y27.609
X25.001 Y27.342
X24.839 Y27.045
X24.722 Y26.757
X24.649 Y26.474
X24.560 Y25.626
X24.560 Y4.953
X24.575 Y4.831
X24.642 Y4.713
X24.729 Y4.614
X26.760 Y2.588
X26.769 Y15.077
X26.879 Y16.127
X26.927 Y16.384
X27.116 Y17.042
X27.296 Y17.512
X27.385 Y17.706
X27.713 Y18.289
X28.003 Y18.709
X28.126 Y18.865
X28.456 Y19.235
X28.603 Y19.380
X29.096 Y19.796
X29.506 Y20.086
X29.689 Y20.198
X30.281 Y20.498
X30.761 Y20.688
X30.940 Y20.747
X31.430 Y20.876
X31.673 Y20.921
X32.890 Y21.040
X52.845 Y21.040
X53.280 Y21.086
X53.493 Y21.163
X53.583 Y21.213
X53.766 Y21.364
X53.910 Y21.568
X53.955 Y21.657
X54.021 Y21.896
X54.036 Y22.150
ID=1 WHEN $AC_TIMER[1]>=0 DO M89
X49.0743 Y23.92 F1000
ID=1 WHEN $AC_TIMER[1]>=0 DO M88
X47.234 Y25.760 F300
X27.724 Y25.760
X27.467 Y25.733
X27.440 Y25.476
X27.440 Y22.152
X28.004 Y22.544
X28.388 Y22.768
X28.981 Y23.067
X29.860 Y23.423
X30.201 Y23.530
X30.909 Y23.709
X31.394 Y23.788
X32.610 Y23.906
X32.890 Y23.920
X48.974 Y23.920
ID=1 WHEN $AC_TIMER[1]>=0 DO M89

; Inicio do trecho do raster
; Final do trecho do raster

; Layer 2
G1 Z2.880 F1000

N4550 M63		;POWDER MIXER OFF
N4560 M67		;POWDER FEED OFF
N4570 M65		;CARRIER OFF
N4580 M79     ;GAS 1 OFF

N4590 M0

N4600 M78     ; GAS 1 ON
N4610 M64		;CARRIER ON
N4620 H2 = R3	;SET POWDER FLOW
N4630 M62		;POWDER MIXER ON
N4640 M66		;POWDER FEED ON
N4650 G4F3

X53.3672 Y22.9503 F1000
ID=1 WHEN $AC_TIMER[1]>=0 DO M88
X53.314 Y23.279 F300
X53.171 Y23.678
X52.953 Y24.060
X52.610 Y24.467
X48.517 Y28.560
X48.185 Y28.850
X47.868 Y29.047
X47.532 Y29.191
X47.184 Y29.281
X46.816 Y29.320
X26.904 Y29.320
X26.077 Y29.233
X25.755 Y29.141
X25.475 Y29.035
X25.195 Y28.879
X24.921 Y28.690
X24.693 Y28.487
X24.490 Y28.258
X24.332 Y28.031
X24.180 Y27.739
X24.051 Y27.406
X23.978 Y27.142
X23.890 Y26.297
X23.896 Y5.634
X23.908 Y5.502
X23.977 Y5.365
X26.090 Y3.248
X26.099 Y15.745
X26.209 Y16.805
X26.255 Y17.056
X26.395 Y17.576
X26.634 Y18.204
X26.948 Y18.813
X27.058 Y18.990
X27.466 Y19.545
X27.796 Y19.915
X27.943 Y20.060
X28.436 Y20.476
X28.846 Y20.766
X29.029 Y20.878
X29.621 Y21.178
X30.272 Y21.424
X30.752 Y21.554
X31.003 Y21.601
X32.220 Y21.720
X52.174 Y21.720
X52.612 Y21.767
X52.827 Y21.837
X53.003 Y21.952
X53.174 Y22.136
X53.288 Y22.330
X53.348 Y22.545
X53.362 Y22.850
ID=1 WHEN $AC_TIMER[1]>=0 DO M89
X48.4043 Y24.6 F1000
ID=1 WHEN $AC_TIMER[1]>=0 DO M88
X46.564 Y26.440 F300
X27.054 Y26.440
X26.797 Y26.413
X26.770 Y26.149
X26.773 Y22.828
X27.344 Y23.224
X27.728 Y23.448
X28.321 Y23.747
X28.600 Y23.871
X29.251 Y24.117
X29.519 Y24.204
X30.224 Y24.386
X30.724 Y24.468
X31.940 Y24.586
X32.220 Y24.600
X48.304 Y24.600
ID=1 WHEN $AC_TIMER[1]>=0 DO M89

; Inicio do trecho do raster
; Final do trecho do raster

; Layer 3
G1 Z4.320 F1000

N4550 M63		;POWDER MIXER OFF
N4560 M67		;POWDER FEED OFF
N4570 M65		;CARRIER OFF
N4580 M79     ;GAS 1 OFF

N4590 M0

N4600 M78     ; GAS 1 ON
N4610 M64		;CARRIER ON
N4620 H2 = R3	;SET POWDER FLOW
N4630 M62		;POWDER MIXER ON
N4640 M66		;POWDER FEED ON
N4650 G4F3

X52.6947 Y23.5892 F1000
ID=1 WHEN $AC_TIMER[1]>=0 DO M88
X52.640 Y23.960 F300
X52.504 Y24.339
X52.275 Y24.730
X51.934 Y25.143
X47.853 Y29.224
X47.507 Y29.520
X47.181 Y29.727
X46.850 Y29.874
X46.528 Y29.958
X46.160 Y29.990
X26.234 Y29.990
X25.400 Y29.903
X25.070 Y29.811
X24.809 Y29.708
X24.512 Y29.547
X24.243 Y29.359
X24.030 Y29.163
X23.827 Y28.929
X23.634 Y28.649
X23.496 Y28.398
X23.376 Y28.082
X23.309 Y27.824
X23.220 Y26.967
X23.225 Y6.293
X23.240 Y6.155
X23.297 Y6.053
X23.390 Y5.942
X25.420 Y3.918
X25.429 Y16.415
X25.539 Y17.475
X25.590 Y17.746
X25.788 Y18.417
X25.958 Y18.857
X26.038 Y19.033
X26.278 Y19.483
X26.392 Y19.666
X26.806 Y20.225
X27.267 Y20.726
X27.627 Y21.046
X27.795 Y21.177
X28.378 Y21.557
X28.798 Y21.777
X28.972 Y21.856
X29.605 Y22.090
X30.065 Y22.220
X30.333 Y22.271
X31.550 Y22.390
X51.504 Y22.390
X51.942 Y22.437
X52.141 Y22.503
X52.355 Y22.640
X52.491 Y22.788
X52.600 Y22.980
X52.679 Y23.236
X52.690 Y23.489
ID=1 WHEN $AC_TIMER[1]>=0 DO M89
X47.7343 Y25.27 F1000
ID=1 WHEN $AC_TIMER[1]>=0 DO M88
X45.894 Y27.110 F300
X26.384 Y27.110
X26.127 Y27.083
X26.100 Y26.819
X26.101 Y23.499
X26.801 Y23.968
X27.041 Y24.109
X27.790 Y24.482
X28.606 Y24.791
X29.282 Y24.991
X29.790 Y25.100
X30.054 Y25.138
X31.270 Y25.256
X31.550 Y25.270
X47.634 Y25.270
ID=1 WHEN $AC_TIMER[1]>=0 DO M89

; Inicio do trecho do raster
; Final do trecho do raster

; Layer 4
G1 Z5.760 F1000

N4550 M63		;POWDER MIXER OFF
N4560 M67		;POWDER FEED OFF
N4570 M65		;CARRIER OFF
N4580 M79     ;GAS 1 OFF

N4590 M0

N4600 M78     ; GAS 1 ON
N4610 M64		;CARRIER ON
N4620 H2 = R3	;SET POWDER FLOW
N4630 M62		;POWDER MIXER ON
N4640 M66		;POWDER FEED ON
N4650 G4F3

X52.0247 Y24.2592 F1000
ID=1 WHEN $AC_TIMER[1]>=0 DO M88
X51.970 Y24.630 F300
X51.832 Y25.014
X51.605 Y25.408
X51.269 Y25.808
X47.183 Y29.894
X46.837 Y30.190
X46.511 Y30.397
X46.180 Y30.544
X45.858 Y30.628
X45.490 Y30.660
X25.564 Y30.660
X24.726 Y30.572
X24.386 Y30.480
X24.136 Y30.381
X23.838 Y30.215
X23.588 Y30.047
X23.337 Y29.820
X23.144 Y29.596
X22.990 Y29.377
X22.824 Y29.059
X22.721 Y28.804
X22.638 Y28.491
X22.550 Y27.646
X22.550 Y6.965
X22.574 Y6.824
X22.608 Y6.751
X22.740 Y6.593
X24.750 Y4.592
X24.759 Y17.097
X24.869 Y18.147
X24.916 Y18.401
X25.066 Y18.951
X25.297 Y19.550
X25.601 Y20.150
X25.722 Y20.346
X26.130 Y20.899
X26.430 Y21.239
X26.576 Y21.384
X26.976 Y21.734
X27.135 Y21.857
X27.703 Y22.230
X28.113 Y22.450
X28.311 Y22.539
X28.968 Y22.776
X29.418 Y22.896
X29.663 Y22.941
X30.880 Y23.060
X50.834 Y23.060
X51.256 Y23.105
X51.488 Y23.189
X51.662 Y23.295
X51.825 Y23.468
X51.945 Y23.693
X52.008 Y23.896
X52.020 Y24.159
ID=1 WHEN $AC_TIMER[1]>=0 DO M89
X47.0643 Y25.94 F1000
ID=1 WHEN $AC_TIMER[1]>=0 DO M88
X45.224 Y27.780 F300
X25.714 Y27.780
X25.457 Y27.753
X25.430 Y27.496
X25.430 Y24.172
X26.122 Y24.637
X26.927 Y25.074
X27.335 Y25.249
X28.226 Y25.559
X28.895 Y25.728
X29.384 Y25.808
X30.600 Y25.926
X30.880 Y25.940
X46.964 Y25.940
ID=1 WHEN $AC_TIMER[1]>=0 DO M89

; Inicio do trecho do raster
; Final do trecho do raster

; Layer 5
G1 Z7.200 F1000

N4550 M63		;POWDER MIXER OFF
N4560 M67		;POWDER FEED OFF
N4570 M65		;CARRIER OFF
N4580 M79     ;GAS 1 OFF

N4590 M0

N4600 M78     ; GAS 1 ON
N4610 M64		;CARRIER ON
N4620 H2 = R3	;SET POWDER FLOW
N4630 M62		;POWDER MIXER ON
N4640 M66		;POWDER FEED ON
N4650 G4F3

X51.3548 Y24.9387 F1000
ID=1 WHEN $AC_TIMER[1]>=0 DO M88
X51.300 Y25.310 F300
X51.164 Y25.689
X50.938 Y26.074
X50.599 Y26.478
X46.513 Y30.564
X46.167 Y30.860
X45.841 Y31.067
X45.510 Y31.214
X45.189 Y31.297
X44.811 Y31.330
X24.894 Y31.330
X24.062 Y31.243
X23.698 Y31.141
X23.456 Y31.046
X23.160 Y30.885
X22.926 Y30.724
X22.657 Y30.480
X22.474 Y30.267
X22.290 Y29.995
X22.163 Y29.746
X22.027 Y29.393
X21.969 Y29.167
X21.880 Y28.316
X21.880 Y7.633
X21.901 Y7.496
X21.939 Y7.419
X22.070 Y7.263
X24.080 Y5.259
X24.089 Y17.767
X24.199 Y18.817
X24.240 Y19.047
X24.411 Y19.681
X24.697 Y20.371
X24.947 Y20.841
X25.052 Y21.012
X25.362 Y21.452
X25.484 Y21.604
X25.895 Y22.044
X26.265 Y22.374
X26.430 Y22.503
X26.900 Y22.823
X27.071 Y22.924
X27.616 Y23.196
X28.189 Y23.414
X28.739 Y23.564
X28.993 Y23.611
X30.210 Y23.730
X50.164 Y23.730
X50.592 Y23.776
X50.792 Y23.846
X50.977 Y23.957
X51.146 Y24.126
X51.261 Y24.335
X51.339 Y24.589
X51.350 Y24.839
ID=1 WHEN $AC_TIMER[1]>=0 DO M89
X46.3943 Y26.61 F1000
ID=1 WHEN $AC_TIMER[1]>=0 DO M88
X44.554 Y28.450 F300
X25.044 Y28.450
X24.787 Y28.423
X24.760 Y28.166
X24.760 Y24.846
X25.430 Y25.299
X25.787 Y25.502
X26.332 Y25.774
X26.592 Y25.887
X27.165 Y26.105
X27.431 Y26.192
X28.208 Y26.394
X28.714 Y26.478
X29.930 Y26.596
X30.210 Y26.610
X46.294 Y26.610
ID=1 WHEN $AC_TIMER[1]>=0 DO M89

; Inicio do trecho do raster
; Final do trecho do raster

; Layer 6
G1 Z8.640 F1000

N4550 M63		;POWDER MIXER OFF
N4560 M67		;POWDER FEED OFF
N4570 M65		;CARRIER OFF
N4580 M79     ;GAS 1 OFF

N4590 M0

N4600 M78     ; GAS 1 ON
N4610 M64		;CARRIER ON
N4620 H2 = R3	;SET POWDER FLOW
N4630 M62		;POWDER MIXER ON
N4640 M66		;POWDER FEED ON
N4650 G4F3

X50.6823 Y25.609 F1000
ID=1 WHEN $AC_TIMER[1]>=0 DO M88
X50.624 Y25.969 F300
X50.481 Y26.368
X50.266 Y26.744
X49.925 Y27.142
X45.827 Y31.240
X45.487 Y31.537
X45.163 Y31.744
X44.846 Y31.883
X44.519 Y31.967
X44.141 Y32.000
X24.223 Y32.000
X23.381 Y31.913
X23.025 Y31.813
X22.785 Y31.717
X22.483 Y31.556
X22.264 Y31.401
X21.978 Y31.141
X21.799 Y30.934
X21.605 Y30.639
X21.486 Y30.417
X21.354 Y30.050
X21.287 Y29.815
X21.200 Y28.986
X21.200 Y8.357
X21.222 Y8.182
X21.270 Y8.086
X21.366 Y7.977
X23.400 Y5.945
X23.409 Y18.437
X23.519 Y19.487
X23.575 Y19.770
X23.787 Y20.474
X23.937 Y20.864
X24.030 Y21.065
X24.386 Y21.687
X24.706 Y22.137
X25.103 Y22.592
X25.234 Y22.722
X25.777 Y23.187
X26.117 Y23.427
X26.302 Y23.540
X26.933 Y23.860
X27.323 Y24.020
X27.509 Y24.084
X28.059 Y24.234
X28.315 Y24.281
X29.540 Y24.400
X49.485 Y24.400
X49.975 Y24.458
X50.120 Y24.518
X50.325 Y24.644
X50.481 Y24.802
X50.592 Y25.004
X50.659 Y25.220
X50.676 Y25.509
ID=1 WHEN $AC_TIMER[1]>=0 DO M89
X45.7143 Y27.28 F1000
ID=1 WHEN $AC_TIMER[1]>=0 DO M88
X43.874 Y29.120 F300
X24.372 Y29.120
X24.107 Y29.093
X24.080 Y28.836
X24.080 Y25.501
X24.619 Y25.887
X24.997 Y26.107
X25.840 Y26.525
X26.582 Y26.810
X27.301 Y27.012
X27.786 Y27.112
X28.037 Y27.148
X29.263 Y27.267
X29.540 Y27.280
X45.614 Y27.280
ID=1 WHEN $AC_TIMER[1]>=0 DO M89

; Inicio do trecho do raster
; Final do trecho do raster

; Layer 7
G1 Z10.080 F1000

N4550 M63		;POWDER MIXER OFF
N4560 M67		;POWDER FEED OFF
N4570 M65		;CARRIER OFF
N4580 M79     ;GAS 1 OFF

N4590 M0

N4600 M78     ; GAS 1 ON
N4610 M64		;CARRIER ON
N4620 H2 = R3	;SET POWDER FLOW
N4630 M62		;POWDER MIXER ON
N4640 M66		;POWDER FEED ON
N4650 G4F3

X50.0122 Y26.2797 F1000
ID=1 WHEN $AC_TIMER[1]>=0 DO M88
X49.954 Y26.639 F300
X49.811 Y27.038
X49.596 Y27.414
X49.255 Y27.812
X45.157 Y31.910
X44.817 Y32.207
X44.498 Y32.412
X44.168 Y32.553
X43.846 Y32.638
X43.471 Y32.670
X23.553 Y32.670
X22.701 Y32.582
X22.366 Y32.492
X22.124 Y32.391
X21.816 Y32.228
X21.530 Y32.023
X21.310 Y31.815
X21.117 Y31.589
X20.980 Y31.393
X20.821 Y31.106
X20.676 Y30.705
X20.618 Y30.493
X20.530 Y29.656
X20.530 Y8.994
X20.545 Y8.867
X20.597 Y8.765
X20.707 Y8.636
X22.730 Y6.619
X22.739 Y19.107
X22.849 Y20.157
X22.901 Y20.426
X23.122 Y21.177
X23.272 Y21.557
X23.360 Y21.744
X23.620 Y22.214
X23.730 Y22.386
X24.172 Y22.973
X24.512 Y23.343
X24.649 Y23.475
X25.125 Y23.873
X25.610 Y24.198
X26.110 Y24.468
X26.663 Y24.698
X27.396 Y24.906
X27.645 Y24.951
X28.870 Y25.070
X48.815 Y25.070
X49.239 Y25.115
X49.467 Y25.195
X49.648 Y25.310
X49.803 Y25.474
X49.924 Y25.680
X49.989 Y25.900
X50.006 Y26.180
ID=1 WHEN $AC_TIMER[1]>=0 DO M89
X45.0443 Y27.95 F1000
ID=1 WHEN $AC_TIMER[1]>=0 DO M88
X43.204 Y29.790 F300
X23.702 Y29.790
X23.437 Y29.763
X23.410 Y29.506
X23.410 Y26.181
X24.005 Y26.589
X24.241 Y26.732
X24.741 Y27.002
X25.002 Y27.126
X25.555 Y27.357
X25.879 Y27.470
X26.613 Y27.677
X27.122 Y27.784
X27.367 Y27.818
X28.593 Y27.937
X28.870 Y27.950
X44.944 Y27.950
ID=1 WHEN $AC_TIMER[1]>=0 DO M89

; Inicio do trecho do raster
; Final do trecho do raster

; Layer 8
G1 Z11.520 F1000

N4550 M63		;POWDER MIXER OFF
N4560 M67		;POWDER FEED OFF
N4570 M65		;CARRIER OFF
N4580 M79     ;GAS 1 OFF

N4590 M0

N4600 M78     ; GAS 1 ON
N4610 M64		;CARRIER ON
N4620 H2 = R3	;SET POWDER FLOW
N4630 M62		;POWDER MIXER ON
N4640 M66		;POWDER FEED ON
N4650 G4F3

X49.3422 Y26.9497 F1000
ID=1 WHEN $AC_TIMER[1]>=0 DO M88
X49.284 Y27.309 F300
X49.141 Y27.708
X48.923 Y28.090
X48.580 Y28.497
X44.487 Y32.590
X44.155 Y32.880
X43.838 Y33.077
X43.498 Y33.223
X43.176 Y33.308
X42.801 Y33.340
X22.866 Y33.340
X22.045 Y33.262
X21.666 Y33.150
X21.448 Y33.059
X21.127 Y32.892
X20.909 Y32.737
X20.673 Y32.527
X20.479 Y32.309
X20.246 Y31.960
X20.153 Y31.783
X19.997 Y31.366
X19.949 Y31.182
X19.860 Y30.327
X19.860 Y9.661
X19.874 Y9.539
X19.927 Y9.435
X20.037 Y9.306
X22.060 Y7.286
X22.069 Y19.775
X22.179 Y20.835
X22.223 Y21.077
X22.371 Y21.609
X22.591 Y22.199
X22.690 Y22.414
X23.030 Y23.013
X23.290 Y23.393
X23.416 Y23.555
X23.746 Y23.925
X23.894 Y24.071
X24.454 Y24.545
X24.764 Y24.765
X24.953 Y24.880
X25.630 Y25.221
X26.113 Y25.403
X26.683 Y25.573
X26.988 Y25.633
X28.190 Y25.740
X48.145 Y25.740
X48.555 Y25.783
X48.795 Y25.866
X48.957 Y25.967
X49.120 Y26.132
X49.255 Y26.358
X49.320 Y26.576
X49.336 Y26.850
ID=1 WHEN $AC_TIMER[1]>=0 DO M89
X44.3843 Y28.62 F1000
ID=1 WHEN $AC_TIMER[1]>=0 DO M88
X42.544 Y30.460 F300
X23.003 Y30.460
X22.767 Y30.438
X22.740 Y30.178
X22.740 Y26.854
X23.263 Y27.223
X23.657 Y27.452
X24.334 Y27.793
X24.614 Y27.916
X25.290 Y28.163
X25.860 Y28.333
X26.438 Y28.460
X26.732 Y28.501
X27.934 Y28.609
X28.190 Y28.620
X44.284 Y28.620
ID=1 WHEN $AC_TIMER[1]>=0 DO M89

; Inicio do trecho do raster
; Final do trecho do raster

; Layer 9
G1 Z12.960 F1000

N4550 M63		;POWDER MIXER OFF
N4560 M67		;POWDER FEED OFF
N4570 M65		;CARRIER OFF
N4580 M79     ;GAS 1 OFF

N4590 M0

N4600 M78     ; GAS 1 ON
N4610 M64		;CARRIER ON
N4620 H2 = R3	;SET POWDER FLOW
N4630 M62		;POWDER MIXER ON
N4640 M66		;POWDER FEED ON
N4650 G4F3

X48.6722 Y27.6197 F1000
ID=1 WHEN $AC_TIMER[1]>=0 DO M88
X48.614 Y27.979 F300
X48.471 Y28.378
X48.253 Y28.760
X47.910 Y29.167
X43.823 Y33.254
X43.451 Y33.571
X43.168 Y33.747
X42.817 Y33.897
X42.529 Y33.977
X42.116 Y34.020
X22.211 Y34.020
X21.340 Y33.926
X21.185 Y33.884
X20.772 Y33.732
X20.466 Y33.560
X20.228 Y33.398
X20.013 Y33.205
X19.754 Y32.906
X19.644 Y32.749
X19.455 Y32.398
X19.379 Y32.203
X19.277 Y31.839
X19.190 Y30.997
X19.190 Y10.359
X19.217 Y10.181
X19.261 Y10.094
X19.367 Y9.966
X21.390 Y7.947
X21.399 Y20.445
X21.509 Y21.505
X21.563 Y21.786
X21.794 Y22.554
X22.013 Y23.072
X22.273 Y23.552
X22.631 Y24.080
X23.076 Y24.595
X23.224 Y24.741
X23.664 Y25.121
X23.836 Y25.250
X24.404 Y25.615
X24.734 Y25.795
X24.949 Y25.892
X25.683 Y26.155
X26.053 Y26.255
X26.303 Y26.301
X27.520 Y26.420
X47.474 Y26.420
X47.905 Y26.466
X48.098 Y26.523
X48.294 Y26.647
X48.513 Y26.891
X48.585 Y27.031
X48.650 Y27.253
X48.666 Y27.520
ID=1 WHEN $AC_TIMER[1]>=0 DO M89
X43.7043 Y29.3 F1000
ID=1 WHEN $AC_TIMER[1]>=0 DO M88
X41.864 Y31.140 F300
X22.366 Y31.140
X22.097 Y31.111
X22.070 Y30.848
X22.070 Y27.522
X22.280 Y27.674
X23.025 Y28.143
X23.545 Y28.418
X23.979 Y28.604
X24.931 Y28.935
X25.525 Y29.086
X26.024 Y29.168
X27.240 Y29.286
X27.520 Y29.300
X43.604 Y29.300
ID=1 WHEN $AC_TIMER[1]>=0 DO M89

; Inicio do trecho do raster
; Final do trecho do raster

; Layer 10
G1 Z14.400 F1000

N4550 M63		;POWDER MIXER OFF
N4560 M67		;POWDER FEED OFF
N4570 M65		;CARRIER OFF
N4580 M79     ;GAS 1 OFF

N4590 M0

N4600 M78     ; GAS 1 ON
N4610 M64		;CARRIER ON
N4620 H2 = R3	;SET POWDER FLOW
N4630 M62		;POWDER MIXER ON
N4640 M66		;POWDER FEED ON
N4650 G4F3

X47.9947 Y28.2892 F1000
ID=1 WHEN $AC_TIMER[1]>=0 DO M88
X47.940 Y28.660 F300
X47.804 Y29.039
X47.575 Y29.430
X47.234 Y29.843
X43.153 Y33.924
X42.807 Y34.220
X42.481 Y34.427
X42.150 Y34.574
X41.828 Y34.658
X41.460 Y34.690
X21.534 Y34.690
X20.714 Y34.604
X20.282 Y34.476
X20.112 Y34.409
X19.776 Y34.224
X19.555 Y34.074
X19.349 Y33.891
X19.081 Y33.573
X18.976 Y33.428
X18.797 Y33.083
X18.649 Y32.683
X18.609 Y32.526
X18.520 Y31.676
X18.520 Y11.028
X18.543 Y10.861
X18.587 Y10.777
X18.706 Y10.626
X20.720 Y8.618
X20.729 Y21.127
X20.839 Y22.177
X20.880 Y22.408
X21.020 Y22.916
X21.250 Y23.536
X21.337 Y23.730
X21.597 Y24.220
X21.713 Y24.407
X22.062 Y24.879
X22.392 Y25.259
X22.535 Y25.404
X22.905 Y25.734
X23.074 Y25.866
X23.572 Y26.194
X24.102 Y26.484
X24.299 Y26.574
X24.767 Y26.747
X25.357 Y26.917
X25.633 Y26.971
X26.850 Y27.090
X46.804 Y27.090
X47.216 Y27.134
X47.495 Y27.231
X47.639 Y27.332
X47.786 Y27.483
X47.898 Y27.673
X47.978 Y27.918
X47.990 Y28.189
ID=1 WHEN $AC_TIMER[1]>=0 DO M89
X43.0343 Y29.97 F1000
ID=1 WHEN $AC_TIMER[1]>=0 DO M88
X41.194 Y31.810 F300
X21.684 Y31.810
X21.427 Y31.783
X21.400 Y31.526
X21.400 Y28.204
X22.190 Y28.720
X22.894 Y29.098
X23.301 Y29.276
X23.970 Y29.515
X24.806 Y29.744
X25.354 Y29.838
X26.570 Y29.956
X26.850 Y29.970
X42.934 Y29.970
ID=1 WHEN $AC_TIMER[1]>=0 DO M89

; Inicio do trecho do raster
; Final do trecho do raster

; Layer 11
G1 Z15.840 F1000

N4550 M63		;POWDER MIXER OFF
N4560 M67		;POWDER FEED OFF
N4570 M65		;CARRIER OFF
N4580 M79     ;GAS 1 OFF

N4590 M0

N4600 M78     ; GAS 1 ON
N4610 M64		;CARRIER ON
N4620 H2 = R3	;SET POWDER FLOW
N4630 M62		;POWDER MIXER ON
N4640 M66		;POWDER FEED ON
N4650 G4F3

X47.3247 Y28.9592 F1000
ID=1 WHEN $AC_TIMER[1]>=0 DO M88
X47.270 Y29.330 F300
X47.132 Y29.714
X46.905 Y30.108
X46.569 Y30.508
X42.483 Y34.594
X42.137 Y34.890
X41.811 Y35.097
X41.480 Y35.244
X41.158 Y35.328
X40.790 Y35.360
X20.864 Y35.360
X20.040 Y35.274
X19.599 Y35.145
X19.432 Y35.079
X19.105 Y34.899
X18.892 Y34.751
X18.663 Y34.547
X18.456 Y34.314
X18.304 Y34.099
X18.110 Y33.738
X18.051 Y33.580
X17.937 Y33.176
X17.850 Y32.346
X17.850 Y11.695
X17.872 Y11.527
X17.907 Y11.451
X18.025 Y11.308
X20.050 Y9.288
X20.059 Y21.797
X20.169 Y22.847
X20.224 Y23.129
X20.468 Y23.932
X20.667 Y24.400
X20.927 Y24.890
X21.031 Y25.060
X21.406 Y25.575
X21.865 Y26.074
X22.235 Y26.404
X22.387 Y26.524
X22.888 Y26.861
X23.378 Y27.131
X23.563 Y27.218
X24.094 Y27.419
X24.694 Y27.589
X24.963 Y27.641
X26.180 Y27.760
X46.134 Y27.760
X46.552 Y27.805
X46.686 Y27.845
X46.857 Y27.929
X46.954 Y27.994
X47.135 Y28.188
X47.225 Y28.347
X47.309 Y28.604
X47.320 Y28.859
ID=1 WHEN $AC_TIMER[1]>=0 DO M89
X42.3643 Y30.64 F1000
ID=1 WHEN $AC_TIMER[1]>=0 DO M88
X40.524 Y32.480 F300
X21.014 Y32.480
X20.757 Y32.453
X20.730 Y32.196
X20.730 Y28.872
X21.279 Y29.250
X22.152 Y29.737
X22.543 Y29.912
X23.309 Y30.190
X24.149 Y30.417
X24.684 Y30.508
X25.900 Y30.626
X26.180 Y30.640
X42.264 Y30.640
ID=1 WHEN $AC_TIMER[1]>=0 DO M89

; Inicio do trecho do raster
; Final do trecho do raster

; Layer 12
G1 Z17.280 F1000

N4550 M63		;POWDER MIXER OFF
N4560 M67		;POWDER FEED OFF
N4570 M65		;CARRIER OFF
N4580 M79     ;GAS 1 OFF

N4590 M0

N4600 M78     ; GAS 1 ON
N4610 M64		;CARRIER ON
N4620 H2 = R3	;SET POWDER FLOW
N4630 M62		;POWDER MIXER ON
N4640 M66		;POWDER FEED ON
N4650 G4F3

X46.653 Y29.6506 F1000
ID=1 WHEN $AC_TIMER[1]>=0 DO M88
X46.600 Y30.010 F300
X46.464 Y30.389
X46.238 Y30.774
X45.899 Y31.178
X41.813 Y35.264
X41.467 Y35.560
X41.141 Y35.767
X40.810 Y35.914
X40.489 Y35.997
X40.111 Y36.030
X20.193 Y36.030
X19.353 Y35.943
X18.970 Y35.834
X18.749 Y35.745
X18.590 Y35.662
X18.281 Y35.465
X17.986 Y35.209
X17.789 Y34.988
X17.643 Y34.778
X17.435 Y34.395
X17.376 Y34.244
X17.258 Y33.845
X17.180 Y33.024
X17.180 Y12.362
X17.201 Y12.200
X17.230 Y12.137
X17.364 Y11.969
X19.323 Y10.010
X19.380 Y9.965
X19.387 Y22.452
X19.487 Y23.502
X19.549 Y23.814
X19.804 Y24.629
X20.002 Y25.080
X20.366 Y25.733
X20.616 Y26.093
X20.736 Y26.245
X21.066 Y26.615
X21.210 Y26.757
X21.670 Y27.157
X21.859 Y27.299
X22.458 Y27.673
X22.962 Y27.922
X23.414 Y28.089
X24.014 Y28.259
X24.285 Y28.311
X25.510 Y28.430
X45.464 Y28.430
X45.869 Y28.474
X46.083 Y28.544
X46.271 Y28.654
X46.469 Y28.855
X46.586 Y29.093
X46.631 Y29.285
X46.647 Y29.551
ID=1 WHEN $AC_TIMER[1]>=0 DO M89
X41.6943 Y31.31 F1000
ID=1 WHEN $AC_TIMER[1]>=0 DO M88
X39.854 Y33.150 F300
X20.342 Y33.150
X20.082 Y33.123
X20.060 Y32.887
X20.060 Y29.546
X20.333 Y29.741
X20.933 Y30.116
X21.182 Y30.255
X21.686 Y30.504
X21.962 Y30.623
X22.629 Y30.860
X23.471 Y31.088
X24.007 Y31.178
X25.233 Y31.297
X25.510 Y31.310
X41.594 Y31.310
ID=1 WHEN $AC_TIMER[1]>=0 DO M89

; Inicio do trecho do raster
; Final do trecho do raster

; Layer 13
G1 Z18.720 F1000

N4550 M63		;POWDER MIXER OFF
N4560 M67		;POWDER FEED OFF
N4570 M65		;CARRIER OFF
N4580 M79     ;GAS 1 OFF

N4590 M0

N4600 M78     ; GAS 1 ON
N4610 M64		;CARRIER ON
N4620 H2 = R3	;SET POWDER FLOW
N4630 M62		;POWDER MIXER ON
N4640 M66		;POWDER FEED ON
N4650 G4F3

X45.9823 Y30.309 F1000
ID=1 WHEN $AC_TIMER[1]>=0 DO M88
X45.924 Y30.669 F300
X45.781 Y31.068
X45.566 Y31.444
X45.225 Y31.842
X41.127 Y35.940
X40.787 Y36.237
X40.463 Y36.444
X40.146 Y36.583
X39.819 Y36.667
X39.441 Y36.700
X19.523 Y36.700
X18.664 Y36.611
X18.261 Y36.487
X18.089 Y36.419
X17.758 Y36.240
X17.560 Y36.098
X17.330 Y35.893
X17.069 Y35.594
X16.865 Y35.267
X16.782 Y35.113
X16.705 Y34.919
X16.586 Y34.510
X16.500 Y33.689
X16.500 Y13.052
X16.528 Y12.870
X16.554 Y12.814
X16.683 Y12.660
X18.700 Y10.644
X18.709 Y23.137
X18.819 Y24.187
X18.873 Y24.466
X19.104 Y25.234
X19.244 Y25.584
X19.334 Y25.772
X19.671 Y26.366
X19.841 Y26.626
X19.974 Y26.802
X20.384 Y27.272
X20.525 Y27.414
X21.030 Y27.852
X21.380 Y28.102
X21.554 Y28.210
X22.114 Y28.510
X22.341 Y28.610
X23.070 Y28.859
X23.380 Y28.939
X23.615 Y28.981
X24.840 Y29.100
X44.785 Y29.100
X45.206 Y29.145
X45.361 Y29.192
X45.494 Y29.257
X45.623 Y29.346
X45.762 Y29.484
X45.899 Y29.736
X45.960 Y29.934
X45.976 Y30.209
ID=1 WHEN $AC_TIMER[1]>=0 DO M89
X41.0143 Y31.98 F1000
ID=1 WHEN $AC_TIMER[1]>=0 DO M88
X39.174 Y33.820 F300
X19.672 Y33.820
X19.407 Y33.792
X19.380 Y33.539
X19.380 Y30.200
X19.860 Y30.548
X20.194 Y30.749
X20.955 Y31.147
X21.410 Y31.335
X22.351 Y31.648
X22.870 Y31.774
X23.337 Y31.848
X24.563 Y31.967
X24.840 Y31.980
X40.914 Y31.980
ID=1 WHEN $AC_TIMER[1]>=0 DO M89

; Inicio do trecho do raster
; Final do trecho do raster

; Layer 14
G1 Z20.160 F1000

N4550 M63		;POWDER MIXER OFF
N4560 M67		;POWDER FEED OFF
N4570 M65		;CARRIER OFF
N4580 M79     ;GAS 1 OFF

N4590 M0

N4600 M78     ; GAS 1 ON
N4610 M64		;CARRIER ON
N4620 H2 = R3	;SET POWDER FLOW
N4630 M62		;POWDER MIXER ON
N4640 M66		;POWDER FEED ON
N4650 G4F3

X45.3122 Y30.9797 F1000
ID=1 WHEN $AC_TIMER[1]>=0 DO M88
X45.254 Y31.339 F300
X45.111 Y31.738
X44.896 Y32.114
X44.555 Y32.512
X40.457 Y36.610
X40.117 Y36.907
X39.798 Y37.112
X39.468 Y37.253
X39.146 Y37.338
X38.771 Y37.370
X18.844 Y37.370
X18.019 Y37.284
X17.611 Y37.165
X17.419 Y37.089
X17.088 Y36.910
X16.882 Y36.762
X16.636 Y36.549
X16.442 Y36.331
X16.306 Y36.133
X16.083 Y35.723
X16.037 Y35.607
X15.917 Y35.185
X15.830 Y34.356
X15.830 Y13.719
X15.856 Y13.543
X15.884 Y13.484
X16.013 Y13.330
X18.030 Y11.315
X18.038 Y23.800
X18.149 Y24.857
X18.202 Y25.130
X18.434 Y25.914
X18.574 Y26.264
X18.664 Y26.452
X19.020 Y27.075
X19.260 Y27.425
X19.386 Y27.585
X19.716 Y27.955
X19.861 Y28.098
X20.360 Y28.522
X20.710 Y28.772
X20.895 Y28.886
X21.625 Y29.259
X22.044 Y29.417
X22.664 Y29.597
X22.943 Y29.651
X24.160 Y29.770
X44.115 Y29.770
X44.552 Y29.816
X44.775 Y29.901
X45.015 Y30.070
X45.154 Y30.257
X45.213 Y30.357
X45.290 Y30.614
X45.306 Y30.880
ID=1 WHEN $AC_TIMER[1]>=0 DO M89
X40.3443 Y32.65 F1000
ID=1 WHEN $AC_TIMER[1]>=0 DO M88
X38.504 Y34.490 F300
X18.994 Y34.490
X18.737 Y34.463
X18.710 Y34.206
X18.710 Y30.882
X19.199 Y31.224
X19.584 Y31.450
X20.314 Y31.823
X20.612 Y31.955
X21.241 Y32.182
X21.861 Y32.362
X22.390 Y32.478
X22.664 Y32.518
X23.880 Y32.636
X24.160 Y32.650
X40.244 Y32.650
ID=1 WHEN $AC_TIMER[1]>=0 DO M89

; Inicio do trecho do raster
; Final do trecho do raster

; Layer 15
G1 Z21.600 F1000

N4550 M63		;POWDER MIXER OFF
N4560 M67		;POWDER FEED OFF
N4570 M65		;CARRIER OFF
N4580 M79     ;GAS 1 OFF

N4590 M0

N4600 M78     ; GAS 1 ON
N4610 M64		;CARRIER ON
N4620 H2 = R3	;SET POWDER FLOW
N4630 M62		;POWDER MIXER ON
N4640 M66		;POWDER FEED ON
N4650 G4F3

X44.6422 Y31.6497 F1000
ID=1 WHEN $AC_TIMER[1]>=0 DO M88
X44.584 Y32.009 F300
X44.441 Y32.408
X44.223 Y32.790
X43.880 Y33.197
X39.787 Y37.290
X39.455 Y37.580
X39.138 Y37.777
X38.798 Y37.923
X38.476 Y38.008
X38.101 Y38.040
X18.166 Y38.040
X17.356 Y37.963
X16.880 Y37.815
X16.757 Y37.763
X16.403 Y37.576
X16.210 Y37.438
X15.973 Y37.227
X15.765 Y36.993
X15.634 Y36.808
X15.423 Y36.412
X15.246 Y35.854
X15.160 Y35.027
X15.160 Y14.405
X15.189 Y14.207
X15.209 Y14.166
X15.362 Y13.981
X17.360 Y11.985
X17.369 Y24.475
X17.503 Y25.694
X17.790 Y26.626
X17.890 Y26.896
X17.987 Y27.110
X18.363 Y27.773
X18.716 Y28.255
X19.175 Y28.754
X19.680 Y29.192
X20.030 Y29.442
X20.206 Y29.551
X20.786 Y29.861
X20.984 Y29.950
X21.348 Y30.082
X21.978 Y30.272
X22.288 Y30.333
X23.490 Y30.440
X43.445 Y30.440
X43.854 Y30.483
X44.067 Y30.553
X44.231 Y30.652
X44.386 Y30.794
X44.472 Y30.912
X44.568 Y31.091
X44.622 Y31.310
X44.636 Y31.550
ID=1 WHEN $AC_TIMER[1]>=0 DO M89
X39.6843 Y33.32 F1000
ID=1 WHEN $AC_TIMER[1]>=0 DO M88
X37.844 Y35.160 F300
X18.303 Y35.160
X18.067 Y35.138
X18.040 Y34.878
X18.040 Y31.547
X18.511 Y31.889
X18.848 Y32.091
X19.604 Y32.488
X20.005 Y32.659
X20.516 Y32.839
X21.146 Y33.029
X21.733 Y33.159
X22.032 Y33.201
X23.234 Y33.309
X23.490 Y33.320
X39.584 Y33.320
ID=1 WHEN $AC_TIMER[1]>=0 DO M89

; Inicio do trecho do raster
; Final do trecho do raster

; Layer 16
G1 Z23.040 F1000

N4550 M63		;POWDER MIXER OFF
N4560 M67		;POWDER FEED OFF
N4570 M65		;CARRIER OFF
N4580 M79     ;GAS 1 OFF

N4590 M0

N4600 M78     ; GAS 1 ON
N4610 M64		;CARRIER ON
N4620 H2 = R3	;SET POWDER FLOW
N4630 M62		;POWDER MIXER ON
N4640 M66		;POWDER FEED ON
N4650 G4F3

X43.9647 Y32.3192 F1000
ID=1 WHEN $AC_TIMER[1]>=0 DO M88
X43.910 Y32.690 F300
X43.771 Y33.078
X43.553 Y33.460
X43.210 Y33.867
X39.123 Y37.954
X38.777 Y38.250
X38.451 Y38.457
X38.120 Y38.604
X37.798 Y38.688
X37.430 Y38.720
X17.504 Y38.720
X16.656 Y38.631
X16.271 Y38.513
X16.081 Y38.439
X15.743 Y38.253
X15.540 Y38.108
X15.303 Y37.897
X15.095 Y37.663
X14.959 Y37.471
X14.771 Y37.129
X14.704 Y36.958
X14.576 Y36.527
X14.490 Y35.697
X14.490 Y15.064
X14.521 Y14.873
X14.541 Y14.831
X14.681 Y14.652
X16.623 Y12.710
X16.690 Y12.659
X16.699 Y25.145
X16.809 Y26.205
X16.870 Y26.508
X17.134 Y27.354
X17.317 Y27.780
X17.693 Y28.443
X18.046 Y28.925
X18.505 Y29.424
X19.010 Y29.862
X19.360 Y30.112
X19.536 Y30.221
X20.116 Y30.531
X20.636 Y30.742
X21.098 Y30.889
X21.368 Y30.959
X21.628 Y31.004
X22.162 Y31.051
X22.626 Y31.108
X22.820 Y31.120
X42.774 Y31.120
X43.231 Y31.169
X43.399 Y31.230
X43.638 Y31.386
X43.753 Y31.517
X43.881 Y31.740
X43.950 Y31.991
X43.960 Y32.219
ID=1 WHEN $AC_TIMER[1]>=0 DO M89
X39.0053 Y33.999 F1000
ID=1 WHEN $AC_TIMER[1]>=0 DO M88
X37.164 Y35.840 F300
X17.654 Y35.840
X17.397 Y35.813
X17.370 Y35.548
X17.370 Y32.217
X17.841 Y32.559
X18.178 Y32.761
X18.758 Y33.071
X19.035 Y33.200
X19.764 Y33.487
X20.376 Y33.677
X20.877 Y33.797
X21.372 Y33.872
X22.645 Y33.995
X38.905 Y33.999
ID=1 WHEN $AC_TIMER[1]>=0 DO M89

; Inicio do trecho do raster
; Final do trecho do raster

; Layer 17
G1 Z24.480 F1000

N4550 M63		;POWDER MIXER OFF
N4560 M67		;POWDER FEED OFF
N4570 M65		;CARRIER OFF
N4580 M79     ;GAS 1 OFF

N4590 M0

N4600 M78     ; GAS 1 ON
N4610 M64		;CARRIER ON
N4620 H2 = R3	;SET POWDER FLOW
N4630 M62		;POWDER MIXER ON
N4640 M66		;POWDER FEED ON
N4650 G4F3

X43.2947 Y32.9892 F1000
ID=1 WHEN $AC_TIMER[1]>=0 DO M88
X43.240 Y33.360 F300
X43.104 Y33.739
X42.875 Y34.130
X42.534 Y34.543
X38.453 Y38.624
X38.107 Y38.920
X37.781 Y39.127
X37.450 Y39.274
X37.128 Y39.358
X36.760 Y39.390
X16.834 Y39.390
X16.007 Y39.303
X15.573 Y39.178
X15.431 Y39.119
X15.049 Y38.906
X14.855 Y38.775
X14.650 Y38.592
X14.296 Y38.162
X14.082 Y37.759
X13.910 Y37.239
X13.820 Y36.376
X13.821 Y15.715
X13.845 Y15.555
X13.882 Y15.479
X14.000 Y15.333
X16.020 Y13.318
X16.029 Y25.827
X16.139 Y26.877
X16.268 Y27.455
X16.438 Y27.962
X16.641 Y28.439
X16.921 Y28.959
X17.036 Y29.141
X17.362 Y29.579
X17.692 Y29.959
X17.835 Y30.104
X18.205 Y30.434
X18.374 Y30.565
X18.831 Y30.867
X19.511 Y31.236
X19.997 Y31.428
X20.657 Y31.618
X20.933 Y31.671
X22.150 Y31.790
X42.104 Y31.790
X42.557 Y31.839
X42.701 Y31.887
X42.950 Y32.047
X43.072 Y32.172
X43.227 Y32.452
X43.279 Y32.651
X43.290 Y32.889
ID=1 WHEN $AC_TIMER[1]>=0 DO M89
X38.3343 Y34.67 F1000
ID=1 WHEN $AC_TIMER[1]>=0 DO M88
X36.494 Y36.510 F300
X16.984 Y36.510
X16.727 Y36.483
X16.700 Y36.226
X16.700 Y32.904
X17.460 Y33.401
X18.141 Y33.769
X18.453 Y33.914
X18.939 Y34.106
X19.201 Y34.195
X19.861 Y34.385
X20.383 Y34.498
X20.654 Y34.538
X21.870 Y34.656
X22.150 Y34.670
X38.234 Y34.670
ID=1 WHEN $AC_TIMER[1]>=0 DO M89

; Inicio do trecho do raster
; Final do trecho do raster

; Layer 18
G1 Z25.920 F1000

N4550 M63		;POWDER MIXER OFF
N4560 M67		;POWDER FEED OFF
N4570 M65		;CARRIER OFF
N4580 M79     ;GAS 1 OFF

N4590 M0

N4600 M78     ; GAS 1 ON
N4610 M64		;CARRIER ON
N4620 H2 = R3	;SET POWDER FLOW
N4630 M62		;POWDER MIXER ON
N4640 M66		;POWDER FEED ON
N4650 G4F3

X42.6248 Y33.6687 F1000
ID=1 WHEN $AC_TIMER[1]>=0 DO M88
X42.571 Y34.036 F300
X42.434 Y34.411
X42.205 Y34.808
X41.869 Y35.208
X37.783 Y39.294
X37.437 Y39.590
X37.111 Y39.797
X36.780 Y39.944
X36.459 Y40.027
X36.081 Y40.060
X16.164 Y40.060
X15.309 Y39.970
X14.734 Y39.780
X14.379 Y39.582
X14.193 Y39.452
X13.963 Y39.247
X13.755 Y39.013
X13.628 Y38.833
X13.364 Y38.314
X13.237 Y37.873
X13.150 Y37.046
X13.159 Y16.348
X13.174 Y16.229
X13.204 Y16.165
X13.338 Y15.994
X15.350 Y13.988
X15.359 Y26.497
X15.469 Y27.547
X15.522 Y27.823
X15.712 Y28.483
X15.904 Y28.969
X16.251 Y29.629
X16.593 Y30.133
X17.036 Y30.645
X17.535 Y31.104
X18.015 Y31.453
X18.169 Y31.547
X18.779 Y31.877
X19.027 Y31.986
X19.802 Y32.242
X20.042 Y32.302
X20.263 Y32.341
X21.480 Y32.460
X41.434 Y32.460
X41.857 Y32.506
X42.078 Y32.589
X42.283 Y32.719
X42.425 Y32.875
X42.516 Y33.031
X42.610 Y33.332
X42.620 Y33.569
ID=1 WHEN $AC_TIMER[1]>=0 DO M89
X37.6643 Y35.34 F1000
ID=1 WHEN $AC_TIMER[1]>=0 DO M88
X35.824 Y37.180 F300
X16.314 Y37.180
X16.057 Y37.153
X16.030 Y36.897
X16.032 Y33.569
X16.504 Y33.904
X16.798 Y34.080
X17.628 Y34.517
X18.121 Y34.719
X19.103 Y35.036
X19.541 Y35.138
X19.984 Y35.208
X21.200 Y35.326
X21.480 Y35.340
X37.564 Y35.340
ID=1 WHEN $AC_TIMER[1]>=0 DO M89

; Inicio do trecho do raster
; Final do trecho do raster

; Layer 19
G1 Z27.360 F1000

N4550 M63		;POWDER MIXER OFF
N4560 M67		;POWDER FEED OFF
N4570 M65		;CARRIER OFF
N4580 M79     ;GAS 1 OFF

N4590 M0

N4600 M78     ; GAS 1 ON
N4610 M64		;CARRIER ON
N4620 H2 = R3	;SET POWDER FLOW
N4630 M62		;POWDER MIXER ON
N4640 M66		;POWDER FEED ON
N4650 G4F3

X41.953 Y34.3506 F1000
ID=1 WHEN $AC_TIMER[1]>=0 DO M88
X41.900 Y34.710 F300
X41.764 Y35.089
X41.538 Y35.474
X41.199 Y35.878
X37.113 Y39.964
X36.767 Y40.260
X36.441 Y40.467
X36.110 Y40.614
X35.789 Y40.697
X35.411 Y40.730
X15.493 Y40.730
X14.664 Y40.644
X14.207 Y40.508
X14.070 Y40.453
X13.709 Y40.252
X13.523 Y40.122
X13.293 Y39.917
X13.077 Y39.674
X12.956 Y39.508
X12.687 Y38.974
X12.558 Y38.542
X12.480 Y37.724
X12.488 Y17.003
X12.501 Y16.899
X12.528 Y16.840
X12.666 Y16.667
X14.680 Y14.662
X14.687 Y27.152
X14.787 Y28.202
X14.847 Y28.508
X15.047 Y29.178
X15.126 Y29.389
X15.405 Y29.986
X15.585 Y30.316
X15.696 Y30.491
X16.036 Y30.945
X16.495 Y31.444
X16.865 Y31.774
X17.345 Y32.123
X17.499 Y32.217
X18.109 Y32.547
X18.622 Y32.753
X19.292 Y32.953
X19.585 Y33.011
X20.810 Y33.130
X40.764 Y33.130
X41.168 Y33.173
X41.353 Y33.233
X41.592 Y33.380
X41.758 Y33.554
X41.878 Y33.779
X41.932 Y33.994
X41.947 Y34.251
ID=1 WHEN $AC_TIMER[1]>=0 DO M89
X36.9943 Y36.01 F1000
ID=1 WHEN $AC_TIMER[1]>=0 DO M88
X35.154 Y37.850 F300
X15.642 Y37.850
X15.382 Y37.823
X15.360 Y37.588
X15.361 Y34.239
X15.834 Y34.574
X16.128 Y34.750
X16.738 Y35.080
X17.037 Y35.221
X17.551 Y35.426
X17.799 Y35.513
X18.469 Y35.713
X19.022 Y35.836
X19.307 Y35.878
X20.533 Y35.997
X20.810 Y36.010
X36.894 Y36.010
ID=1 WHEN $AC_TIMER[1]>=0 DO M89

; Inicio do trecho do raster
; Final do trecho do raster

; Layer 20
G1 Z28.800 F1000

N4550 M63		;POWDER MIXER OFF
N4560 M67		;POWDER FEED OFF
N4570 M65		;CARRIER OFF
N4580 M79     ;GAS 1 OFF

N4590 M0

N4600 M78     ; GAS 1 ON
N4610 M64		;CARRIER ON
N4620 H2 = R3	;SET POWDER FLOW
N4630 M62		;POWDER MIXER ON
N4640 M66		;POWDER FEED ON
N4650 G4F3

X41.2823 Y35.0089 F1000
ID=1 WHEN $AC_TIMER[1]>=0 DO M88
X41.224 Y35.369 F300
X41.081 Y35.768
X40.866 Y36.144
X40.525 Y36.542
X36.427 Y40.640
X36.087 Y40.937
X35.763 Y41.144
X35.446 Y41.283
X35.119 Y41.367
X34.741 Y41.400
X14.823 Y41.400
X13.924 Y41.302
X13.485 Y41.158
X13.262 Y41.056
X13.046 Y40.932
X12.862 Y40.800
X12.623 Y40.587
X12.418 Y40.357
X12.285 Y40.167
X12.083 Y39.808
X11.885 Y39.198
X11.800 Y38.386
X11.806 Y17.701
X11.846 Y17.532
X11.984 Y17.359
X14.000 Y15.352
X14.009 Y27.837
X14.146 Y29.056
X14.511 Y30.191
X14.638 Y30.478
X15.017 Y31.135
X15.366 Y31.615
X15.825 Y32.114
X16.326 Y32.549
X16.812 Y32.884
X17.498 Y33.248
X17.923 Y33.417
X18.492 Y33.592
X18.915 Y33.681
X20.140 Y33.800
X40.085 Y33.800
X40.477 Y33.841
X40.728 Y33.929
X40.949 Y34.070
X41.098 Y34.237
X41.184 Y34.402
X41.263 Y34.685
X41.276 Y34.909
ID=1 WHEN $AC_TIMER[1]>=0 DO M89
X36.3143 Y36.68 F1000
ID=1 WHEN $AC_TIMER[1]>=0 DO M88
X34.474 Y38.520 F300
X14.980 Y38.520
X14.707 Y38.490
X14.680 Y38.236
X14.681 Y34.912
X15.179 Y35.256
X15.460 Y35.427
X16.146 Y35.791
X16.434 Y35.925
X17.076 Y36.170
X17.645 Y36.345
X18.320 Y36.499
X18.637 Y36.548
X19.863 Y36.667
X20.140 Y36.680
X36.214 Y36.680
ID=1 WHEN $AC_TIMER[1]>=0 DO M89

; Inicio do trecho do raster
; Final do trecho do raster

; Layer 21
G1 Z30.240 F1000

N4550 M63		;POWDER MIXER OFF
N4560 M67		;POWDER FEED OFF
N4570 M65		;CARRIER OFF
N4580 M79     ;GAS 1 OFF

N4590 M0

N4600 M78     ; GAS 1 ON
N4610 M64		;CARRIER ON
N4620 H2 = R3	;SET POWDER FLOW
N4630 M62		;POWDER MIXER ON
N4640 M66		;POWDER FEED ON
N4650 G4F3

X40.6122 Y35.6797 F1000
ID=1 WHEN $AC_TIMER[1]>=0 DO M88
X40.554 Y36.039 F300
X40.411 Y36.438
X40.196 Y36.814
X39.855 Y37.212
X35.757 Y41.310
X35.417 Y41.607
X35.098 Y41.812
X34.768 Y41.953
X34.446 Y42.038
X34.071 Y42.070
X14.144 Y42.070
X13.318 Y41.984
X12.860 Y41.851
X12.741 Y41.800
X12.364 Y41.593
X12.184 Y41.464
X11.936 Y41.249
X11.741 Y41.030
X11.618 Y40.851
X11.408 Y40.480
X11.363 Y40.367
X11.216 Y39.874
X11.130 Y39.056
X11.130 Y18.421
X11.157 Y18.242
X11.182 Y18.189
X11.315 Y18.028
X13.330 Y16.022
X13.338 Y28.500
X13.449 Y29.557
X13.507 Y29.850
X13.761 Y30.675
X13.871 Y30.955
X13.968 Y31.158
X14.342 Y31.806
X14.562 Y32.126
X14.686 Y32.285
X15.016 Y32.655
X15.161 Y32.798
X15.656 Y33.219
X15.976 Y33.449
X16.150 Y33.558
X16.780 Y33.898
X17.275 Y34.097
X17.965 Y34.297
X18.212 Y34.348
X18.663 Y34.403
X19.460 Y34.470
X39.415 Y34.470
X39.807 Y34.511
X40.066 Y34.602
X40.275 Y34.740
X40.419 Y34.900
X40.525 Y35.095
X40.592 Y35.352
X40.606 Y35.580
ID=1 WHEN $AC_TIMER[1]>=0 DO M89
X35.6443 Y37.35 F1000
ID=1 WHEN $AC_TIMER[1]>=0 DO M88
X33.804 Y39.190 F300
X14.294 Y39.190
X14.037 Y39.163
X14.010 Y38.906
X14.010 Y35.582
X14.449 Y35.891
X14.782 Y36.093
X15.412 Y36.433
X15.706 Y36.570
X16.201 Y36.769
X16.473 Y36.863
X17.383 Y37.117
X17.860 Y37.206
X18.423 Y37.273
X19.460 Y37.350
X35.544 Y37.350
ID=1 WHEN $AC_TIMER[1]>=0 DO M89

; Inicio do trecho do raster
; Final do trecho do raster

; Layer 22
G1 Z31.680 F1000

N4550 M63		;POWDER MIXER OFF
N4560 M67		;POWDER FEED OFF
N4570 M65		;CARRIER OFF
N4580 M79     ;GAS 1 OFF

N4590 M0

N4600 M78     ; GAS 1 ON
N4610 M64		;CARRIER ON
N4620 H2 = R3	;SET POWDER FLOW
N4630 M62		;POWDER MIXER ON
N4640 M66		;POWDER FEED ON
N4650 G4F3

X39.9422 Y36.3497 F1000
ID=1 WHEN $AC_TIMER[1]>=0 DO M88
X39.884 Y36.709 F300
X39.741 Y37.108
X39.523 Y37.490
X39.180 Y37.897
X35.087 Y41.990
X34.755 Y42.280
X34.438 Y42.477
X34.098 Y42.623
X33.776 Y42.708
X33.401 Y42.740
X13.473 Y42.750
X12.656 Y42.664
X12.210 Y42.531
X11.935 Y42.403
X11.687 Y42.265
X11.512 Y42.140
X11.273 Y41.927
X11.063 Y41.691
X10.946 Y41.526
X10.735 Y41.147
X10.691 Y41.037
X10.546 Y40.555
X10.460 Y39.727
X10.460 Y19.126
X10.504 Y18.886
X10.662 Y18.681
X12.660 Y16.692
X12.669 Y29.175
X12.779 Y30.235
X12.837 Y30.530
X13.047 Y31.230
X13.291 Y31.817
X13.685 Y32.506
X14.016 Y32.955
X14.475 Y33.454
X14.976 Y33.889
X15.296 Y34.119
X15.488 Y34.238
X16.239 Y34.626
X16.580 Y34.763
X17.444 Y35.012
X18.603 Y35.139
X18.790 Y35.150
X38.756 Y35.150
X39.141 Y35.186
X39.395 Y35.273
X39.580 Y35.389
X39.726 Y35.552
X39.858 Y35.783
X39.921 Y35.995
X39.936 Y36.250
ID=1 WHEN $AC_TIMER[1]>=0 DO M89
X34.9753 Y38.0291 F1000
ID=1 WHEN $AC_TIMER[1]>=0 DO M88
X33.144 Y39.860 F300
X13.623 Y39.870
X13.367 Y39.843
X13.340 Y39.578
X13.340 Y36.252
X13.615 Y36.458
X14.165 Y36.796
X14.916 Y37.184
X15.510 Y37.436
X15.780 Y37.529
X16.644 Y37.779
X16.885 Y37.838
X17.131 Y37.875
X18.622 Y38.025
X34.875 Y38.029
ID=1 WHEN $AC_TIMER[1]>=0 DO M89

; Inicio do trecho do raster
; Final do trecho do raster

; Layer 23
G1 Z33.120 F1000

N4550 M63		;POWDER MIXER OFF
N4560 M67		;POWDER FEED OFF
N4570 M65		;CARRIER OFF
N4580 M79     ;GAS 1 OFF

N4590 M0

N4600 M78     ; GAS 1 ON
N4610 M64		;CARRIER ON
N4620 H2 = R3	;SET POWDER FLOW
N4630 M62		;POWDER MIXER ON
N4640 M66		;POWDER FEED ON
N4650 G4F3

X39.2647 Y37.0192 F1000
ID=1 WHEN $AC_TIMER[1]>=0 DO M88
X39.210 Y37.390 F300
X39.074 Y37.769
X38.845 Y38.160
X38.504 Y38.573
X34.423 Y42.654
X34.077 Y42.950
X33.751 Y43.157
X33.444 Y43.294
X33.080 Y43.389
X32.730 Y43.420
X12.804 Y43.420
X11.998 Y43.336
X11.383 Y43.140
X11.014 Y42.939
X10.851 Y42.818
X10.603 Y42.597
X10.393 Y42.361
X10.276 Y42.196
X10.060 Y41.808
X10.019 Y41.710
X9.876 Y41.227
X9.790 Y40.406
X9.790 Y19.771
X9.823 Y19.578
X9.992 Y19.341
X11.917 Y17.416
X11.990 Y17.362
X11.999 Y29.857
X12.109 Y30.907
X12.166 Y31.194
X12.376 Y31.904
X12.451 Y32.107
X12.703 Y32.648
X13.015 Y33.176
X13.346 Y33.625
X13.805 Y34.124
X14.287 Y34.545
X14.597 Y34.775
X14.800 Y34.904
X15.460 Y35.254
X15.731 Y35.367
X16.591 Y35.637
X16.903 Y35.701
X18.120 Y35.820
X38.064 Y35.820
X38.539 Y35.877
X38.698 Y35.934
X38.921 Y36.077
X39.069 Y36.229
X39.188 Y36.457
X39.250 Y36.687
X39.260 Y36.919
ID=1 WHEN $AC_TIMER[1]>=0 DO M89
X34.3043 Y38.7 F1000
ID=1 WHEN $AC_TIMER[1]>=0 DO M88
X32.464 Y40.540 F300
X12.954 Y40.540
X12.697 Y40.513
X12.670 Y40.256
X12.670 Y36.930
X13.060 Y37.211
X13.451 Y37.448
X14.111 Y37.798
X14.620 Y38.024
X14.868 Y38.114
X15.728 Y38.384
X16.319 Y38.521
X16.624 Y38.568
X17.840 Y38.686
X18.120 Y38.700
X34.204 Y38.700
ID=1 WHEN $AC_TIMER[1]>=0 DO M89

; Inicio do trecho do raster
; Final do trecho do raster

; Layer 24
G1 Z34.560 F1000

N4550 M63		;POWDER MIXER OFF
N4560 M67		;POWDER FEED OFF
N4570 M65		;CARRIER OFF
N4580 M79     ;GAS 1 OFF

N4590 M0

N4600 M78     ; GAS 1 ON
N4610 M64		;CARRIER ON
N4620 H2 = R3	;SET POWDER FLOW
N4630 M62		;POWDER MIXER ON
N4640 M66		;POWDER FEED ON
N4650 G4F3

X38.5947 Y37.6892 F1000
ID=1 WHEN $AC_TIMER[1]>=0 DO M88
X38.540 Y38.060 F300
X38.404 Y38.439
X38.175 Y38.830
X37.834 Y39.243
X33.753 Y43.324
X33.407 Y43.620
X33.081 Y43.827
X32.750 Y43.974
X32.428 Y44.058
X32.060 Y44.090
X12.134 Y44.090
X11.320 Y44.005
X10.723 Y43.814
X10.323 Y43.588
X10.156 Y43.475
X9.941 Y43.284
X9.721 Y43.031
X9.603 Y42.870
X9.347 Y42.381
X9.206 Y41.900
X9.120 Y41.076
X9.120 Y20.457
X9.160 Y20.227
X9.322 Y20.011
X11.249 Y18.084
X11.320 Y18.031
X11.329 Y30.527
X11.439 Y31.577
X11.494 Y31.858
X11.704 Y32.578
X11.794 Y32.815
X12.017 Y33.278
X12.247 Y33.699
X12.360 Y33.876
X12.662 Y34.279
X12.992 Y34.659
X13.162 Y34.828
X13.673 Y35.265
X14.094 Y35.544
X14.644 Y35.854
X15.212 Y36.090
X15.932 Y36.310
X16.233 Y36.371
X17.450 Y36.490
X37.404 Y36.490
X37.831 Y36.536
X38.032 Y36.607
X38.237 Y36.738
X38.387 Y36.898
X38.504 Y37.109
X38.580 Y37.373
X38.590 Y37.589
ID=1 WHEN $AC_TIMER[1]>=0 DO M89
X33.6343 Y39.37 F1000
ID=1 WHEN $AC_TIMER[1]>=0 DO M88
X31.794 Y41.210 F300
X12.284 Y41.210
X12.027 Y41.183
X12.000 Y40.926
X12.000 Y37.604
X12.680 Y38.053
X13.230 Y38.363
X13.538 Y38.513
X14.106 Y38.749
X14.371 Y38.844
X15.091 Y39.064
X15.660 Y39.194
X15.954 Y39.238
X17.170 Y39.356
X17.450 Y39.370
X33.534 Y39.370
ID=1 WHEN $AC_TIMER[1]>=0 DO M89

; Inicio do trecho do raster
; Final do trecho do raster

; Layer 25
G1 Z36.000 F1000

N4550 M63		;POWDER MIXER OFF
N4560 M67		;POWDER FEED OFF
N4570 M65		;CARRIER OFF
N4580 M79     ;GAS 1 OFF

N4590 M0

N4600 M78     ; GAS 1 ON
N4610 M64		;CARRIER ON
N4620 H2 = R3	;SET POWDER FLOW
N4630 M62		;POWDER MIXER ON
N4640 M66		;POWDER FEED ON
N4650 G4F3

X37.9248 Y38.3687 F1000
ID=1 WHEN $AC_TIMER[1]>=0 DO M88
X37.874 Y38.712 F300
X37.728 Y39.130
X37.508 Y39.504
X37.169 Y39.908
X33.083 Y43.994
X32.737 Y44.290
X32.411 Y44.497
X32.080 Y44.644
X31.759 Y44.727
X31.381 Y44.760
X11.464 Y44.760
X10.610 Y44.671
X10.067 Y44.492
X9.656 Y44.266
X9.495 Y44.153
X9.263 Y43.947
X9.053 Y43.711
X8.942 Y43.555
X8.699 Y43.103
X8.540 Y42.603
X8.450 Y41.746
X8.450 Y21.104
X8.474 Y20.935
X8.514 Y20.854
X8.639 Y20.695
X10.650 Y18.697
X10.659 Y31.197
X10.769 Y32.247
X10.865 Y32.693
X11.118 Y33.460
X11.352 Y33.967
X11.662 Y34.507
X12.006 Y34.975
X12.465 Y35.474
X12.835 Y35.804
X13.282 Y36.131
X13.964 Y36.524
X14.517 Y36.755
X15.240 Y36.979
X15.563 Y37.041
X16.780 Y37.160
X36.734 Y37.160
X37.132 Y37.203
X37.326 Y37.266
X37.558 Y37.404
X37.728 Y37.583
X37.833 Y37.766
X37.910 Y38.037
X37.920 Y38.269
ID=1 WHEN $AC_TIMER[1]>=0 DO M89
X32.9643 Y40.04 F1000
ID=1 WHEN $AC_TIMER[1]>=0 DO M88
X31.124 Y41.880 F300
X11.614 Y41.880
X11.357 Y41.853
X11.330 Y41.596
X11.330 Y38.271
X11.584 Y38.457
X11.844 Y38.626
X12.526 Y39.019
X12.852 Y39.180
X13.404 Y39.412
X13.666 Y39.507
X14.389 Y39.730
X14.695 Y39.807
X15.284 Y39.908
X16.500 Y40.026
X16.780 Y40.040
X32.864 Y40.040
ID=1 WHEN $AC_TIMER[1]>=0 DO M89

; Inicio do trecho do raster
; Final do trecho do raster

; Layer 26
G1 Z37.440 F1000

N4550 M63		;POWDER MIXER OFF
N4560 M67		;POWDER FEED OFF
N4570 M65		;CARRIER OFF
N4580 M79     ;GAS 1 OFF

N4590 M0

N4600 M78     ; GAS 1 ON
N4610 M64		;CARRIER ON
N4620 H2 = R3	;SET POWDER FLOW
N4630 M62		;POWDER MIXER ON
N4640 M66		;POWDER FEED ON
N4650 G4F3

X37.253 Y39.0506 F1000
ID=1 WHEN $AC_TIMER[1]>=0 DO M88
X37.200 Y39.410 F300
X37.064 Y39.789
X36.842 Y40.167
X36.495 Y40.572
X32.300 Y44.767
X32.075 Y44.955
X31.741 Y45.167
X31.410 Y45.314
X31.089 Y45.397
X30.711 Y45.430
X10.793 Y45.430
X9.966 Y45.344
X9.476 Y45.196
X9.307 Y45.122
X8.915 Y44.894
X8.593 Y44.617
X8.375 Y44.372
X8.269 Y44.228
X8.031 Y43.779
X7.857 Y43.228
X7.780 Y42.424
X7.780 Y21.768
X7.800 Y21.619
X7.844 Y21.527
X7.962 Y21.381
X9.980 Y19.369
X9.987 Y31.852
X10.087 Y32.902
X10.113 Y33.073
X10.437 Y34.110
X10.546 Y34.370
X10.896 Y35.030
X11.020 Y35.226
X11.336 Y35.645
X11.795 Y36.144
X12.270 Y36.560
X12.638 Y36.821
X13.288 Y37.191
X13.705 Y37.377
X14.588 Y37.652
X14.885 Y37.711
X16.110 Y37.830
X36.064 Y37.830
X36.440 Y37.870
X36.735 Y37.976
X36.927 Y38.108
X37.035 Y38.225
X37.179 Y38.495
X37.232 Y38.701
X37.247 Y38.951
ID=1 WHEN $AC_TIMER[1]>=0 DO M89
X32.2843 Y40.71 F1000
ID=1 WHEN $AC_TIMER[1]>=0 DO M88
X30.444 Y42.550 F300
X10.942 Y42.550
X10.682 Y42.523
X10.660 Y42.287
X10.660 Y38.949
X11.214 Y39.323
X11.864 Y39.693
X12.111 Y39.819
X12.527 Y40.005
X12.849 Y40.127
X13.733 Y40.402
X14.318 Y40.535
X14.607 Y40.578
X15.833 Y40.697
X16.110 Y40.710
X32.184 Y40.710
ID=1 WHEN $AC_TIMER[1]>=0 DO M89

; Inicio do trecho do raster
; Final do trecho do raster

; Layer 27
G1 Z38.880 F1000

N4550 M63		;POWDER MIXER OFF
N4560 M67		;POWDER FEED OFF
N4570 M65		;CARRIER OFF
N4580 M79     ;GAS 1 OFF

N4590 M0

N4600 M78     ; GAS 1 ON
N4610 M64		;CARRIER ON
N4620 H2 = R3	;SET POWDER FLOW
N4630 M62		;POWDER MIXER ON
N4640 M66		;POWDER FEED ON
N4650 G4F3

X36.5812 Y39.716 F1000
ID=1 WHEN $AC_TIMER[1]>=0 DO M88
X36.524 Y40.069 F300
X36.381 Y40.468
X36.166 Y40.844
X35.826 Y41.241
X31.630 Y45.427
X31.390 Y45.635
X31.068 Y45.842
X30.738 Y45.983
X30.416 Y46.068
X30.041 Y46.100
X10.123 Y46.100
X9.251 Y46.009
X8.801 Y45.869
X8.645 Y45.801
X8.261 Y45.577
X7.923 Y45.287
X7.708 Y45.046
X7.596 Y44.891
X7.377 Y44.508
X7.185 Y43.899
X7.100 Y43.086
X7.100 Y22.469
X7.137 Y22.259
X7.158 Y22.216
X7.290 Y22.052
X9.300 Y20.047
X9.309 Y32.537
X9.419 Y33.587
X9.480 Y33.889
X9.710 Y34.639
X9.863 Y35.040
X9.950 Y35.210
X10.406 Y35.971
X10.666 Y36.315
X11.125 Y36.814
X11.622 Y37.246
X12.053 Y37.547
X12.679 Y37.896
X13.163 Y38.097
X13.803 Y38.297
X14.025 Y38.350
X14.440 Y38.413
X15.440 Y38.500
X35.385 Y38.500
X35.789 Y38.543
X36.026 Y38.622
X36.213 Y38.744
X36.370 Y38.912
X36.495 Y39.135
X36.556 Y39.341
X36.574 Y39.616
ID=1 WHEN $AC_TIMER[1]>=0 DO M89
X31.6091 Y41.38 F1000
ID=1 WHEN $AC_TIMER[1]>=0 DO M88
X29.765 Y43.220 F300
X10.272 Y43.220
X10.007 Y43.193
X9.980 Y42.936
X9.980 Y39.612
X10.403 Y39.908
X10.652 Y40.063
X11.277 Y40.412
X11.573 Y40.555
X12.304 Y40.846
X13.142 Y41.100
X13.590 Y41.197
X14.190 Y41.282
X15.190 Y41.369
X15.440 Y41.380
X31.509 Y41.380
ID=1 WHEN $AC_TIMER[1]>=0 DO M89

; Inicio do trecho do raster
; Final do trecho do raster

; Layer 28
G1 Z40.320 F1000

N4550 M63		;POWDER MIXER OFF
N4560 M67		;POWDER FEED OFF
N4570 M65		;CARRIER OFF
N4580 M79     ;GAS 1 OFF

N4590 M0

N4600 M78     ; GAS 1 ON
N4610 M64		;CARRIER ON
N4620 H2 = R3	;SET POWDER FLOW
N4630 M62		;POWDER MIXER ON
N4640 M66		;POWDER FEED ON
N4650 G4F3

X35.9122 Y40.3797 F1000
ID=1 WHEN $AC_TIMER[1]>=0 DO M88
X35.854 Y40.739 F300
X35.711 Y41.138
X35.493 Y41.520
X35.151 Y41.926
X30.970 Y46.088
X30.718 Y46.306
X30.398 Y46.512
X30.068 Y46.653
X29.746 Y46.738
X29.371 Y46.770
X9.316 Y46.765
X8.636 Y46.687
X8.121 Y46.531
X7.635 Y46.279
X7.496 Y46.174
X7.236 Y45.949
X7.040 Y45.729
X6.936 Y45.577
X6.680 Y45.114
X6.515 Y44.572
X6.430 Y43.756
X6.430 Y23.139
X6.481 Y22.892
X6.618 Y22.725
X8.630 Y20.721
X8.639 Y33.207
X8.749 Y34.257
X8.809 Y34.553
X9.039 Y35.313
X9.240 Y35.794
X9.631 Y36.494
X9.886 Y36.861
X10.316 Y37.355
X10.461 Y37.498
X10.930 Y37.900
X11.210 Y38.110
X11.406 Y38.236
X12.110 Y38.611
X12.487 Y38.761
X13.247 Y38.991
X13.543 Y39.051
X14.760 Y39.170
X34.715 Y39.170
X35.107 Y39.211
X35.344 Y39.295
X35.584 Y39.453
X35.672 Y39.546
X35.835 Y39.836
X35.892 Y40.054
X35.906 Y40.280
ID=1 WHEN $AC_TIMER[1]>=0 DO M89
X30.9439 Y42.05 F1000
ID=1 WHEN $AC_TIMER[1]>=0 DO M88
X29.095 Y43.890 F300
X9.481 Y43.885
X9.338 Y43.869
X9.310 Y43.606
X9.310 Y40.283
X9.654 Y40.533
X10.052 Y40.778
X10.756 Y41.153
X11.040 Y41.285
X11.652 Y41.518
X12.412 Y41.748
X12.974 Y41.874
X13.264 Y41.918
X14.480 Y42.036
X14.760 Y42.050
X30.844 Y42.050
ID=1 WHEN $AC_TIMER[1]>=0 DO M89

; Inicio do trecho do raster
; Final do trecho do raster

; Layer 29
G1 Z41.760 F1000

N4550 M63		;POWDER MIXER OFF
N4560 M67		;POWDER FEED OFF
N4570 M65		;CARRIER OFF
N4580 M79     ;GAS 1 OFF

N4590 M0

N4600 M78     ; GAS 1 ON
N4610 M64		;CARRIER ON
N4620 H2 = R3	;SET POWDER FLOW
N4630 M62		;POWDER MIXER ON
N4640 M66		;POWDER FEED ON
N4650 G4F3

X35.2422 Y41.0497 F1000
ID=1 WHEN $AC_TIMER[1]>=0 DO M88
X35.184 Y41.409 F300
X35.041 Y41.808
X34.823 Y42.190
X34.480 Y42.597
X30.387 Y46.690
X30.055 Y46.980
X29.745 Y47.173
X29.342 Y47.340
X29.000 Y47.418
X28.689 Y47.450
X8.774 Y47.450
X7.965 Y47.365
X7.367 Y47.176
X6.915 Y46.917
X6.820 Y46.847
X6.573 Y46.627
X6.362 Y46.390
X6.263 Y46.251
X6.006 Y45.781
X5.846 Y45.253
X5.760 Y44.427
X5.760 Y23.796
X5.786 Y23.615
X5.812 Y23.561
X5.949 Y23.394
X7.960 Y21.393
X7.969 Y33.875
X8.079 Y34.935
X8.139 Y35.233
X8.369 Y35.993
X8.469 Y36.246
X8.629 Y36.591
X9.008 Y37.240
X9.316 Y37.655
X9.775 Y38.154
X10.272 Y38.586
X10.717 Y38.895
X11.287 Y39.215
X11.794 Y39.428
X12.564 Y39.668
X12.873 Y39.731
X14.090 Y39.850
X34.056 Y39.850
X34.434 Y39.885
X34.698 Y39.978
X34.883 Y40.105
X35.054 Y40.293
X35.149 Y40.461
X35.223 Y40.733
X35.236 Y40.950
ID=1 WHEN $AC_TIMER[1]>=0 DO M89
X30.2743 Y42.73 F1000
ID=1 WHEN $AC_TIMER[1]>=0 DO M88
X28.434 Y44.570 F300
X8.924 Y44.570
X8.667 Y44.543
X8.640 Y44.278
X8.640 Y40.959
X9.074 Y41.260
X9.307 Y41.406
X9.877 Y41.726
X10.174 Y41.872
X10.682 Y42.084
X10.937 Y42.177
X11.707 Y42.417
X12.292 Y42.552
X12.594 Y42.598
X13.810 Y42.716
X14.090 Y42.730
X30.174 Y42.730
ID=1 WHEN $AC_TIMER[1]>=0 DO M89

; Inicio do trecho do raster
; Final do trecho do raster

; Layer 30
G1 Z43.200 F1000

N4550 M63		;POWDER MIXER OFF
N4560 M67		;POWDER FEED OFF
N4570 M65		;CARRIER OFF
N4580 M79     ;GAS 1 OFF

N4590 M0

N4600 M78     ; GAS 1 ON
N4610 M64		;CARRIER ON
N4620 H2 = R3	;SET POWDER FLOW
N4630 M62		;POWDER MIXER ON
N4640 M66		;POWDER FEED ON
N4650 G4F3

X34.5647 Y41.7192 F1000
ID=1 WHEN $AC_TIMER[1]>=0 DO M88
X34.510 Y42.090 F300
X34.376 Y42.465
X34.112 Y42.909
X33.811 Y43.267
X29.730 Y47.347
X29.327 Y47.683
X29.053 Y47.856
X28.720 Y48.004
X28.398 Y48.088
X28.030 Y48.120
X8.104 Y48.120
X7.292 Y48.035
X6.761 Y47.872
X6.255 Y47.597
X5.903 Y47.305
X5.698 Y47.068
X5.593 Y46.921
X5.347 Y46.483
X5.175 Y45.920
X5.090 Y45.106
X5.090 Y24.461
X5.112 Y24.304
X5.160 Y24.207
X5.281 Y24.052
X7.244 Y22.099
X7.290 Y22.065
X7.290 Y34.390
X7.299 Y34.556
X7.445 Y35.822
X7.754 Y36.804
X7.854 Y37.054
X7.962 Y37.272
X8.364 Y37.945
X8.632 Y38.309
X8.962 Y38.689
X9.123 Y38.850
X9.580 Y39.240
X9.860 Y39.450
X10.047 Y39.571
X10.779 Y39.965
X11.119 Y40.099
X11.899 Y40.339
X12.203 Y40.401
X13.420 Y40.520
X33.427 Y40.520
X33.779 Y40.565
X34.031 Y40.653
X34.210 Y40.773
X34.368 Y40.946
X34.487 Y41.164
X34.550 Y41.392
X34.560 Y41.619
ID=1 WHEN $AC_TIMER[1]>=0 DO M89
X29.6043 Y43.4 F1000
ID=1 WHEN $AC_TIMER[1]>=0 DO M88
X27.760 Y45.240 F300
X8.254 Y45.240
X7.997 Y45.213
X7.970 Y44.956
X7.970 Y41.630
X8.297 Y41.869
X8.683 Y42.107
X9.415 Y42.501
X9.720 Y42.643
X10.272 Y42.852
X11.052 Y43.092
X11.627 Y43.223
X11.924 Y43.268
X13.140 Y43.386
X13.420 Y43.400
X29.504 Y43.400
ID=1 WHEN $AC_TIMER[1]>=0 DO M89

; Inicio do trecho do raster
; Final do trecho do raster

; Layer 31
G1 Z44.640 F1000

N4550 M63		;POWDER MIXER OFF
N4560 M67		;POWDER FEED OFF
N4570 M65		;CARRIER OFF
N4580 M79     ;GAS 1 OFF

N4590 M0

N4600 M78     ; GAS 1 ON
N4610 M64		;CARRIER ON
N4620 H2 = R3	;SET POWDER FLOW
N4630 M62		;POWDER MIXER ON
N4640 M66		;POWDER FEED ON
N4650 G4F3

X33.8947 Y42.3909 F1000
ID=1 WHEN $AC_TIMER[1]>=0 DO M88
X33.840 Y42.768 F300
X33.704 Y43.141
X33.475 Y43.538
X33.140 Y43.937
X29.002 Y48.066
X28.711 Y48.316
X28.332 Y48.551
X28.054 Y48.673
X27.728 Y48.758
X27.360 Y48.790
X7.438 Y48.790
X6.585 Y48.696
X6.078 Y48.541
X5.582 Y48.269
X5.473 Y48.190
X5.233 Y47.977
X5.022 Y47.740
X4.926 Y47.606
X4.676 Y47.143
X4.505 Y46.588
X4.420 Y45.776
X4.420 Y25.129
X4.443 Y24.963
X4.471 Y24.902
X4.612 Y24.721
X6.560 Y22.782
X6.620 Y22.739
X6.620 Y35.060
X6.629 Y35.228
X6.750 Y36.325
X6.812 Y36.625
X7.042 Y37.365
X7.269 Y37.883
X7.589 Y38.463
X7.872 Y38.875
X8.306 Y39.375
X8.805 Y39.834
X9.220 Y40.142
X9.377 Y40.241
X10.080 Y40.622
X10.445 Y40.771
X11.235 Y41.011
X11.533 Y41.071
X12.750 Y41.190
X32.739 Y41.190
X33.117 Y41.238
X33.324 Y41.306
X33.546 Y41.450
X33.688 Y41.605
X33.811 Y41.832
X33.880 Y42.071
X33.890 Y42.291
ID=1 WHEN $AC_TIMER[1]>=0 DO M89
X28.9291 Y44.07 F1000
ID=1 WHEN $AC_TIMER[1]>=0 DO M88
X27.085 Y45.910 F300
X7.596 Y45.910
X7.327 Y45.880
X7.300 Y45.626
X7.300 Y42.300
X7.685 Y42.579
X8.004 Y42.773
X8.708 Y43.154
X8.992 Y43.289
X9.608 Y43.527
X10.398 Y43.767
X10.962 Y43.894
X11.254 Y43.938
X12.470 Y44.056
X12.750 Y44.070
X28.829 Y44.070
ID=1 WHEN $AC_TIMER[1]>=0 DO M89

; Inicio do trecho do raster
; Final do trecho do raster

; Layer 32
G1 Z46.080 F1000

N4550 M63		;POWDER MIXER OFF
N4560 M67		;POWDER FEED OFF
N4570 M65		;CARRIER OFF
N4580 M79     ;GAS 1 OFF

N4590 M0

N4600 M78     ; GAS 1 ON
N4610 M64		;CARRIER ON
N4620 H2 = R3	;SET POWDER FLOW
N4630 M62		;POWDER MIXER ON
N4640 M66		;POWDER FEED ON
N4650 G4F3

X33.2245 Y43.0855 F1000
ID=1 WHEN $AC_TIMER[1]>=0 DO M88
X33.164 Y43.458 F300
X33.034 Y43.820
X32.800 Y44.220
X32.474 Y44.603
X28.341 Y48.727
X28.037 Y48.989
X27.686 Y49.208
X27.361 Y49.348
X27.035 Y49.427
X26.677 Y49.460
X6.769 Y49.460
X5.920 Y49.366
X5.355 Y49.192
X4.916 Y48.942
X4.803 Y48.860
X4.563 Y48.647
X4.352 Y48.410
X4.256 Y48.276
X4.000 Y47.810
X3.827 Y47.222
X3.750 Y46.450
X3.750 Y25.796
X3.771 Y25.642
X3.807 Y25.567
X3.945 Y25.388
X5.877 Y23.456
X5.950 Y23.404
X5.950 Y35.780
X6.069 Y36.972
X6.131 Y37.271
X6.371 Y38.051
X6.589 Y38.543
X6.909 Y39.123
X7.208 Y39.554
X7.636 Y40.045
X8.135 Y40.504
X8.549 Y40.808
X9.400 Y41.292
X9.774 Y41.444
X10.614 Y41.694
X10.912 Y41.752
X12.080 Y41.860
X32.063 Y41.860
X32.422 Y41.899
X32.678 Y41.993
X32.872 Y42.117
X33.022 Y42.281
X33.141 Y42.495
X33.209 Y42.736
X33.220 Y42.986
ID=1 WHEN $AC_TIMER[1]>=0 DO M89
X28.2591 Y44.74 F1000
ID=1 WHEN $AC_TIMER[1]>=0 DO M88
X26.415 Y46.580 F300
X6.928 Y46.580
X6.654 Y46.550
X6.630 Y46.307
X6.630 Y42.972
X6.844 Y43.129
X7.126 Y43.312
X7.977 Y43.796
X8.318 Y43.961
X8.952 Y44.204
X9.792 Y44.454
X10.357 Y44.578
X10.648 Y44.620
X11.815 Y44.728
X12.080 Y44.740
X28.159 Y44.740
ID=1 WHEN $AC_TIMER[1]>=0 DO M89

; Inicio do trecho do raster
; Final do trecho do raster

; Layer 33
G1 Z47.520 F1000

N4550 M63		;POWDER MIXER OFF
N4560 M67		;POWDER FEED OFF
N4570 M65		;CARRIER OFF
N4580 M79     ;GAS 1 OFF

N4590 M0

N4600 M78     ; GAS 1 ON
N4610 M64		;CARRIER ON
N4620 H2 = R3	;SET POWDER FLOW
N4630 M62		;POWDER MIXER ON
N4640 M66		;POWDER FEED ON
N4650 G4F3

X32.5522 Y43.7497 F1000
ID=1 WHEN $AC_TIMER[1]>=0 DO M88
X32.495 Y44.105 F300
X32.353 Y44.495
X32.131 Y44.883
X31.809 Y45.268
X27.678 Y49.389
X27.343 Y49.682
X27.050 Y49.866
X26.707 Y50.010
X26.367 Y50.098
X26.009 Y50.130
X6.065 Y50.130
X5.277 Y50.046
X4.678 Y49.857
X4.256 Y49.621
X4.137 Y49.534
X3.893 Y49.317
X3.685 Y49.084
X3.564 Y48.911
X3.315 Y48.444
X3.155 Y47.920
X3.070 Y47.116
X3.070 Y26.478
X3.092 Y26.333
X3.129 Y26.251
X3.331 Y26.002
X5.201 Y24.132
X5.270 Y24.082
X5.278 Y36.560
X5.389 Y37.617
X5.451 Y37.922
X5.701 Y38.732
X5.834 Y39.061
X6.234 Y39.791
X6.636 Y40.345
X7.095 Y40.844
X7.609 Y41.288
X8.009 Y41.561
X8.589 Y41.891
X8.941 Y42.049
X9.903 Y42.350
X10.202 Y42.411
X11.410 Y42.530
X31.374 Y42.530
X31.755 Y42.571
X31.997 Y42.656
X32.192 Y42.783
X32.342 Y42.944
X32.456 Y43.153
X32.533 Y43.433
X32.546 Y43.650
ID=1 WHEN $AC_TIMER[1]>=0 DO M89
X27.589 Y45.41 F1000
ID=1 WHEN $AC_TIMER[1]>=0 DO M88
X25.745 Y47.250 F300
X6.219 Y47.250
X5.978 Y47.224
X5.950 Y46.964
X5.950 Y43.640
X6.585 Y44.064
X7.165 Y44.394
X7.756 Y44.675
X8.081 Y44.798
X9.044 Y45.099
X9.628 Y45.233
X9.920 Y45.277
X11.128 Y45.396
X11.410 Y45.410
X27.489 Y45.410
ID=1 WHEN $AC_TIMER[1]>=0 DO M89

; Inicio do trecho do raster
; Final do trecho do raster

; Layer 34
G1 Z48.960 F1000

N4550 M63		;POWDER MIXER OFF
N4560 M67		;POWDER FEED OFF
N4570 M65		;CARRIER OFF
N4580 M79     ;GAS 1 OFF

N4590 M0

N4600 M78     ; GAS 1 ON
N4610 M64		;CARRIER ON
N4620 H2 = R3	;SET POWDER FLOW
N4630 M62		;POWDER MIXER ON
N4640 M66		;POWDER FEED ON
N4650 G4F3

X31.9133 Y44.3987 F1000
ID=1 WHEN $AC_TIMER[1]>=0 DO M88
X31.878 Y44.735 F300
X31.737 Y45.150
X31.592 Y45.420
X31.319 Y45.758
X27.018 Y50.050
X26.680 Y50.344
X26.371 Y50.540
X26.038 Y50.683
X25.761 Y50.756
X25.457 Y50.780
X5.588 Y50.780
X4.907 Y50.705
X4.322 Y50.532
X3.803 Y50.254
X3.337 Y49.873
X2.959 Y49.410
X2.674 Y48.872
X2.496 Y48.301
X2.430 Y47.631
X2.440 Y27.080
X2.466 Y26.916
X2.610 Y26.732
X4.620 Y24.716
X4.630 Y36.911
X4.728 Y37.977
X4.752 Y38.138
X5.062 Y39.164
X5.177 Y39.440
X5.607 Y40.250
X5.781 Y40.512
X6.469 Y41.341
X7.298 Y42.029
X7.552 Y42.199
X8.501 Y42.700
X9.537 Y43.014
X9.815 Y43.070
X10.725 Y43.170
X10.901 Y43.180
X30.628 Y43.170
X31.080 Y43.222
X31.292 Y43.302
X31.505 Y43.445
X31.679 Y43.632
X31.811 Y43.857
X31.890 Y44.103
X31.905 Y44.299
ID=1 WHEN $AC_TIMER[1]>=0 DO M89
X26.9478 Y46.0511 F1000
ID=1 WHEN $AC_TIMER[1]>=0 DO M88
X25.095 Y47.900 F300
X5.745 Y47.900
X5.476 Y47.870
X5.411 Y47.848
X5.369 Y47.808
X5.333 Y47.726
X5.310 Y47.490
X5.312 Y44.124
X5.459 Y44.246
X5.952 Y44.594
X6.209 Y44.747
X7.158 Y45.247
X7.406 Y45.363
X7.664 Y45.455
X8.699 Y45.770
X9.248 Y45.894
X9.501 Y45.933
X10.744 Y46.056
X26.848 Y46.051
ID=1 WHEN $AC_TIMER[1]>=0 DO M89

; Inicio do trecho do raster
; Final do trecho do raster

; Layer 35
G1 Z50.400 F1000

N4550 M63		;POWDER MIXER OFF
N4560 M67		;POWDER FEED OFF
N4570 M65		;CARRIER OFF
N4580 M79     ;GAS 1 OFF

N4590 M0

N4600 M78     ; GAS 1 ON
N4610 M64		;CARRIER ON
N4620 H2 = R3	;SET POWDER FLOW
N4630 M62		;POWDER MIXER ON
N4640 M66		;POWDER FEED ON
N4650 G4F3

X31.5857 Y44.7938 F1000
ID=1 WHEN $AC_TIMER[1]>=0 DO M88
X31.576 Y45.095 F300
X31.503 Y45.383
X31.368 Y45.648
X31.126 Y45.951
X26.458 Y50.619
X26.228 Y50.812
X26.038 Y50.931
X25.838 Y51.013
X25.616 Y51.066
X25.323 Y51.090
X5.561 Y51.090
X4.864 Y51.009
X4.214 Y50.814
X3.636 Y50.505
X3.126 Y50.084
X2.705 Y49.574
X2.396 Y48.996
X2.201 Y48.349
X2.110 Y47.612
X2.127 Y27.226
X4.310 Y25.023
X4.310 Y36.910
X4.322 Y37.106
X4.442 Y38.076
X4.498 Y38.341
X4.778 Y39.271
X4.899 Y39.565
X5.359 Y40.425
X5.537 Y40.689
X6.157 Y41.439
X6.371 Y41.653
X7.121 Y42.273
X7.385 Y42.451
X8.245 Y42.911
X8.539 Y43.032
X9.469 Y43.312
X9.729 Y43.367
X10.517 Y43.465
X10.900 Y43.490
X30.123 Y43.490
X30.498 Y43.531
X30.791 Y43.632
X31.049 Y43.782
X31.257 Y43.976
X31.422 Y44.219
X31.533 Y44.494
X31.568 Y44.695
ID=1 WHEN $AC_TIMER[1]>=0 DO M89
X26.6343 Y46.37 F1000
ID=1 WHEN $AC_TIMER[1]>=0 DO M88
X24.794 Y48.210 F300
X5.727 Y48.210
X5.448 Y48.178
X5.319 Y48.139
X5.249 Y48.101
X5.172 Y48.038
X5.109 Y47.961
X5.071 Y47.891
X5.029 Y47.753
X4.990 Y47.436
X4.993 Y44.251
X5.286 Y44.493
X5.781 Y44.842
X6.027 Y44.990
X6.887 Y45.450
X7.439 Y45.694
X7.708 Y45.790
X8.638 Y46.070
X9.131 Y46.184
X9.374 Y46.225
X10.332 Y46.339
X10.900 Y46.370
X26.534 Y46.370
ID=1 WHEN $AC_TIMER[1]>=0 DO M89

; Inicio do trecho do raster
; Final do trecho do raster

; Layer 36
G1 Z51.840 F1000

N4550 M63		;POWDER MIXER OFF
N4560 M67		;POWDER FEED OFF
N4570 M65		;CARRIER OFF
N4580 M79     ;GAS 1 OFF

N4590 M0

N4600 M78     ; GAS 1 ON
N4610 M64		;CARRIER ON
N4620 H2 = R3	;SET POWDER FLOW
N4630 M62		;POWDER MIXER ON
N4640 M66		;POWDER FEED ON
N4650 G4F3

X31.7111 Y44.6414 F1000
ID=1 WHEN $AC_TIMER[1]>=0 DO M88
X31.686 Y44.957 F300
X31.600 Y45.277
X31.456 Y45.556
X31.202 Y45.865
X26.742 Y50.335
X26.399 Y50.628
X26.151 Y50.784
X25.852 Y50.908
X25.681 Y50.952
X25.391 Y50.970
X5.576 Y50.980
X4.890 Y50.902
X4.252 Y50.713
X3.695 Y50.415
X3.197 Y50.004
X2.796 Y49.516
X2.495 Y48.953
X2.305 Y48.330
X2.230 Y47.625
X2.230 Y27.224
X2.254 Y27.100
X2.325 Y27.008
X4.430 Y24.903
X4.430 Y36.910
X4.539 Y38.019
X4.599 Y38.316
X4.879 Y39.236
X5.000 Y39.526
X5.450 Y40.366
X5.624 Y40.626
X6.224 Y41.356
X6.442 Y41.575
X7.182 Y42.185
X7.444 Y42.360
X8.432 Y42.880
X9.495 Y43.204
X9.729 Y43.255
X10.227 Y43.323
X10.900 Y43.380
X30.315 Y43.380
X30.715 Y43.422
X31.004 Y43.520
X31.238 Y43.661
X31.417 Y43.839
X31.558 Y44.060
X31.673 Y44.372
X31.697 Y44.542
ID=1 WHEN $AC_TIMER[1]>=0 DO M89
X26.7398 Y46.26 F1000
ID=1 WHEN $AC_TIMER[1]>=0 DO M88
X24.914 Y48.090 F300
X5.739 Y48.100
X5.467 Y48.069
X5.307 Y48.011
X5.201 Y47.906
X5.140 Y47.753
X5.110 Y47.472
X5.110 Y44.209
X5.350 Y44.407
X5.841 Y44.753
X6.103 Y44.909
X7.090 Y45.428
X7.336 Y45.543
X7.592 Y45.635
X8.655 Y45.959
X9.119 Y46.069
X9.982 Y46.192
X10.900 Y46.260
X26.640 Y46.260
ID=1 WHEN $AC_TIMER[1]>=0 DO M89

; Inicio do trecho do raster
; Final do trecho do raster

; Layer 37
G1 Z53.280 F1000

N4550 M63		;POWDER MIXER OFF
N4560 M67		;POWDER FEED OFF
N4570 M65		;CARRIER OFF
N4580 M79     ;GAS 1 OFF

N4590 M0

N4600 M78     ; GAS 1 ON
N4610 M64		;CARRIER ON
N4620 H2 = R3	;SET POWDER FLOW
N4630 M62		;POWDER MIXER ON
N4640 M66		;POWDER FEED ON
N4650 G4F3

X32.2548 Y44.0387 F1000
ID=1 WHEN $AC_TIMER[1]>=0 DO M88
X32.200 Y44.413 F300
X32.073 Y44.771
X31.816 Y45.208
X31.556 Y45.521
X27.413 Y49.664
X27.067 Y49.960
X26.741 Y50.167
X26.410 Y50.314
X26.089 Y50.397
X25.711 Y50.430
X5.793 Y50.430
X4.977 Y50.345
X4.426 Y50.171
X4.020 Y49.941
X3.616 Y49.600
X3.292 Y49.221
X3.012 Y48.721
X2.866 Y48.234
X2.780 Y47.416
X2.780 Y26.776
X2.807 Y26.588
X2.826 Y26.547
X2.970 Y26.363
X4.922 Y24.420
X4.980 Y24.378
X4.989 Y36.867
X5.099 Y37.917
X5.157 Y38.210
X5.397 Y39.010
X5.499 Y39.266
X5.661 Y39.581
X6.038 Y40.210
X6.293 Y40.551
X6.683 Y40.991
X6.848 Y41.153
X7.488 Y41.693
X7.731 Y41.862
X8.331 Y42.202
X8.542 Y42.302
X8.968 Y42.462
X9.598 Y42.652
X9.893 Y42.711
X11.110 Y42.830
X31.064 Y42.830
X31.457 Y42.872
X31.694 Y42.951
X31.890 Y43.081
X32.047 Y43.248
X32.160 Y43.452
X32.242 Y43.747
X32.250 Y43.939
ID=1 WHEN $AC_TIMER[1]>=0 DO M89
X27.2943 Y45.71 F1000
ID=1 WHEN $AC_TIMER[1]>=0 DO M88
X25.454 Y47.550 F300
X5.942 Y47.550
X5.687 Y47.524
X5.660 Y47.266
X5.660 Y43.915
X6.086 Y44.226
X6.311 Y44.368
X7.098 Y44.805
X7.530 Y44.998
X8.136 Y45.219
X8.766 Y45.409
X9.325 Y45.535
X9.614 Y45.578
X10.830 Y45.696
X11.110 Y45.710
X27.194 Y45.710
ID=1 WHEN $AC_TIMER[1]>=0 DO M89

; Inicio do trecho do raster
; Final do trecho do raster

; Layer 38
G1 Z54.720 F1000

N4550 M63		;POWDER MIXER OFF
N4560 M67		;POWDER FEED OFF
N4570 M65		;CARRIER OFF
N4580 M79     ;GAS 1 OFF

N4590 M0

N4600 M78     ; GAS 1 ON
N4610 M64		;CARRIER ON
N4620 H2 = R3	;SET POWDER FLOW
N4630 M62		;POWDER MIXER ON
N4640 M66		;POWDER FEED ON
N4650 G4F3

X32.9247 Y43.3592 F1000
ID=1 WHEN $AC_TIMER[1]>=0 DO M88
X32.870 Y43.730 F300
X32.734 Y44.109
X32.505 Y44.500
X32.164 Y44.913
X28.083 Y48.994
X27.737 Y49.290
X27.411 Y49.497
X27.080 Y49.644
X26.758 Y49.728
X26.390 Y49.760
X6.469 Y49.760
X5.632 Y49.666
X5.077 Y49.499
X4.618 Y49.237
X4.486 Y49.145
X4.262 Y48.945
X4.050 Y48.699
X3.947 Y48.560
X3.705 Y48.127
X3.536 Y47.564
X3.450 Y46.746
X3.450 Y26.096
X3.474 Y25.931
X3.502 Y25.872
X3.643 Y25.690
X5.566 Y23.767
X5.650 Y23.707
X5.658 Y36.186
X5.793 Y37.425
X6.085 Y38.373
X6.284 Y38.823
X6.604 Y39.413
X6.742 Y39.626
X7.016 Y39.975
X7.459 Y40.459
X7.819 Y40.789
X7.979 Y40.918
X8.399 Y41.202
X9.129 Y41.596
X9.453 Y41.727
X10.253 Y41.977
X10.563 Y42.041
X11.780 Y42.160
X31.735 Y42.160
X32.131 Y42.202
X32.381 Y42.288
X32.572 Y42.413
X32.722 Y42.574
X32.839 Y42.789
X32.910 Y43.038
X32.920 Y43.259
ID=1 WHEN $AC_TIMER[1]>=0 DO M89
X27.9643 Y45.04 F1000
ID=1 WHEN $AC_TIMER[1]>=0 DO M88
X26.124 Y46.880 F300
X6.630 Y46.880
X6.357 Y46.849
X6.330 Y46.596
X6.330 Y43.276
X6.787 Y43.589
X7.031 Y43.736
X7.761 Y44.130
X8.047 Y44.265
X8.594 Y44.476
X9.394 Y44.726
X9.981 Y44.862
X10.284 Y44.908
X11.500 Y45.026
X11.780 Y45.040
X27.864 Y45.040
ID=1 WHEN $AC_TIMER[1]>=0 DO M89

; Inicio do trecho do raster
; Final do trecho do raster

; Layer 39
G1 Z56.160 F1000

N4550 M63		;POWDER MIXER OFF
N4560 M67		;POWDER FEED OFF
N4570 M65		;CARRIER OFF
N4580 M79     ;GAS 1 OFF

N4590 M0

N4600 M78     ; GAS 1 ON
N4610 M64		;CARRIER ON
N4620 H2 = R3	;SET POWDER FLOW
N4630 M62		;POWDER MIXER ON
N4640 M66		;POWDER FEED ON
N4650 G4F3

X33.5947 Y42.6892 F1000
ID=1 WHEN $AC_TIMER[1]>=0 DO M88
X33.540 Y43.060 F300
X33.404 Y43.439
X33.175 Y43.830
X32.834 Y44.243
X28.753 Y48.324
X28.407 Y48.620
X28.081 Y48.827
X27.750 Y48.974
X27.428 Y49.058
X27.060 Y49.090
X7.139 Y49.090
X6.303 Y48.997
X5.713 Y48.806
X5.286 Y48.571
X5.170 Y48.485
X4.923 Y48.258
X4.714 Y48.021
X4.629 Y47.906
X4.357 Y47.389
X4.205 Y46.891
X4.120 Y46.076
X4.120 Y25.418
X4.140 Y25.283
X4.182 Y25.188
X4.313 Y25.020
X6.236 Y23.097
X6.320 Y23.037
X6.320 Y35.360
X6.330 Y35.537
X6.450 Y36.617
X6.511 Y36.911
X6.805 Y37.841
X6.975 Y38.212
X7.404 Y38.932
X7.696 Y39.315
X8.026 Y39.685
X8.602 Y40.204
X8.852 Y40.394
X9.052 Y40.524
X9.692 Y40.874
X10.127 Y41.055
X11.074 Y41.346
X12.283 Y41.481
X12.450 Y41.490
X32.408 Y41.490
X32.819 Y41.532
X33.054 Y41.615
X33.223 Y41.726
X33.388 Y41.907
X33.511 Y42.132
X33.580 Y42.371
X33.590 Y42.589
ID=1 WHEN $AC_TIMER[1]>=0 DO M89
X28.6343 Y44.37 F1000
ID=1 WHEN $AC_TIMER[1]>=0 DO M88
X26.794 Y46.210 F300
X7.298 Y46.210
X7.027 Y46.180
X7.000 Y45.926
X7.000 Y42.600
X7.285 Y42.810
X7.670 Y43.051
X8.310 Y43.401
X8.582 Y43.531
X9.017 Y43.713
X9.281 Y43.808
X10.227 Y44.099
X10.488 Y44.166
X10.754 Y44.209
X12.133 Y44.357
X12.450 Y44.370
X28.534 Y44.370
ID=1 WHEN $AC_TIMER[1]>=0 DO M89

; Inicio do trecho do raster
; Final do trecho do raster

; Layer 40
G1 Z57.600 F1000

N4550 M63		;POWDER MIXER OFF
N4560 M67		;POWDER FEED OFF
N4570 M65		;CARRIER OFF
N4580 M79     ;GAS 1 OFF

N4590 M0

N4600 M78     ; GAS 1 ON
N4610 M64		;CARRIER ON
N4620 H2 = R3	;SET POWDER FLOW
N4630 M62		;POWDER MIXER ON
N4640 M66		;POWDER FEED ON
N4650 G4F3

X34.2722 Y42.0197 F1000
ID=1 WHEN $AC_TIMER[1]>=0 DO M88
X34.214 Y42.379 F300
X34.071 Y42.778
X33.853 Y43.160
X33.510 Y43.567
X29.417 Y47.660
X29.085 Y47.950
X28.768 Y48.147
X28.428 Y48.293
X28.092 Y48.381
X27.717 Y48.420
X7.804 Y48.420
X6.998 Y48.336
X6.395 Y48.138
X5.965 Y47.897
X5.824 Y47.791
X5.576 Y47.570
X5.394 Y47.363
X5.294 Y47.223
X5.049 Y46.783
X4.875 Y46.219
X4.790 Y45.397
X4.790 Y24.738
X4.808 Y24.617
X4.849 Y24.528
X4.986 Y24.357
X6.928 Y22.415
X6.990 Y22.369
X6.990 Y34.680
X6.999 Y34.854
X7.145 Y36.113
X7.485 Y37.181
X7.655 Y37.552
X8.084 Y38.272
X8.370 Y38.649
X8.670 Y38.989
X8.805 Y39.124
X9.310 Y39.562
X9.751 Y39.863
X10.463 Y40.250
X10.819 Y40.399
X11.758 Y40.679
X13.120 Y40.820
X33.079 Y40.820
X33.500 Y40.863
X33.700 Y40.933
X33.910 Y41.073
X34.072 Y41.251
X34.187 Y41.457
X34.253 Y41.700
X34.266 Y41.920
ID=1 WHEN $AC_TIMER[1]>=0 DO M89
X29.3043 Y43.7 F1000
ID=1 WHEN $AC_TIMER[1]>=0 DO M88
X27.464 Y45.540 F300
X7.954 Y45.540
X7.697 Y45.513
X7.670 Y45.248
X7.670 Y41.928
X8.126 Y42.241
X8.376 Y42.394
X9.089 Y42.781
X9.349 Y42.906
X9.705 Y43.055
X9.996 Y43.159
X10.934 Y43.439
X11.195 Y43.504
X11.462 Y43.544
X12.824 Y43.685
X13.120 Y43.700
X29.204 Y43.700
ID=1 WHEN $AC_TIMER[1]>=0 DO M89

; Inicio do trecho do raster
; Final do trecho do raster

; Layer 41
G1 Z59.040 F1000

N4550 M63		;POWDER MIXER OFF
N4560 M67		;POWDER FEED OFF
N4570 M65		;CARRIER OFF
N4580 M79     ;GAS 1 OFF

N4590 M0

N4600 M78     ; GAS 1 ON
N4610 M64		;CARRIER ON
N4620 H2 = R3	;SET POWDER FLOW
N4630 M62		;POWDER MIXER ON
N4640 M66		;POWDER FEED ON
N4650 G4F3

X34.9422 Y41.3497 F1000
ID=1 WHEN $AC_TIMER[1]>=0 DO M88
X34.884 Y41.709 F300
X34.741 Y42.108
X34.526 Y42.484
X34.185 Y42.882
X30.087 Y46.980
X29.747 Y47.277
X29.428 Y47.482
X29.098 Y47.623
X28.776 Y47.708
X28.401 Y47.740
X8.476 Y47.740
X7.607 Y47.646
X7.131 Y47.498
X6.666 Y47.249
X6.483 Y47.110
X6.269 Y46.922
X6.062 Y46.690
X5.963 Y46.551
X5.723 Y46.107
X5.545 Y45.535
X5.460 Y44.726
X5.460 Y24.109
X5.512 Y23.861
X5.649 Y23.694
X7.593 Y21.750
X7.660 Y21.701
X7.669 Y34.177
X7.779 Y35.227
X7.843 Y35.538
X8.103 Y36.368
X8.325 Y36.873
X8.645 Y37.443
X8.777 Y37.642
X9.048 Y37.986
X9.338 Y38.316
X9.491 Y38.468
X9.960 Y38.870
X10.240 Y39.080
X10.440 Y39.208
X11.200 Y39.611
X11.512 Y39.733
X12.282 Y39.963
X12.573 Y40.021
X13.790 Y40.140
X33.739 Y40.140
X34.165 Y40.189
X34.385 Y40.267
X34.588 Y40.396
X34.734 Y40.550
X34.847 Y40.755
X34.923 Y41.033
X34.936 Y41.250
ID=1 WHEN $AC_TIMER[1]>=0 DO M89
X29.9743 Y43.02 F1000
ID=1 WHEN $AC_TIMER[1]>=0 DO M88
X28.134 Y44.860 F300
X8.631 Y44.860
X8.367 Y44.831
X8.340 Y44.576
X8.340 Y41.253
X8.688 Y41.506
X9.091 Y41.753
X9.851 Y42.155
X10.149 Y42.292
X10.688 Y42.493
X11.458 Y42.723
X12.009 Y42.845
X12.294 Y42.888
X13.510 Y43.006
X13.790 Y43.020
X29.874 Y43.020
ID=1 WHEN $AC_TIMER[1]>=0 DO M89

; Inicio do trecho do raster
; Final do trecho do raster

; Layer 42
G1 Z60.480 F1000

N4550 M63		;POWDER MIXER OFF
N4560 M67		;POWDER FEED OFF
N4570 M65		;CARRIER OFF
N4580 M79     ;GAS 1 OFF

N4590 M0

N4600 M78     ; GAS 1 ON
N4610 M64		;CARRIER ON
N4620 H2 = R3	;SET POWDER FLOW
N4630 M62		;POWDER MIXER ON
N4640 M66		;POWDER FEED ON
N4650 G4F3

X35.6123 Y40.6789 F1000
ID=1 WHEN $AC_TIMER[1]>=0 DO M88
X35.554 Y41.039 F300
X35.411 Y41.438
X35.196 Y41.814
X34.855 Y42.212
X30.757 Y46.310
X30.417 Y46.607
X30.093 Y46.814
X29.776 Y46.953
X29.449 Y47.037
X29.071 Y47.070
X9.153 Y47.070
X8.335 Y46.985
X7.678 Y46.773
X7.351 Y46.590
X7.159 Y46.442
X6.916 Y46.220
X6.743 Y46.022
X6.630 Y45.866
X6.392 Y45.424
X6.214 Y44.862
X6.130 Y44.056
X6.130 Y23.439
X6.166 Y23.237
X6.188 Y23.192
X6.328 Y23.015
X8.263 Y21.080
X8.330 Y21.031
X8.339 Y33.507
X8.449 Y34.557
X8.512 Y34.863
X8.828 Y35.857
X9.320 Y36.764
X9.603 Y37.171
X10.084 Y37.713
X10.630 Y38.200
X10.910 Y38.410
X11.119 Y38.543
X11.880 Y38.941
X12.187 Y39.061
X12.947 Y39.291
X13.245 Y39.351
X14.470 Y39.470
X34.415 Y39.470
X34.800 Y39.511
X35.086 Y39.614
X35.246 Y39.717
X35.394 Y39.876
X35.535 Y40.131
X35.593 Y40.347
X35.606 Y40.579
ID=1 WHEN $AC_TIMER[1]>=0 DO M89
X30.6443 Y42.35 F1000
ID=1 WHEN $AC_TIMER[1]>=0 DO M88
X28.804 Y44.190 F300
X9.302 Y44.190
X9.037 Y44.163
X9.010 Y43.906
X9.010 Y40.582
X9.366 Y40.841
X9.785 Y41.095
X10.545 Y41.493
X10.825 Y41.621
X11.352 Y41.818
X12.112 Y42.048
X12.677 Y42.175
X12.967 Y42.218
X14.193 Y42.337
X14.470 Y42.350
X30.544 Y42.350
ID=1 WHEN $AC_TIMER[1]>=0 DO M89

; Inicio do trecho do raster
; Final do trecho do raster

; Layer 43
G1 Z61.920 F1000

N4550 M63		;POWDER MIXER OFF
N4560 M67		;POWDER FEED OFF
N4570 M65		;CARRIER OFF
N4580 M79     ;GAS 1 OFF

N4590 M0

N4600 M78     ; GAS 1 ON
N4610 M64		;CARRIER ON
N4620 H2 = R3	;SET POWDER FLOW
N4630 M62		;POWDER MIXER ON
N4640 M66		;POWDER FEED ON
N4650 G4F3

X36.2826 Y40.0145 F1000
ID=1 WHEN $AC_TIMER[1]>=0 DO M88
X36.223 Y40.400 F300
X36.094 Y40.759
X35.868 Y41.144
X35.529 Y41.548
X31.443 Y45.634
X31.097 Y45.930
X30.771 Y46.137
X30.440 Y46.284
X30.119 Y46.367
X29.741 Y46.400
X9.823 Y46.400
X9.005 Y46.315
X8.365 Y46.107
X7.969 Y45.876
X7.810 Y45.756
X7.626 Y45.589
X7.408 Y45.346
X7.308 Y45.208
X7.044 Y44.717
X6.887 Y44.206
X6.810 Y43.394
X6.810 Y22.704
X6.827 Y22.595
X6.875 Y22.491
X6.996 Y22.337
X8.941 Y20.401
X9.010 Y20.349
X9.017 Y32.822
X9.141 Y34.032
X9.410 Y34.939
X9.490 Y35.147
X9.679 Y35.542
X9.949 Y36.032
X10.264 Y36.488
X10.765 Y37.055
X11.322 Y37.546
X11.775 Y37.860
X12.335 Y38.170
X12.861 Y38.390
X13.611 Y38.620
X13.915 Y38.681
X15.140 Y38.800
X35.094 Y38.800
X35.487 Y38.842
X35.678 Y38.906
X35.967 Y39.090
X36.071 Y39.201
X36.188 Y39.416
X36.263 Y39.685
X36.277 Y39.915
ID=1 WHEN $AC_TIMER[1]>=0 DO M89
X31.3243 Y41.68 F1000
ID=1 WHEN $AC_TIMER[1]>=0 DO M88
X29.484 Y43.520 F300
X9.972 Y43.520
X9.712 Y43.493
X9.690 Y43.257
X9.690 Y39.919
X10.136 Y40.228
X10.380 Y40.380
X10.940 Y40.690
X11.224 Y40.827
X11.750 Y41.047
X12.017 Y41.143
X12.767 Y41.373
X13.341 Y41.504
X13.637 Y41.548
X14.863 Y41.667
X15.140 Y41.680
X31.224 Y41.680
ID=1 WHEN $AC_TIMER[1]>=0 DO M89

; Inicio do trecho do raster
; Final do trecho do raster

; Layer 44
G1 Z63.360 F1000

N4550 M63		;POWDER MIXER OFF
N4560 M67		;POWDER FEED OFF
N4570 M65		;CARRIER OFF
N4580 M79     ;GAS 1 OFF

N4590 M0

N4600 M78     ; GAS 1 ON
N4610 M64		;CARRIER ON
N4620 H2 = R3	;SET POWDER FLOW
N4630 M62		;POWDER MIXER ON
N4640 M66		;POWDER FEED ON
N4650 G4F3

X36.9548 Y39.3387 F1000
ID=1 WHEN $AC_TIMER[1]>=0 DO M88
X36.901 Y39.706 F300
X36.764 Y40.081
X36.535 Y40.478
X36.199 Y40.878
X32.113 Y44.964
X31.767 Y45.260
X31.441 Y45.467
X31.110 Y45.614
X30.789 Y45.697
X30.411 Y45.730
X10.494 Y45.730
X9.671 Y45.644
X9.178 Y45.499
X9.033 Y45.431
X8.629 Y45.196
X8.469 Y45.075
X8.295 Y44.918
X8.087 Y44.685
X7.979 Y44.531
X7.710 Y44.027
X7.583 Y43.626
X7.480 Y42.711
X7.480 Y22.026
X7.496 Y21.923
X7.546 Y21.821
X7.670 Y21.663
X9.605 Y19.727
X9.680 Y19.673
X9.680 Y32.000
X9.690 Y32.178
X9.847 Y33.501
X10.130 Y34.390
X10.377 Y34.925
X10.778 Y35.600
X11.036 Y35.945
X11.495 Y36.444
X12.012 Y36.891
X12.444 Y37.184
X13.142 Y37.567
X13.560 Y37.735
X14.310 Y37.955
X14.593 Y38.011
X15.810 Y38.130
X35.764 Y38.130
X36.157 Y38.172
X36.388 Y38.249
X36.632 Y38.413
X36.739 Y38.529
X36.885 Y38.799
X36.940 Y38.999
X36.950 Y39.239
ID=1 WHEN $AC_TIMER[1]>=0 DO M89
X31.9943 Y41.01 F1000
ID=1 WHEN $AC_TIMER[1]>=0 DO M88
X30.154 Y42.850 F300
X10.644 Y42.850
X10.391 Y42.823
X10.360 Y42.550
X10.360 Y39.247
X10.827 Y39.567
X11.057 Y39.708
X11.755 Y40.091
X12.067 Y40.239
X12.485 Y40.407
X12.749 Y40.499
X13.499 Y40.719
X14.036 Y40.837
X14.314 Y40.878
X15.530 Y40.996
X15.810 Y41.010
X31.894 Y41.010
ID=1 WHEN $AC_TIMER[1]>=0 DO M89

; Inicio do trecho do raster
; Final do trecho do raster

; Layer 45
G1 Z64.800 F1000

N4550 M63		;POWDER MIXER OFF
N4560 M67		;POWDER FEED OFF
N4570 M65		;CARRIER OFF
N4580 M79     ;GAS 1 OFF

N4590 M0

N4600 M78     ; GAS 1 ON
N4610 M64		;CARRIER ON
N4620 H2 = R3	;SET POWDER FLOW
N4630 M62		;POWDER MIXER ON
N4640 M66		;POWDER FEED ON
N4650 G4F3

X37.6247 Y38.6592 F1000
ID=1 WHEN $AC_TIMER[1]>=0 DO M88
X37.570 Y39.030 F300
X37.434 Y39.409
X37.205 Y39.800
X36.864 Y40.213
X32.783 Y44.294
X32.437 Y44.590
X32.111 Y44.797
X31.780 Y44.944
X31.458 Y45.028
X31.090 Y45.060
X11.164 Y45.060
X10.344 Y44.974
X9.862 Y44.831
X9.680 Y44.745
X9.350 Y44.562
X9.195 Y44.453
X8.971 Y44.254
X8.691 Y43.921
X8.419 Y43.444
X8.236 Y42.863
X8.150 Y42.046
X8.150 Y21.375
X8.180 Y21.223
X8.214 Y21.154
X8.340 Y20.993
X10.268 Y19.065
X10.350 Y19.006
X10.359 Y31.497
X10.469 Y32.547
X10.530 Y32.848
X10.848 Y33.858
X11.353 Y34.780
X11.517 Y35.020
X11.997 Y35.600
X12.165 Y35.774
X12.535 Y36.104
X12.982 Y36.431
X13.822 Y36.897
X14.234 Y37.064
X14.974 Y37.284
X15.263 Y37.341
X16.480 Y37.460
X36.434 Y37.460
X36.827 Y37.502
X37.074 Y37.585
X37.267 Y37.708
X37.417 Y37.868
X37.534 Y38.079
X37.610 Y38.343
X37.620 Y38.559
ID=1 WHEN $AC_TIMER[1]>=0 DO M89
X32.6643 Y40.34 F1000
ID=1 WHEN $AC_TIMER[1]>=0 DO M88
X30.824 Y42.180 F300
X11.314 Y42.180
X11.057 Y42.153
X11.030 Y41.896
X11.030 Y38.571
X11.284 Y38.757
X11.584 Y38.948
X12.423 Y39.415
X12.744 Y39.568
X13.156 Y39.734
X13.413 Y39.824
X14.153 Y40.044
X14.700 Y40.166
X14.984 Y40.208
X16.200 Y40.326
X16.480 Y40.340
X32.564 Y40.340
ID=1 WHEN $AC_TIMER[1]>=0 DO M89

; Inicio do trecho do raster
; Final do trecho do raster

; Layer 46
G1 Z66.240 F1000

N4550 M63		;POWDER MIXER OFF
N4560 M67		;POWDER FEED OFF
N4570 M65		;CARRIER OFF
N4580 M79     ;GAS 1 OFF

N4590 M0

N4600 M78     ; GAS 1 ON
N4610 M64		;CARRIER ON
N4620 H2 = R3	;SET POWDER FLOW
N4630 M62		;POWDER MIXER ON
N4640 M66		;POWDER FEED ON
N4650 G4F3

X38.2947 Y37.9892 F1000
ID=1 WHEN $AC_TIMER[1]>=0 DO M88
X38.240 Y38.360 F300
X38.101 Y38.748
X37.883 Y39.130
X37.540 Y39.537
X33.447 Y43.630
X33.115 Y43.920
X32.798 Y44.117
X32.450 Y44.267
X32.115 Y44.359
X31.760 Y44.390
X11.834 Y44.390
X11.020 Y44.305
X10.423 Y44.114
X10.038 Y43.897
X9.869 Y43.777
X9.633 Y43.567
X9.415 Y43.322
X9.303 Y43.170
X9.100 Y42.797
X8.905 Y42.191
X8.820 Y41.367
X8.820 Y20.757
X8.857 Y20.544
X8.890 Y20.477
X9.012 Y20.321
X10.938 Y18.395
X11.020 Y18.336
X11.029 Y30.815
X11.139 Y31.875
X11.200 Y32.178
X11.420 Y32.898
X11.641 Y33.435
X11.953 Y34.010
X12.280 Y34.476
X12.706 Y34.965
X13.205 Y35.424
X13.654 Y35.755
X14.344 Y36.154
X14.912 Y36.390
X15.632 Y36.610
X15.933 Y36.671
X17.150 Y36.790
X37.104 Y36.790
X37.535 Y36.836
X37.740 Y36.907
X37.932 Y37.033
X38.094 Y37.207
X38.211 Y37.410
X38.280 Y37.661
X38.290 Y37.889
ID=1 WHEN $AC_TIMER[1]>=0 DO M89
X33.3343 Y39.67 F1000
ID=1 WHEN $AC_TIMER[1]>=0 DO M88
X31.494 Y41.510 F300
X11.984 Y41.510
X11.727 Y41.483
X11.700 Y41.218
X11.700 Y37.892
X11.946 Y38.074
X12.213 Y38.248
X12.903 Y38.647
X13.238 Y38.813
X13.806 Y39.049
X14.071 Y39.144
X14.791 Y39.364
X15.360 Y39.494
X15.654 Y39.538
X16.870 Y39.656
X17.150 Y39.670
X33.234 Y39.670
ID=1 WHEN $AC_TIMER[1]>=0 DO M89

; Inicio do trecho do raster
; Final do trecho do raster

; Layer 47
G1 Z67.680 F1000

N4550 M63		;POWDER MIXER OFF
N4560 M67		;POWDER FEED OFF
N4570 M65		;CARRIER OFF
N4580 M79     ;GAS 1 OFF

N4590 M0

N4600 M78     ; GAS 1 ON
N4610 M64		;CARRIER ON
N4620 H2 = R3	;SET POWDER FLOW
N4630 M62		;POWDER MIXER ON
N4640 M66		;POWDER FEED ON
N4650 G4F3

X38.9722 Y37.3197 F1000
ID=1 WHEN $AC_TIMER[1]>=0 DO M88
X38.914 Y37.679 F300
X38.771 Y38.078
X38.553 Y38.460
X38.210 Y38.867
X34.117 Y42.960
X33.785 Y43.250
X33.468 Y43.447
X33.128 Y43.593
X32.806 Y43.678
X32.431 Y43.710
X12.496 Y43.710
X11.686 Y43.633
X11.227 Y43.491
X10.981 Y43.380
X10.707 Y43.226
X10.539 Y43.107
X10.303 Y42.897
X10.093 Y42.661
X9.976 Y42.496
X9.716 Y42.000
X9.576 Y41.528
X9.490 Y40.697
X9.490 Y20.065
X9.516 Y19.900
X9.574 Y19.781
X9.619 Y19.724
X11.631 Y17.712
X11.690 Y17.667
X11.699 Y30.145
X11.809 Y31.205
X11.866 Y31.494
X12.076 Y32.204
X12.246 Y32.633
X12.621 Y33.327
X12.935 Y33.786
X13.376 Y34.295
X13.875 Y34.754
X14.324 Y35.085
X14.484 Y35.185
X15.177 Y35.554
X15.586 Y35.718
X16.456 Y35.979
X17.820 Y36.110
X37.775 Y36.110
X38.167 Y36.151
X38.407 Y36.236
X38.639 Y36.387
X38.771 Y36.528
X38.876 Y36.722
X38.953 Y37.003
X38.966 Y37.220
ID=1 WHEN $AC_TIMER[1]>=0 DO M89
X34.0143 Y38.99 F1000
ID=1 WHEN $AC_TIMER[1]>=0 DO M88
X32.174 Y40.830 F300
X12.633 Y40.830
X12.397 Y40.808
X12.370 Y40.548
X12.370 Y37.219
X12.798 Y37.528
X13.130 Y37.727
X13.823 Y38.096
X14.102 Y38.226
X14.760 Y38.477
X15.629 Y38.738
X15.902 Y38.805
X16.180 Y38.846
X17.544 Y38.977
X17.820 Y38.990
X33.914 Y38.990
ID=1 WHEN $AC_TIMER[1]>=0 DO M89

; Inicio do trecho do raster
; Final do trecho do raster

; Layer 48
G1 Z69.120 F1000

N4550 M63		;POWDER MIXER OFF
N4560 M67		;POWDER FEED OFF
N4570 M65		;CARRIER OFF
N4580 M79     ;GAS 1 OFF

N4590 M0

N4600 M78     ; GAS 1 ON
N4610 M64		;CARRIER ON
N4620 H2 = R3	;SET POWDER FLOW
N4630 M62		;POWDER MIXER ON
N4640 M66		;POWDER FEED ON
N4650 G4F3

X39.6422 Y36.6497 F1000
ID=1 WHEN $AC_TIMER[1]>=0 DO M88
X39.584 Y37.009 F300
X39.441 Y37.408
X39.226 Y37.784
X38.885 Y38.182
X34.787 Y42.280
X34.447 Y42.577
X34.128 Y42.782
X33.798 Y42.923
X33.476 Y43.008
X33.101 Y43.040
X13.174 Y43.040
X12.307 Y42.949
X11.794 Y42.778
X11.298 Y42.498
X10.970 Y42.223
X10.763 Y41.991
X10.646 Y41.826
X10.435 Y41.447
X10.392 Y41.340
X10.246 Y40.847
X10.160 Y40.026
X10.160 Y19.395
X10.183 Y19.247
X10.239 Y19.132
X10.354 Y18.989
X12.299 Y17.044
X12.360 Y16.998
X12.369 Y29.477
X12.479 Y30.527
X12.536 Y30.814
X12.798 Y31.674
X12.991 Y32.117
X13.385 Y32.806
X13.716 Y33.255
X14.046 Y33.625
X14.191 Y33.768
X14.694 Y34.195
X15.153 Y34.509
X15.693 Y34.809
X16.251 Y35.044
X16.904 Y35.247
X17.273 Y35.321
X18.490 Y35.440
X38.445 Y35.440
X38.837 Y35.481
X39.092 Y35.571
X39.302 Y35.707
X39.423 Y35.834
X39.555 Y36.072
X39.621 Y36.295
X39.636 Y36.550
ID=1 WHEN $AC_TIMER[1]>=0 DO M89
X34.6743 Y38.32 F1000
ID=1 WHEN $AC_TIMER[1]>=0 DO M88
X32.834 Y40.160 F300
X13.324 Y40.160
X13.067 Y40.133
X13.040 Y39.876
X13.040 Y36.551
X13.527 Y36.886
X13.754 Y37.026
X14.294 Y37.326
X14.576 Y37.463
X15.135 Y37.698
X15.392 Y37.792
X16.044 Y37.996
X16.340 Y38.072
X16.709 Y38.146
X16.994 Y38.188
X18.210 Y38.306
X18.490 Y38.320
X34.574 Y38.320
ID=1 WHEN $AC_TIMER[1]>=0 DO M89

; Inicio do trecho do raster
; Final do trecho do raster

; Layer 49
G1 Z70.560 F1000

N4550 M63		;POWDER MIXER OFF
N4560 M67		;POWDER FEED OFF
N4570 M65		;CARRIER OFF
N4580 M79     ;GAS 1 OFF

N4590 M0

N4600 M78     ; GAS 1 ON
N4610 M64		;CARRIER ON
N4620 H2 = R3	;SET POWDER FLOW
N4630 M62		;POWDER MIXER ON
N4640 M66		;POWDER FEED ON
N4650 G4F3

X40.3123 Y35.979 F1000
ID=1 WHEN $AC_TIMER[1]>=0 DO M88
X40.254 Y36.339 F300
X40.111 Y36.738
X39.896 Y37.114
X39.555 Y37.512
X35.457 Y41.610
X35.117 Y41.907
X34.793 Y42.114
X34.476 Y42.253
X34.149 Y42.337
X33.771 Y42.370
X13.853 Y42.370
X13.018 Y42.283
X12.577 Y42.155
X12.307 Y42.033
X12.074 Y41.901
X11.892 Y41.770
X11.653 Y41.557
X11.440 Y41.318
X11.313 Y41.142
X11.071 Y40.691
X10.916 Y40.174
X10.830 Y39.356
X10.830 Y18.716
X10.852 Y18.563
X10.905 Y18.457
X12.974 Y16.369
X13.030 Y16.326
X13.039 Y28.807
X13.149 Y29.857
X13.207 Y30.150
X13.468 Y30.994
X13.661 Y31.437
X13.961 Y31.977
X14.291 Y32.454
X14.726 Y32.955
X15.225 Y33.414
X15.676 Y33.749
X15.842 Y33.854
X16.510 Y34.211
X16.975 Y34.397
X17.665 Y34.597
X17.945 Y34.651
X19.170 Y34.770
X39.115 Y34.770
X39.524 Y34.813
X39.755 Y34.894
X39.982 Y35.040
X40.109 Y35.179
X40.235 Y35.412
X40.290 Y35.608
X40.306 Y35.879
ID=1 WHEN $AC_TIMER[1]>=0 DO M89
X35.3443 Y37.65 F1000
ID=1 WHEN $AC_TIMER[1]>=0 DO M88
X33.504 Y39.490 F300
X14.002 Y39.490
X13.737 Y39.463
X13.710 Y39.206
X13.710 Y35.873
X14.142 Y36.186
X14.484 Y36.393
X15.152 Y36.750
X15.439 Y36.884
X15.904 Y37.070
X16.173 Y37.163
X16.863 Y37.363
X17.393 Y37.478
X17.667 Y37.518
X18.893 Y37.637
X19.170 Y37.650
X35.244 Y37.650
ID=1 WHEN $AC_TIMER[1]>=0 DO M89

; Inicio do trecho do raster
; Final do trecho do raster

; Layer 50
G1 Z72.001 F1000

N4550 M63		;POWDER MIXER OFF
N4560 M67		;POWDER FEED OFF
N4570 M65		;CARRIER OFF
N4580 M79     ;GAS 1 OFF

N4590 M0

N4600 M78     ; GAS 1 ON
N4610 M64		;CARRIER ON
N4620 H2 = R3	;SET POWDER FLOW
N4630 M62		;POWDER MIXER ON
N4640 M66		;POWDER FEED ON
N4650 G4F3

X40.983 Y35.3206 F1000
ID=1 WHEN $AC_TIMER[1]>=0 DO M88
X40.930 Y35.680 F300
X40.794 Y36.059
X40.568 Y36.444
X40.229 Y36.848
X36.143 Y40.934
X35.797 Y41.230
X35.471 Y41.437
X35.140 Y41.584
X34.819 Y41.667
X34.441 Y41.700
X14.523 Y41.700
X13.691 Y41.614
X13.233 Y41.479
X13.102 Y41.425
X12.734 Y41.223
X12.562 Y41.100
X12.323 Y40.887
X12.118 Y40.657
X11.992 Y40.476
X11.780 Y40.089
X11.725 Y39.960
X11.588 Y39.508
X11.510 Y38.694
X11.510 Y18.030
X11.527 Y17.894
X11.587 Y17.775
X11.696 Y17.637
X13.621 Y15.712
X13.710 Y15.650
X13.717 Y28.122
X13.840 Y29.330
X14.089 Y30.176
X14.164 Y30.374
X14.456 Y30.989
X14.860 Y31.650
X15.066 Y31.915
X15.525 Y32.414
X16.026 Y32.849
X16.346 Y33.079
X16.512 Y33.184
X17.198 Y33.548
X17.649 Y33.725
X18.329 Y33.925
X18.615 Y33.981
X19.840 Y34.100
X39.794 Y34.100
X40.214 Y34.145
X40.413 Y34.220
X40.628 Y34.356
X40.792 Y34.528
X40.902 Y34.739
X40.960 Y34.933
X40.977 Y35.221
ID=1 WHEN $AC_TIMER[1]>=0 DO M89
X36.0243 Y36.98 F1000
ID=1 WHEN $AC_TIMER[1]>=0 DO M88
X34.184 Y38.820 F300
X14.672 Y38.820
X14.412 Y38.793
X14.390 Y38.557
X14.390 Y35.208
X14.812 Y35.516
X15.160 Y35.727
X15.846 Y36.091
X16.147 Y36.230
X16.836 Y36.488
X17.516 Y36.688
X18.058 Y36.807
X18.337 Y36.848
X19.563 Y36.967
X19.840 Y36.980
X35.924 Y36.980
ID=1 WHEN $AC_TIMER[1]>=0 DO M89

; Inicio do trecho do raster
; Final do trecho do raster

; Layer 51
G1 Z73.441 F1000

N4550 M63		;POWDER MIXER OFF
N4560 M67		;POWDER FEED OFF
N4570 M65		;CARRIER OFF
N4580 M79     ;GAS 1 OFF

N4590 M0

N4600 M78     ; GAS 1 ON
N4610 M64		;CARRIER ON
N4620 H2 = R3	;SET POWDER FLOW
N4630 M62		;POWDER MIXER ON
N4640 M66		;POWDER FEED ON
N4650 G4F3

X41.6548 Y34.6309 F1000
ID=1 WHEN $AC_TIMER[1]>=0 DO M88
X41.600 Y35.008 F300
X41.464 Y35.381
X41.235 Y35.778
X40.899 Y36.178
X36.813 Y40.264
X36.467 Y40.560
X36.141 Y40.767
X35.810 Y40.914
X35.488 Y40.998
X35.120 Y41.030
X15.194 Y41.030
X14.372 Y40.944
X13.904 Y40.806
X13.770 Y40.753
X13.409 Y40.552
X13.223 Y40.422
X12.993 Y40.217
X12.788 Y39.987
X12.662 Y39.806
X12.455 Y39.428
X12.394 Y39.280
X12.270 Y38.880
X12.180 Y38.016
X12.180 Y17.360
X12.198 Y17.218
X12.266 Y17.092
X12.366 Y16.967
X14.302 Y15.031
X14.380 Y14.974
X14.389 Y27.467
X14.499 Y28.517
X14.616 Y29.046
X14.812 Y29.642
X15.006 Y30.088
X15.387 Y30.765
X15.736 Y31.245
X16.195 Y31.744
X16.565 Y32.074
X17.045 Y32.423
X17.701 Y32.797
X18.186 Y33.006
X19.009 Y33.255
X19.293 Y33.311
X20.510 Y33.430
X40.464 Y33.430
X40.873 Y33.474
X41.119 Y33.559
X41.291 Y33.671
X41.453 Y33.846
X41.584 Y34.093
X41.640 Y34.298
X41.650 Y34.531
ID=1 WHEN $AC_TIMER[1]>=0 DO M89
X36.6943 Y36.31 F1000
ID=1 WHEN $AC_TIMER[1]>=0 DO M88
X34.854 Y38.150 F300
X15.344 Y38.150
X15.087 Y38.123
X15.060 Y37.866
X15.060 Y34.540
X15.353 Y34.753
X15.616 Y34.923
X16.271 Y35.298
X16.565 Y35.444
X17.050 Y35.652
X17.350 Y35.762
X18.173 Y36.011
X18.735 Y36.137
X19.014 Y36.178
X20.230 Y36.296
X20.510 Y36.310
X36.594 Y36.310
ID=1 WHEN $AC_TIMER[1]>=0 DO M89

; Inicio do trecho do raster
; Final do trecho do raster

; Layer 52
G1 Z74.881 F1000

N4550 M63		;POWDER MIXER OFF
N4560 M67		;POWDER FEED OFF
N4570 M65		;CARRIER OFF
N4580 M79     ;GAS 1 OFF

N4590 M0

N4600 M78     ; GAS 1 ON
N4610 M64		;CARRIER ON
N4620 H2 = R3	;SET POWDER FLOW
N4630 M62		;POWDER MIXER ON
N4640 M66		;POWDER FEED ON
N4650 G4F3

X42.3247 Y33.9592 F1000
ID=1 WHEN $AC_TIMER[1]>=0 DO M88
X42.270 Y34.330 F300
X42.134 Y34.709
X41.905 Y35.100
X41.564 Y35.513
X37.483 Y39.594
X37.137 Y39.890
X36.811 Y40.097
X36.480 Y40.244
X36.158 Y40.328
X35.790 Y40.360
X15.864 Y40.360
X15.017 Y40.271
X14.600 Y40.143
X14.444 Y40.080
X14.074 Y39.878
X13.893 Y39.752
X13.671 Y39.554
X13.464 Y39.315
X13.328 Y39.121
X13.121 Y38.749
X13.062 Y38.607
X12.937 Y38.173
X12.850 Y37.346
X12.850 Y16.692
X12.867 Y16.557
X12.934 Y16.427
X13.038 Y16.294
X14.970 Y14.362
X15.050 Y14.305
X15.059 Y26.797
X15.169 Y27.847
X15.222 Y28.123
X15.412 Y28.783
X15.604 Y29.269
X15.973 Y29.949
X16.287 Y30.415
X16.722 Y30.929
X16.913 Y31.115
X17.385 Y31.523
X17.862 Y31.844
X18.392 Y32.134
X18.975 Y32.375
X19.496 Y32.538
X19.726 Y32.598
X19.963 Y32.641
X21.180 Y32.760
X41.134 Y32.760
X41.527 Y32.802
X41.792 Y32.891
X41.953 Y32.989
X42.140 Y33.192
X42.238 Y33.379
X42.308 Y33.599
X42.320 Y33.859
ID=1 WHEN $AC_TIMER[1]>=0 DO M89
X37.3643 Y35.64 F1000
ID=1 WHEN $AC_TIMER[1]>=0 DO M88
X35.524 Y37.480 F300
X16.014 Y37.480
X15.757 Y37.453
X15.730 Y37.196
X15.730 Y33.876
X16.254 Y34.233
X16.480 Y34.370
X17.010 Y34.660
X17.291 Y34.795
X17.874 Y35.036
X18.769 Y35.325
X19.211 Y35.432
X19.684 Y35.508
X20.900 Y35.626
X21.180 Y35.640
X37.264 Y35.640
ID=1 WHEN $AC_TIMER[1]>=0 DO M89

; Inicio do trecho do raster
; Final do trecho do raster

; Layer 53
G1 Z76.321 F1000

N4550 M63		;POWDER MIXER OFF
N4560 M67		;POWDER FEED OFF
N4570 M65		;CARRIER OFF
N4580 M79     ;GAS 1 OFF

N4590 M0

N4600 M78     ; GAS 1 ON
N4610 M64		;CARRIER ON
N4620 H2 = R3	;SET POWDER FLOW
N4630 M62		;POWDER MIXER ON
N4640 M66		;POWDER FEED ON
N4650 G4F3

X43.0022 Y33.2897 F1000
ID=1 WHEN $AC_TIMER[1]>=0 DO M88
X42.944 Y33.649 F300
X42.801 Y34.048
X42.583 Y34.430
X42.240 Y34.837
X38.147 Y38.930
X37.815 Y39.220
X37.498 Y39.417
X37.162 Y39.561
X36.814 Y39.651
X36.446 Y39.690
X16.534 Y39.690
X15.718 Y39.605
X15.262 Y39.466
X15.112 Y39.408
X14.763 Y39.214
X14.567 Y39.075
X14.333 Y38.867
X14.117 Y38.624
X13.988 Y38.446
X13.800 Y38.098
X13.726 Y37.916
X13.610 Y37.532
X13.520 Y36.667
X13.520 Y15.969
X13.538 Y15.873
X13.613 Y15.739
X13.700 Y15.633
X15.646 Y13.687
X15.720 Y13.632
X15.729 Y26.115
X15.839 Y27.175
X15.878 Y27.398
X15.965 Y27.734
X16.138 Y28.262
X16.341 Y28.739
X16.621 Y29.259
X16.736 Y29.441
X17.076 Y29.895
X17.535 Y30.394
X18.047 Y30.837
X18.531 Y31.167
X19.051 Y31.457
X19.252 Y31.552
X19.676 Y31.711
X20.336 Y31.911
X20.633 Y31.971
X21.850 Y32.090
X41.804 Y32.090
X42.250 Y32.138
X42.434 Y32.204
X42.666 Y32.355
X42.794 Y32.500
X42.903 Y32.682
X42.983 Y32.973
X42.996 Y33.190
ID=1 WHEN $AC_TIMER[1]>=0 DO M89
X38.0343 Y34.97 F1000
ID=1 WHEN $AC_TIMER[1]>=0 DO M88
X36.194 Y36.810 F300
X16.684 Y36.810
X16.427 Y36.783
X16.400 Y36.518
X16.400 Y33.198
X16.906 Y33.545
X17.128 Y33.683
X17.826 Y34.064
X18.240 Y34.248
X18.841 Y34.467
X19.501 Y34.667
X20.063 Y34.794
X20.354 Y34.838
X21.570 Y34.956
X21.850 Y34.970
X37.934 Y34.970
ID=1 WHEN $AC_TIMER[1]>=0 DO M89

; Inicio do trecho do raster
; Final do trecho do raster

; Layer 54
G1 Z77.761 F1000

N4550 M63		;POWDER MIXER OFF
N4560 M67		;POWDER FEED OFF
N4570 M65		;CARRIER OFF
N4580 M79     ;GAS 1 OFF

N4590 M0

N4600 M78     ; GAS 1 ON
N4610 M64		;CARRIER ON
N4620 H2 = R3	;SET POWDER FLOW
N4630 M62		;POWDER MIXER ON
N4640 M66		;POWDER FEED ON
N4650 G4F3

X43.6722 Y32.6197 F1000
ID=1 WHEN $AC_TIMER[1]>=0 DO M88
X43.614 Y32.979 F300
X43.471 Y33.378
X43.253 Y33.760
X42.910 Y34.167
X38.817 Y38.260
X38.485 Y38.550
X38.168 Y38.747
X37.828 Y38.893
X37.506 Y38.978
X37.131 Y39.010
X17.196 Y39.010
X16.373 Y38.932
X15.967 Y38.813
X15.807 Y38.743
X15.326 Y38.472
X14.994 Y38.186
X14.795 Y37.963
X14.659 Y37.771
X14.471 Y37.429
X14.404 Y37.258
X14.276 Y36.827
X14.190 Y35.997
X14.191 Y15.281
X14.203 Y15.217
X14.293 Y15.060
X16.332 Y13.011
X16.390 Y12.968
X16.399 Y25.445
X16.509 Y26.505
X16.566 Y26.795
X16.801 Y27.566
X16.931 Y27.896
X17.017 Y28.080
X17.393 Y28.743
X17.746 Y29.225
X18.205 Y29.724
X18.664 Y30.128
X18.947 Y30.332
X19.530 Y30.679
X19.859 Y30.846
X20.179 Y30.986
X20.371 Y31.056
X21.021 Y31.246
X21.318 Y31.303
X22.520 Y31.410
X42.475 Y31.410
X42.867 Y31.451
X43.128 Y31.543
X43.271 Y31.631
X43.430 Y31.778
X43.566 Y31.987
X43.653 Y32.303
X43.666 Y32.520
ID=1 WHEN $AC_TIMER[1]>=0 DO M89
X38.7143 Y34.29 F1000
ID=1 WHEN $AC_TIMER[1]>=0 DO M88
X36.874 Y36.130 F300
X17.333 Y36.130
X17.097 Y36.108
X17.070 Y35.848
X17.070 Y32.523
X17.261 Y32.667
X17.475 Y32.808
X18.224 Y33.245
X18.704 Y33.484
X19.388 Y33.763
X20.213 Y34.010
X20.775 Y34.131
X21.062 Y34.171
X22.264 Y34.279
X22.520 Y34.290
X38.614 Y34.290
ID=1 WHEN $AC_TIMER[1]>=0 DO M89

; Inicio do trecho do raster
; Final do trecho do raster

; Layer 55
G1 Z79.201 F1000

N4550 M63		;POWDER MIXER OFF
N4560 M67		;POWDER FEED OFF
N4570 M65		;CARRIER OFF
N4580 M79     ;GAS 1 OFF

N4590 M0

N4600 M78     ; GAS 1 ON
N4610 M64		;CARRIER ON
N4620 H2 = R3	;SET POWDER FLOW
N4630 M62		;POWDER MIXER ON
N4640 M66		;POWDER FEED ON
N4650 G4F3

X44.3422 Y31.9497 F1000
ID=1 WHEN $AC_TIMER[1]>=0 DO M88
X44.284 Y32.309 F300
X44.141 Y32.708
X43.926 Y33.084
X43.585 Y33.482
X39.487 Y37.580
X39.147 Y37.877
X38.828 Y38.082
X38.498 Y38.223
X38.176 Y38.308
X37.801 Y38.340
X17.883 Y38.340
X17.041 Y38.253
X16.517 Y38.096
X16.110 Y37.872
X15.917 Y37.735
X15.683 Y37.527
X15.464 Y37.281
X15.322 Y37.087
X15.145 Y36.766
X15.076 Y36.586
X14.946 Y36.146
X14.860 Y35.326
X14.860 Y14.678
X14.880 Y14.529
X14.963 Y14.389
X17.060 Y12.294
X17.069 Y24.777
X17.179 Y25.827
X17.236 Y26.115
X17.466 Y26.871
X17.596 Y27.211
X17.687 Y27.410
X17.967 Y27.920
X18.081 Y28.098
X18.426 Y28.555
X18.885 Y29.054
X19.397 Y29.497
X19.890 Y29.833
X20.400 Y30.113
X20.882 Y30.326
X21.067 Y30.390
X21.707 Y30.570
X21.975 Y30.621
X23.200 Y30.740
X43.145 Y30.740
X43.560 Y30.784
X43.736 Y30.840
X43.840 Y30.890
X44.004 Y31.001
X44.155 Y31.173
X44.267 Y31.386
X44.322 Y31.610
X44.336 Y31.850
ID=1 WHEN $AC_TIMER[1]>=0 DO M89
X39.3743 Y33.62 F1000
ID=1 WHEN $AC_TIMER[1]>=0 DO M88
X37.534 Y35.460 F300
X18.032 Y35.460
X17.767 Y35.433
X17.740 Y35.176
X17.740 Y31.850
X18.269 Y32.213
X18.504 Y32.357
X19.235 Y32.746
X19.934 Y33.045
X20.287 Y33.163
X21.166 Y33.399
X21.697 Y33.488
X22.923 Y33.607
X23.200 Y33.620
X39.274 Y33.620
ID=1 WHEN $AC_TIMER[1]>=0 DO M89

; Inicio do trecho do raster
; Final do trecho do raster

; Layer 56
G1 Z80.641 F1000

N4550 M63		;POWDER MIXER OFF
N4560 M67		;POWDER FEED OFF
N4570 M65		;CARRIER OFF
N4580 M79     ;GAS 1 OFF

N4590 M0

N4600 M78     ; GAS 1 ON
N4610 M64		;CARRIER ON
N4620 H2 = R3	;SET POWDER FLOW
N4630 M62		;POWDER MIXER ON
N4640 M66		;POWDER FEED ON
N4650 G4F3

X45.0123 Y31.2789 F1000
ID=1 WHEN $AC_TIMER[1]>=0 DO M88
X44.954 Y31.639 F300
X44.811 Y32.038
X44.596 Y32.414
X44.255 Y32.812
X40.157 Y36.910
X39.817 Y37.207
X39.493 Y37.414
X39.176 Y37.553
X38.849 Y37.637
X38.471 Y37.670
X18.553 Y37.670
X17.715 Y37.583
X17.306 Y37.466
X17.127 Y37.392
X16.788 Y37.210
X16.590 Y37.068
X16.359 Y36.862
X16.073 Y36.535
X15.815 Y36.086
X15.745 Y35.903
X15.616 Y35.473
X15.530 Y34.656
X15.530 Y14.008
X15.556 Y13.851
X15.622 Y13.730
X17.677 Y11.667
X17.730 Y11.626
X17.739 Y24.107
X17.849 Y25.157
X17.908 Y25.452
X18.136 Y26.191
X18.266 Y26.531
X18.357 Y26.730
X18.709 Y27.358
X18.996 Y27.764
X19.416 Y28.244
X19.555 Y28.384
X20.060 Y28.822
X20.410 Y29.072
X20.580 Y29.178
X21.231 Y29.519
X21.740 Y29.718
X22.370 Y29.898
X22.645 Y29.951
X23.870 Y30.070
X43.815 Y30.070
X44.252 Y30.116
X44.455 Y30.194
X44.647 Y30.310
X44.803 Y30.466
X44.936 Y30.711
X44.992 Y30.934
X45.006 Y31.179
ID=1 WHEN $AC_TIMER[1]>=0 DO M89
X40.0443 Y32.95 F1000
ID=1 WHEN $AC_TIMER[1]>=0 DO M88
X38.204 Y34.790 F300
X18.702 Y34.790
X18.437 Y34.763
X18.410 Y34.506
X18.410 Y31.170
X18.886 Y31.516
X19.242 Y31.728
X19.893 Y32.070
X20.183 Y32.202
X20.693 Y32.401
X20.949 Y32.488
X21.824 Y32.726
X22.367 Y32.818
X23.593 Y32.937
X23.870 Y32.950
X39.944 Y32.950
ID=1 WHEN $AC_TIMER[1]>=0 DO M89

; Inicio do trecho do raster
; Final do trecho do raster

; Layer 57
G1 Z82.081 F1000

N4550 M63		;POWDER MIXER OFF
N4560 M67		;POWDER FEED OFF
N4570 M65		;CARRIER OFF
N4580 M79     ;GAS 1 OFF

N4590 M0

N4600 M78     ; GAS 1 ON
N4610 M64		;CARRIER ON
N4620 H2 = R3	;SET POWDER FLOW
N4630 M62		;POWDER MIXER ON
N4640 M66		;POWDER FEED ON
N4650 G4F3

X45.6848 Y30.6087 F1000
ID=1 WHEN $AC_TIMER[1]>=0 DO M88
X45.630 Y30.980 F300
X45.494 Y31.359
X45.268 Y31.744
X44.929 Y32.148
X40.843 Y36.234
X40.497 Y36.530
X40.171 Y36.737
X39.840 Y36.884
X39.519 Y36.967
X39.141 Y37.000
X19.224 Y37.000
X18.375 Y36.911
X18.251 Y36.879
X17.764 Y36.705
X17.458 Y36.540
X17.260 Y36.398
X17.023 Y36.187
X16.819 Y35.958
X16.675 Y35.751
X16.482 Y35.393
X16.404 Y35.211
X16.298 Y34.823
X16.210 Y33.986
X16.211 Y13.248
X16.227 Y13.168
X16.270 Y13.091
X16.392 Y12.941
X18.339 Y10.994
X18.410 Y10.941
X18.419 Y23.437
X18.529 Y24.487
X18.577 Y24.743
X18.747 Y25.363
X18.819 Y25.570
X19.032 Y26.050
X19.396 Y26.703
X19.646 Y27.063
X19.766 Y27.215
X20.225 Y27.714
X20.730 Y28.152
X21.080 Y28.402
X21.250 Y28.508
X21.750 Y28.778
X21.930 Y28.861
X22.379 Y29.033
X22.780 Y29.159
X23.090 Y29.239
X23.323 Y29.281
X24.540 Y29.400
X44.494 Y29.400
X44.953 Y29.452
X45.194 Y29.557
X45.323 Y29.646
X45.478 Y29.800
X45.567 Y29.950
X45.629 Y30.099
X45.669 Y30.257
X45.680 Y30.509
ID=1 WHEN $AC_TIMER[1]>=0 DO M89
X40.7243 Y32.28 F1000
ID=1 WHEN $AC_TIMER[1]>=0 DO M88
X38.884 Y34.120 F300
X19.374 Y34.120
X19.117 Y34.093
X19.090 Y33.836
X19.090 Y30.507
X19.556 Y30.846
X19.881 Y31.042
X20.541 Y31.392
X20.902 Y31.551
X21.513 Y31.780
X22.061 Y31.948
X22.579 Y32.074
X23.044 Y32.148
X24.260 Y32.266
X24.540 Y32.280
X40.624 Y32.280
ID=1 WHEN $AC_TIMER[1]>=0 DO M89

; Inicio do trecho do raster
; Final do trecho do raster

; Layer 58
G1 Z83.521 F1000

N4550 M63		;POWDER MIXER OFF
N4560 M67		;POWDER FEED OFF
N4570 M65		;CARRIER OFF
N4580 M79     ;GAS 1 OFF

N4590 M0

N4600 M78     ; GAS 1 ON
N4610 M64		;CARRIER ON
N4620 H2 = R3	;SET POWDER FLOW
N4630 M62		;POWDER MIXER ON
N4640 M66		;POWDER FEED ON
N4650 G4F3

X46.3547 Y29.9292 F1000
ID=1 WHEN $AC_TIMER[1]>=0 DO M88
X46.300 Y30.300 F300
X46.162 Y30.684
X45.935 Y31.078
X45.599 Y31.478
X41.513 Y35.564
X41.167 Y35.860
X40.841 Y36.067
X40.510 Y36.214
X40.188 Y36.298
X39.820 Y36.330
X19.894 Y36.330
X19.072 Y36.244
X18.660 Y36.122
X18.453 Y36.044
X18.135 Y35.869
X17.922 Y35.721
X17.693 Y35.517
X17.489 Y35.288
X17.345 Y35.081
X17.156 Y34.730
X17.066 Y34.514
X16.970 Y34.171
X16.880 Y33.316
X16.883 Y12.550
X16.959 Y12.400
X17.064 Y12.269
X19.002 Y10.331
X19.080 Y10.274
X19.089 Y22.767
X19.199 Y23.817
X19.238 Y24.038
X19.342 Y24.444
X19.483 Y24.875
X19.702 Y25.380
X20.066 Y26.033
X20.316 Y26.393
X20.436 Y26.545
X20.895 Y27.044
X21.265 Y27.374
X21.417 Y27.494
X21.918 Y27.831
X22.408 Y28.101
X22.614 Y28.196
X23.097 Y28.375
X23.707 Y28.555
X23.993 Y28.611
X25.210 Y28.730
X45.164 Y28.730
X45.613 Y28.778
X45.866 Y28.882
X45.980 Y28.960
X46.169 Y29.163
X46.233 Y29.266
X46.297 Y29.428
X46.339 Y29.592
X46.350 Y29.829
ID=1 WHEN $AC_TIMER[1]>=0 DO M89
X41.3943 Y31.61 F1000
ID=1 WHEN $AC_TIMER[1]>=0 DO M88
X39.554 Y33.450 F300
X20.044 Y33.450
X19.787 Y33.423
X19.760 Y33.166
X19.760 Y29.843
X20.309 Y30.220
X21.018 Y30.624
X21.406 Y30.811
X22.282 Y31.137
X22.892 Y31.317
X23.433 Y31.436
X23.714 Y31.478
X24.930 Y31.596
X25.210 Y31.610
X41.294 Y31.610
ID=1 WHEN $AC_TIMER[1]>=0 DO M89

; Inicio do trecho do raster
; Final do trecho do raster

; Layer 59
G1 Z84.961 F1000

N4550 M63		;POWDER MIXER OFF
N4560 M67		;POWDER FEED OFF
N4570 M65		;CARRIER OFF
N4580 M79     ;GAS 1 OFF

N4590 M0

N4600 M78     ; GAS 1 ON
N4610 M64		;CARRIER ON
N4620 H2 = R3	;SET POWDER FLOW
N4630 M62		;POWDER MIXER ON
N4640 M66		;POWDER FEED ON
N4650 G4F3

X47.0247 Y29.2592 F1000
ID=1 WHEN $AC_TIMER[1]>=0 DO M88
X46.970 Y29.630 F300
X46.834 Y30.009
X46.605 Y30.400
X46.264 Y30.813
X42.183 Y34.894
X41.837 Y35.190
X41.511 Y35.397
X41.204 Y35.534
X40.840 Y35.629
X40.490 Y35.660
X20.564 Y35.660
X19.734 Y35.573
X19.350 Y35.464
X19.143 Y35.380
X18.812 Y35.202
X18.604 Y35.051
X18.372 Y34.844
X18.111 Y34.543
X18.016 Y34.403
X17.827 Y34.061
X17.746 Y33.860
X17.637 Y33.476
X17.550 Y32.646
X17.550 Y11.981
X17.568 Y11.830
X17.637 Y11.714
X17.725 Y11.608
X19.679 Y9.654
X19.750 Y9.601
X19.759 Y22.097
X19.869 Y23.147
X19.921 Y23.416
X20.147 Y24.181
X20.379 Y24.722
X20.736 Y25.353
X20.986 Y25.713
X21.106 Y25.865
X21.436 Y26.235
X21.580 Y26.377
X22.169 Y26.878
X22.600 Y27.168
X23.259 Y27.513
X23.794 Y27.719
X24.394 Y27.889
X24.663 Y27.941
X25.880 Y28.060
X45.834 Y28.060
X46.257 Y28.106
X46.440 Y28.159
X46.665 Y28.298
X46.807 Y28.441
X46.928 Y28.647
X47.009 Y28.904
X47.020 Y29.159
ID=1 WHEN $AC_TIMER[1]>=0 DO M89
X42.0643 Y30.94 F1000
ID=1 WHEN $AC_TIMER[1]>=0 DO M88
X40.224 Y32.780 F300
X20.714 Y32.780
X20.457 Y32.753
X20.430 Y32.496
X20.430 Y29.168
X20.993 Y29.558
X21.264 Y29.720
X21.923 Y30.064
X22.221 Y30.199
X22.756 Y30.406
X23.009 Y30.490
X23.849 Y30.717
X24.384 Y30.808
X25.600 Y30.926
X25.880 Y30.940
X41.964 Y30.940
ID=1 WHEN $AC_TIMER[1]>=0 DO M89

; Inicio do trecho do raster
; Final do trecho do raster

; Layer 60
G1 Z86.401 F1000

N4550 M63		;POWDER MIXER OFF
N4560 M67		;POWDER FEED OFF
N4570 M65		;CARRIER OFF
N4580 M79     ;GAS 1 OFF

N4590 M0

N4600 M78     ; GAS 1 ON
N4610 M64		;CARRIER ON
N4620 H2 = R3	;SET POWDER FLOW
N4630 M62		;POWDER MIXER ON
N4640 M66		;POWDER FEED ON
N4650 G4F3

X47.7022 Y28.5897 F1000
ID=1 WHEN $AC_TIMER[1]>=0 DO M88
X47.644 Y28.949 F300
X47.501 Y29.348
X47.283 Y29.730
X46.940 Y30.137
X42.847 Y34.230
X42.535 Y34.502
X42.184 Y34.723
X41.862 Y34.861
X41.514 Y34.951
X41.146 Y34.990
X21.234 Y34.990
X20.407 Y34.903
X20.026 Y34.794
X19.813 Y34.709
X19.489 Y34.531
X19.266 Y34.374
X19.042 Y34.174
X18.781 Y33.873
X18.686 Y33.733
X18.501 Y33.397
X18.416 Y33.184
X18.307 Y32.804
X18.220 Y31.967
X18.220 Y11.311
X18.236 Y11.171
X18.303 Y11.056
X18.406 Y10.926
X20.353 Y8.979
X20.420 Y8.929
X20.429 Y21.415
X20.539 Y22.475
X20.593 Y22.753
X20.812 Y23.487
X20.962 Y23.867
X21.049 Y24.052
X21.406 Y24.683
X21.656 Y25.043
X21.776 Y25.195
X22.106 Y25.565
X22.252 Y25.709
X22.842 Y26.207
X23.268 Y26.491
X23.758 Y26.761
X23.943 Y26.848
X24.467 Y27.047
X25.057 Y27.217
X25.333 Y27.271
X26.550 Y27.390
X46.504 Y27.390
X46.922 Y27.435
X47.138 Y27.501
X47.329 Y27.622
X47.486 Y27.783
X47.607 Y27.982
X47.681 Y28.237
X47.696 Y28.490
ID=1 WHEN $AC_TIMER[1]>=0 DO M89
X42.7343 Y30.27 F1000
ID=1 WHEN $AC_TIMER[1]>=0 DO M88
X40.894 Y32.110 F300
X21.384 Y32.110
X21.127 Y32.083
X21.100 Y31.818
X21.100 Y28.495
X21.244 Y28.603
X21.878 Y29.014
X22.532 Y29.367
X22.920 Y29.541
X23.670 Y29.815
X24.506 Y30.044
X25.054 Y30.138
X26.270 Y30.256
X26.550 Y30.270
X42.634 Y30.270
ID=1 WHEN $AC_TIMER[1]>=0 DO M89

; Inicio do trecho do raster
; Final do trecho do raster

; Layer 61
G1 Z87.841 F1000

N4550 M63		;POWDER MIXER OFF
N4560 M67		;POWDER FEED OFF
N4570 M65		;CARRIER OFF
N4580 M79     ;GAS 1 OFF

N4590 M0

N4600 M78     ; GAS 1 ON
N4610 M64		;CARRIER ON
N4620 H2 = R3	;SET POWDER FLOW
N4630 M62		;POWDER MIXER ON
N4640 M66		;POWDER FEED ON
N4650 G4F3

X48.3722 Y27.9197 F1000
ID=1 WHEN $AC_TIMER[1]>=0 DO M88
X48.314 Y28.279 F300
X48.171 Y28.678
X47.956 Y29.054
X47.616 Y29.451
X43.403 Y33.655
X43.183 Y33.843
X42.858 Y34.052
X42.528 Y34.193
X42.206 Y34.278
X41.831 Y34.310
X21.904 Y34.310
X21.049 Y34.220
X20.737 Y34.135
X20.487 Y34.032
X20.164 Y33.857
X19.937 Y33.698
X19.706 Y33.497
X19.454 Y33.206
X19.343 Y33.047
X19.176 Y32.739
X19.088 Y32.510
X18.977 Y32.123
X18.890 Y31.296
X18.890 Y10.634
X18.911 Y10.483
X18.958 Y10.403
X19.065 Y10.278
X21.090 Y8.261
X21.099 Y20.747
X21.209 Y21.797
X21.263 Y22.073
X21.477 Y22.794
X21.627 Y23.184
X21.713 Y23.372
X21.973 Y23.852
X22.331 Y24.380
X22.776 Y24.895
X22.938 Y25.052
X23.502 Y25.521
X23.958 Y25.827
X24.593 Y26.160
X25.105 Y26.365
X25.422 Y26.462
X25.782 Y26.552
X26.003 Y26.591
X27.220 Y26.710
X47.175 Y26.710
X47.591 Y26.754
X47.808 Y26.827
X47.938 Y26.904
X48.075 Y27.018
X48.165 Y27.126
X48.278 Y27.309
X48.352 Y27.585
X48.366 Y27.820
ID=1 WHEN $AC_TIMER[1]>=0 DO M89
X43.3992 Y29.59 F1000
ID=1 WHEN $AC_TIMER[1]>=0 DO M88
X41.555 Y31.430 F300
X22.054 Y31.430
X21.797 Y31.403
X21.770 Y31.146
X21.770 Y27.817
X22.352 Y28.217
X22.619 Y28.377
X23.254 Y28.710
X23.525 Y28.835
X24.258 Y29.117
X24.723 Y29.256
X25.281 Y29.388
X25.724 Y29.458
X26.940 Y29.576
X27.220 Y29.590
X43.299 Y29.590
ID=1 WHEN $AC_TIMER[1]>=0 DO M89

; Inicio do trecho do raster
; Final do trecho do raster

; Layer 62
G1 Z89.281 F1000

N4550 M63		;POWDER MIXER OFF
N4560 M67		;POWDER FEED OFF
N4570 M65		;CARRIER OFF
N4580 M79     ;GAS 1 OFF

N4590 M0

N4600 M78     ; GAS 1 ON
N4610 M64		;CARRIER ON
N4620 H2 = R3	;SET POWDER FLOW
N4630 M62		;POWDER MIXER ON
N4640 M66		;POWDER FEED ON
N4650 G4F3

X49.0422 Y27.2497 F1000
ID=1 WHEN $AC_TIMER[1]>=0 DO M88
X48.984 Y27.609 F300
X48.841 Y28.008
X48.626 Y28.384
X48.286 Y28.781
X44.081 Y32.976
X43.851 Y33.174
X43.528 Y33.382
