; Generated by RP3 on 2021-02-9
; Job 0 - LMD

; General Config.--------------------
N100 $ac_timer[1]=0
N110 G91   ; relative positioning
N120 G641  ;
N130 G603  ;


N140 R0 = 39     ; Laser Power 
N150 R3 = 3      ; Powder feed rate

N160 M55   ; home mirror
N170 G4F4  ; necessary delay for positioning of the mirror
N180 M0    ; wait for user-input

; Process Start-up--------------------
N190 M56   ; set canal 1 as laser-source
N200 G4F4  ; necessary delay for positioning of the mirror
N210 M78           	    ;GAS 1 ON
; START POWDER!!!

N220 M64		;CARRIER ON
N230 H2 = R3	;SET POWDER FLOW ; use absolute coordinates

; Layer 1
N310 G1 Z1.440 F1000


N240 M62		;POWDER MIXER ON
N250 M66		;POWDER FEED ON



N260 G4F4

N270 M0
N280 G54   ; set process starting point (machine zero)

; Laser On and Path------------------
N290 H1 = R0
N300 G90  

N320 X54.0422 Y22.2497 F1000
N330 ID=1 WHEN $AC_TIMER[1]>=0 DO M50
N340 X53.984 Y22.609 F600
N350 X53.841 Y23.008
N360 X53.626 Y23.384
N370 X53.285 Y23.782
N380 X49.187 Y27.880
N390 X48.847 Y28.177
N400 X48.528 Y28.382
N410 X48.198 Y28.523
N420 X47.876 Y28.608
N430 X47.501 Y28.640
N440 X27.574 Y28.640
N450 X26.726 Y28.551
N460 X26.443 Y28.478
N470 X26.135 Y28.353
N480 X25.850 Y28.207
N490 X25.608 Y28.036
N500 X25.373 Y27.827
N510 X25.179 Y27.609
N520 X25.001 Y27.342
N530 X24.839 Y27.045
N540 X24.722 Y26.757
N550 X24.649 Y26.474
N560 X24.560 Y25.626
N570 X24.560 Y4.953
N580 X24.575 Y4.831
N590 X24.642 Y4.713
N600 X24.729 Y4.614
N610 X26.760 Y2.588
N620 X26.769 Y15.077
N630 X26.879 Y16.127
N640 X26.927 Y16.384
N650 X27.116 Y17.042
N660 X27.296 Y17.512
N670 X27.385 Y17.706
N680 X27.713 Y18.289
N690 X28.003 Y18.709
N700 X28.126 Y18.865
N710 X28.456 Y19.235
N720 X28.603 Y19.380
N730 X29.096 Y19.796
N740 X29.506 Y20.086
N750 X29.689 Y20.198
N760 X30.281 Y20.498
N770 X30.761 Y20.688
N780 X30.940 Y20.747
N790 X31.430 Y20.876
N800 X31.673 Y20.921
N810 X32.890 Y21.040
N820 X52.845 Y21.040
N830 X53.280 Y21.086
N840 X53.493 Y21.163
N850 X53.583 Y21.213
N860 X53.766 Y21.364
N870 X53.910 Y21.568
N880 X53.955 Y21.657
N890 X54.021 Y21.896
N900 X54.036 Y22.150
N910 ID=1 WHEN $AC_TIMER[1]>=0 DO M51
N920 X49.0743 Y23.92 F1000
N930 ID=1 WHEN $AC_TIMER[1]>=0 DO M50
N940 X47.234 Y25.760 F600
N950 X27.724 Y25.760
N960 X27.467 Y25.733
N970 X27.440 Y25.476
N980 X27.440 Y22.152
N990 X28.004 Y22.544
N1000 X28.388 Y22.768
N1010 X28.981 Y23.067
N1020 X29.860 Y23.423
N1030 X30.201 Y23.530
N1040 X30.909 Y23.709
N1050 X31.394 Y23.788
N1060 X32.610 Y23.906
N1070 X32.890 Y23.920
N1080 X48.974 Y23.920
N1090 ID=1 WHEN $AC_TIMER[1]>=0 DO M51

; Inicio do trecho do raster
; Final do trecho do raster



; Layer 2
N1210 G1 Z2.880 F1000

N1100 M63		;POWDER MIXER OFF
N1110 M67		;POWDER FEED OFF
N1120 M65		;CARRIER OFF
N1130 M79     ;GAS 1 OFF

N1140 M0

N1150 M78     ; GAS 1 ON
N1160 M64		;CARRIER ON
N1170 H2 = R3	;SET POWDER FLOW
N1180 M62		;POWDER MIXER ON
N1190 M66		;POWDER FEED ON
N1200 G4F3

N1220 X53.3672 Y22.9503 F1000
N1230 ID=1 WHEN $AC_TIMER[1]>=0 DO M50
N1240 X53.314 Y23.279 F600
N1250 X53.171 Y23.678
N1260 X52.953 Y24.060
N1270 X52.610 Y24.467
N1280 X48.517 Y28.560
N1290 X48.185 Y28.850
N1300 X47.868 Y29.047
N1310 X47.532 Y29.191
N1320 X47.184 Y29.281
N1330 X46.816 Y29.320
N1340 X26.904 Y29.320
N1350 X26.077 Y29.233
N1360 X25.755 Y29.141
N1370 X25.475 Y29.035
N1380 X25.195 Y28.879
N1390 X24.921 Y28.690
N1400 X24.693 Y28.487
N1410 X24.490 Y28.258
N1420 X24.332 Y28.031
N1430 X24.180 Y27.739
N1440 X24.051 Y27.406
N1450 X23.978 Y27.142
N1460 X23.890 Y26.297
N1470 X23.896 Y5.634
N1480 X23.908 Y5.502
N1490 X23.977 Y5.365
N1500 X26.090 Y3.248
N1510 X26.099 Y15.745
N1520 X26.209 Y16.805
N1530 X26.255 Y17.056
N1540 X26.395 Y17.576
N1550 X26.634 Y18.204
N1560 X26.948 Y18.813
N1570 X27.058 Y18.990
N1580 X27.466 Y19.545
N1590 X27.796 Y19.915
N1600 X27.943 Y20.060
N1610 X28.436 Y20.476
N1620 X28.846 Y20.766
N1630 X29.029 Y20.878
N1640 X29.621 Y21.178
N1650 X30.272 Y21.424
N1660 X30.752 Y21.554
N1670 X31.003 Y21.601
N1680 X32.220 Y21.720
N1690 X52.174 Y21.720
N1700 X52.612 Y21.767
N1710 X52.827 Y21.837
N1720 X53.003 Y21.952
N1730 X53.174 Y22.136
N1740 X53.288 Y22.330
N1750 X53.348 Y22.545
N1760 X53.362 Y22.850
N1770 ID=1 WHEN $AC_TIMER[1]>=0 DO M51
N1780 X48.4043 Y24.6 F1000
N1790 ID=1 WHEN $AC_TIMER[1]>=0 DO M50
N1800 X46.564 Y26.440 F600
N1810 X27.054 Y26.440
N1820 X26.797 Y26.413
N1830 X26.770 Y26.149
N1840 X26.773 Y22.828
N1850 X27.344 Y23.224
N1860 X27.728 Y23.448
N1870 X28.321 Y23.747
N1880 X28.600 Y23.871
N1890 X29.251 Y24.117
N1900 X29.519 Y24.204
N1910 X30.224 Y24.386
N1920 X30.724 Y24.468
N1930 X31.940 Y24.586
N1940 X32.220 Y24.600
N1950 X48.304 Y24.600
N1960 ID=1 WHEN $AC_TIMER[1]>=0 DO M51

; Inicio do trecho do raster
; Final do trecho do raster



; Layer 3
N2080 G1 Z4.320 F1000

N1970 M63		;POWDER MIXER OFF
N1980 M67		;POWDER FEED OFF
N1990 M65		;CARRIER OFF
N2000 M79     ;GAS 1 OFF

N2010 M0

N2020 M78     ; GAS 1 ON
N2030 M64		;CARRIER ON
N2040 H2 = R3	;SET POWDER FLOW
N2050 M62		;POWDER MIXER ON
N2060 M66		;POWDER FEED ON
N2070 G4F3

N2090 X52.6947 Y23.5892 F1000
N2100 ID=1 WHEN $AC_TIMER[1]>=0 DO M50
N2110 X52.640 Y23.960 F600
N2120 X52.504 Y24.339
N2130 X52.275 Y24.730
N2140 X51.934 Y25.143
N2150 X47.853 Y29.224
N2160 X47.507 Y29.520
N2170 X47.181 Y29.727
N2180 X46.850 Y29.874
N2190 X46.528 Y29.958
N2200 X46.160 Y29.990
N2210 X26.234 Y29.990
N2220 X25.400 Y29.903
N2230 X25.070 Y29.811
N2240 X24.809 Y29.708
N2250 X24.512 Y29.547
N2260 X24.243 Y29.359
N2270 X24.030 Y29.163
N2280 X23.827 Y28.929
N2290 X23.634 Y28.649
N2300 X23.496 Y28.398
N2310 X23.376 Y28.082
N2320 X23.309 Y27.824
N2330 X23.220 Y26.967
N2340 X23.225 Y6.293
N2350 X23.240 Y6.155
N2360 X23.297 Y6.053
N2370 X23.390 Y5.942
N2380 X25.420 Y3.918
N2390 X25.429 Y16.415
N2400 X25.539 Y17.475
N2410 X25.590 Y17.746
N2420 X25.788 Y18.417
N2430 X25.958 Y18.857
N2440 X26.038 Y19.033
N2450 X26.278 Y19.483
N2460 X26.392 Y19.666
N2470 X26.806 Y20.225
N2480 X27.267 Y20.726
N2490 X27.627 Y21.046
N2500 X27.795 Y21.177
N2510 X28.378 Y21.557
N2520 X28.798 Y21.777
N2530 X28.972 Y21.856
N2540 X29.605 Y22.090
N2550 X30.065 Y22.220
N2560 X30.333 Y22.271
N2570 X31.550 Y22.390
N2580 X51.504 Y22.390
N2590 X51.942 Y22.437
N2600 X52.141 Y22.503
N2610 X52.355 Y22.640
N2620 X52.491 Y22.788
N2630 X52.600 Y22.980
N2640 X52.679 Y23.236
N2650 X52.690 Y23.489
N2660 ID=1 WHEN $AC_TIMER[1]>=0 DO M51
N2670 X47.7343 Y25.27 F1000
N2680 ID=1 WHEN $AC_TIMER[1]>=0 DO M50
N2690 X45.894 Y27.110 F600
N2700 X26.384 Y27.110
N2710 X26.127 Y27.083
N2720 X26.100 Y26.819
N2730 X26.101 Y23.499
N2740 X26.801 Y23.968
N2750 X27.041 Y24.109
N2760 X27.790 Y24.482
N2770 X28.606 Y24.791
N2780 X29.282 Y24.991
N2790 X29.790 Y25.100
N2800 X30.054 Y25.138
N2810 X31.270 Y25.256
N2820 X31.550 Y25.270
N2830 X47.634 Y25.270
N2840 ID=1 WHEN $AC_TIMER[1]>=0 DO M51

; Inicio do trecho do raster
; Final do trecho do raster



; Layer 4
N2960 G1 Z5.760 F1000

N2850 M63		;POWDER MIXER OFF
N2860 M67		;POWDER FEED OFF
N2870 M65		;CARRIER OFF
N2880 M79     ;GAS 1 OFF

N2890 M0

N2900 M78     ; GAS 1 ON
N2910 M64		;CARRIER ON
N2920 H2 = R3	;SET POWDER FLOW
N2930 M62		;POWDER MIXER ON
N2940 M66		;POWDER FEED ON
N2950 G4F3

N2970 X52.0247 Y24.2592 F1000
N2980 ID=1 WHEN $AC_TIMER[1]>=0 DO M50
N2990 X51.970 Y24.630 F600
N3000 X51.832 Y25.014
N3010 X51.605 Y25.408
N3020 X51.269 Y25.808
N3030 X47.183 Y29.894
N3040 X46.837 Y30.190
N3050 X46.511 Y30.397
N3060 X46.180 Y30.544
N3070 X45.858 Y30.628
N3080 X45.490 Y30.660
N3090 X25.564 Y30.660
N3100 X24.726 Y30.572
N3110 X24.386 Y30.480
N3120 X24.136 Y30.381
N3130 X23.838 Y30.215
N3140 X23.588 Y30.047
N3150 X23.337 Y29.820
N3160 X23.144 Y29.596
N3170 X22.990 Y29.377
N3180 X22.824 Y29.059
N3190 X22.721 Y28.804
N3200 X22.638 Y28.491
N3210 X22.550 Y27.646
N3220 X22.550 Y6.965
N3230 X22.574 Y6.824
N3240 X22.608 Y6.751
N3250 X22.740 Y6.593
N3260 X24.750 Y4.592
N3270 X24.759 Y17.097
N3280 X24.869 Y18.147
N3290 X24.916 Y18.401
N3300 X25.066 Y18.951
N3310 X25.297 Y19.550
N3320 X25.601 Y20.150
N3330 X25.722 Y20.346
N3340 X26.130 Y20.899
N3350 X26.430 Y21.239
N3360 X26.576 Y21.384
N3370 X26.976 Y21.734
N3380 X27.135 Y21.857
N3390 X27.703 Y22.230
N3400 X28.113 Y22.450
N3410 X28.311 Y22.539
N3420 X28.968 Y22.776
N3430 X29.418 Y22.896
N3440 X29.663 Y22.941
N3450 X30.880 Y23.060
N3460 X50.834 Y23.060
N3470 X51.256 Y23.105
N3480 X51.488 Y23.189
N3490 X51.662 Y23.295
N3500 X51.825 Y23.468
N3510 X51.945 Y23.693
N3520 X52.008 Y23.896
N3530 X52.020 Y24.159
N3540 ID=1 WHEN $AC_TIMER[1]>=0 DO M51
N3550 X47.0643 Y25.94 F1000
N3560 ID=1 WHEN $AC_TIMER[1]>=0 DO M50
N3570 X45.224 Y27.780 F600
N3580 X25.714 Y27.780
N3590 X25.457 Y27.753
N3600 X25.430 Y27.496
N3610 X25.430 Y24.172
N3620 X26.122 Y24.637
N3630 X26.927 Y25.074
N3640 X27.335 Y25.249
N3650 X28.226 Y25.559
N3660 X28.895 Y25.728
N3670 X29.384 Y25.808
N3680 X30.600 Y25.926
N3690 X30.880 Y25.940
N3700 X46.964 Y25.940
N3710 ID=1 WHEN $AC_TIMER[1]>=0 DO M51

; Inicio do trecho do raster
; Final do trecho do raster



; Layer 5
N3830 G1 Z7.200 F1000

N3720 M63		;POWDER MIXER OFF
N3730 M67		;POWDER FEED OFF
N3740 M65		;CARRIER OFF
N3750 M79     ;GAS 1 OFF

N3760 M0

N3770 M78     ; GAS 1 ON
N3780 M64		;CARRIER ON
N3790 H2 = R3	;SET POWDER FLOW
N3800 M62		;POWDER MIXER ON
N3810 M66		;POWDER FEED ON
N3820 G4F3

N3840 X51.3548 Y24.9387 F1000
N3850 ID=1 WHEN $AC_TIMER[1]>=0 DO M50
N3860 X51.300 Y25.310 F600
N3870 X51.164 Y25.689
N3880 X50.938 Y26.074
N3890 X50.599 Y26.478
N3900 X46.513 Y30.564
N3910 X46.167 Y30.860
N3920 X45.841 Y31.067
N3930 X45.510 Y31.214
N3940 X45.189 Y31.297
N3950 X44.811 Y31.330
N3960 X24.894 Y31.330
N3970 X24.062 Y31.243
N3980 X23.698 Y31.141
N3990 X23.456 Y31.046
N4000 X23.160 Y30.885
N4010 X22.926 Y30.724
N4020 X22.657 Y30.480
N4030 X22.474 Y30.267
N4040 X22.290 Y29.995
N4050 X22.163 Y29.746
N4060 X22.027 Y29.393
N4070 X21.969 Y29.167
N4080 X21.880 Y28.316
N4090 X21.880 Y7.633
N4100 X21.901 Y7.496
N4110 X21.939 Y7.419
N4120 X22.070 Y7.263
N4130 X24.080 Y5.259
N4140 X24.089 Y17.767
N4150 X24.199 Y18.817
N4160 X24.240 Y19.047
N4170 X24.411 Y19.681
N4180 X24.697 Y20.371
N4190 X24.947 Y20.841
N4200 X25.052 Y21.012
N4210 X25.362 Y21.452
N4220 X25.484 Y21.604
N4230 X25.895 Y22.044
N4240 X26.265 Y22.374
N4250 X26.430 Y22.503
N4260 X26.900 Y22.823
N4270 X27.071 Y22.924
N4280 X27.616 Y23.196
N4290 X28.189 Y23.414
N4300 X28.739 Y23.564
N4310 X28.993 Y23.611
N4320 X30.210 Y23.730
N4330 X50.164 Y23.730
N4340 X50.592 Y23.776
N4350 X50.792 Y23.846
N4360 X50.977 Y23.957
N4370 X51.146 Y24.126
N4380 X51.261 Y24.335
N4390 X51.339 Y24.589
N4400 X51.350 Y24.839
N4410 ID=1 WHEN $AC_TIMER[1]>=0 DO M51
N4420 X46.3943 Y26.61 F1000
N4430 ID=1 WHEN $AC_TIMER[1]>=0 DO M50
N4440 X44.554 Y28.450 F600
N4450 X25.044 Y28.450
N4460 X24.787 Y28.423
N4470 X24.760 Y28.166
N4480 X24.760 Y24.846
N4490 X25.430 Y25.299
N4500 X25.787 Y25.502
N4510 X26.332 Y25.774
N4520 X26.592 Y25.887
N4530 X27.165 Y26.105
N4540 X27.431 Y26.192
N4550 X28.208 Y26.394
N4560 X28.714 Y26.478
N4570 X29.930 Y26.596
N4580 X30.210 Y26.610
N4590 X46.294 Y26.610
N4600 ID=1 WHEN $AC_TIMER[1]>=0 DO M51

; Inicio do trecho do raster
; Final do trecho do raster



; Layer 6
N4720 G1 Z8.640 F1000

N4610 M63		;POWDER MIXER OFF
N4620 M67		;POWDER FEED OFF
N4630 M65		;CARRIER OFF
N4640 M79     ;GAS 1 OFF

N4650 M0

N4660 M78     ; GAS 1 ON
N4670 M64		;CARRIER ON
N4680 H2 = R3	;SET POWDER FLOW
N4690 M62		;POWDER MIXER ON
N4700 M66		;POWDER FEED ON
N4710 G4F3

N4730 X50.6823 Y25.609 F1000
N4740 ID=1 WHEN $AC_TIMER[1]>=0 DO M50
N4750 X50.624 Y25.969 F600
N4760 X50.481 Y26.368
N4770 X50.266 Y26.744
N4780 X49.925 Y27.142
N4790 X45.827 Y31.240
N4800 X45.487 Y31.537
N4810 X45.163 Y31.744
N4820 X44.846 Y31.883
N4830 X44.519 Y31.967
N4840 X44.141 Y32.000
N4850 X24.223 Y32.000
N4860 X23.381 Y31.913
N4870 X23.025 Y31.813
N4880 X22.785 Y31.717
N4890 X22.483 Y31.556
N4900 X22.264 Y31.401
N4910 X21.978 Y31.141
N4920 X21.799 Y30.934
N4930 X21.605 Y30.639
N4940 X21.486 Y30.417
N4950 X21.354 Y30.050
N4960 X21.287 Y29.815
N4970 X21.200 Y28.986
N4980 X21.200 Y8.357
N4990 X21.222 Y8.182
N5000 X21.270 Y8.086
N5010 X21.366 Y7.977
N5020 X23.400 Y5.945
N5030 X23.409 Y18.437
N5040 X23.519 Y19.487
N5050 X23.575 Y19.770
N5060 X23.787 Y20.474
N5070 X23.937 Y20.864
N5080 X24.030 Y21.065
N5090 X24.386 Y21.687
N5100 X24.706 Y22.137
N5110 X25.103 Y22.592
N5120 X25.234 Y22.722
N5130 X25.777 Y23.187
N5140 X26.117 Y23.427
N5150 X26.302 Y23.540
N5160 X26.933 Y23.860
N5170 X27.323 Y24.020
N5180 X27.509 Y24.084
N5190 X28.059 Y24.234
N5200 X28.315 Y24.281
N5210 X29.540 Y24.400
N5220 X49.485 Y24.400
N5230 X49.975 Y24.458
N5240 X50.120 Y24.518
N5250 X50.325 Y24.644
N5260 X50.481 Y24.802
N5270 X50.592 Y25.004
N5280 X50.659 Y25.220
N5290 X50.676 Y25.509
N5300 ID=1 WHEN $AC_TIMER[1]>=0 DO M51
N5310 X45.7143 Y27.28 F1000
N5320 ID=1 WHEN $AC_TIMER[1]>=0 DO M50
N5330 X43.874 Y29.120 F600
N5340 X24.372 Y29.120
N5350 X24.107 Y29.093
N5360 X24.080 Y28.836
N5370 X24.080 Y25.501
N5380 X24.619 Y25.887
N5390 X24.997 Y26.107
N5400 X25.840 Y26.525
N5410 X26.582 Y26.810
N5420 X27.301 Y27.012
N5430 X27.786 Y27.112
N5440 X28.037 Y27.148
N5450 X29.263 Y27.267
N5460 X29.540 Y27.280
N5470 X45.614 Y27.280
N5480 ID=1 WHEN $AC_TIMER[1]>=0 DO M51

; Inicio do trecho do raster
; Final do trecho do raster



; Layer 7
N5600 G1 Z10.080 F1000

N5490 M63		;POWDER MIXER OFF
N5500 M67		;POWDER FEED OFF
N5510 M65		;CARRIER OFF
N5520 M79     ;GAS 1 OFF

N5530 M0

N5540 M78     ; GAS 1 ON
N5550 M64		;CARRIER ON
N5560 H2 = R3	;SET POWDER FLOW
N5570 M62		;POWDER MIXER ON
N5580 M66		;POWDER FEED ON
N5590 G4F3

N5610 X50.0122 Y26.2797 F1000
N5620 ID=1 WHEN $AC_TIMER[1]>=0 DO M50
N5630 X49.954 Y26.639 F600
N5640 X49.811 Y27.038
N5650 X49.596 Y27.414
N5660 X49.255 Y27.812
N5670 X45.157 Y31.910
N5680 X44.817 Y32.207
N5690 X44.498 Y32.412
N5700 X44.168 Y32.553
N5710 X43.846 Y32.638
N5720 X43.471 Y32.670
N5730 X23.553 Y32.670
N5740 X22.701 Y32.582
N5750 X22.366 Y32.492
N5760 X22.124 Y32.391
N5770 X21.816 Y32.228
N5780 X21.530 Y32.023
N5790 X21.310 Y31.815
N5800 X21.117 Y31.589
N5810 X20.980 Y31.393
N5820 X20.821 Y31.106
N5830 X20.676 Y30.705
N5840 X20.618 Y30.493
N5850 X20.530 Y29.656
N5860 X20.530 Y8.994
N5870 X20.545 Y8.867
N5880 X20.597 Y8.765
N5890 X20.707 Y8.636
N5900 X22.730 Y6.619
N5910 X22.739 Y19.107
N5920 X22.849 Y20.157
N5930 X22.901 Y20.426
N5940 X23.122 Y21.177
N5950 X23.272 Y21.557
N5960 X23.360 Y21.744
N5970 X23.620 Y22.214
N5980 X23.730 Y22.386
N5990 X24.172 Y22.973
N6000 X24.512 Y23.343
N6010 X24.649 Y23.475
N6020 X25.125 Y23.873
N6030 X25.610 Y24.198
N6040 X26.110 Y24.468
N6050 X26.663 Y24.698
N6060 X27.396 Y24.906
N6070 X27.645 Y24.951
N6080 X28.870 Y25.070
N6090 X48.815 Y25.070
N6100 X49.239 Y25.115
N6110 X49.467 Y25.195
N6120 X49.648 Y25.310
N6130 X49.803 Y25.474
N6140 X49.924 Y25.680
N6150 X49.989 Y25.900
N6160 X50.006 Y26.180
N6170 ID=1 WHEN $AC_TIMER[1]>=0 DO M51
N6180 X45.0443 Y27.95 F1000
N6190 ID=1 WHEN $AC_TIMER[1]>=0 DO M50
N6200 X43.204 Y29.790 F600
N6210 X23.702 Y29.790
N6220 X23.437 Y29.763
N6230 X23.410 Y29.506
N6240 X23.410 Y26.181
N6250 X24.005 Y26.589
N6260 X24.241 Y26.732
N6270 X24.741 Y27.002
N6280 X25.002 Y27.126
N6290 X25.555 Y27.357
N6300 X25.879 Y27.470
N6310 X26.613 Y27.677
N6320 X27.122 Y27.784
N6330 X27.367 Y27.818
N6340 X28.593 Y27.937
N6350 X28.870 Y27.950
N6360 X44.944 Y27.950
N6370 ID=1 WHEN $AC_TIMER[1]>=0 DO M51

; Inicio do trecho do raster
; Final do trecho do raster



; Layer 8
N6490 G1 Z11.520 F1000

N6380 M63		;POWDER MIXER OFF
N6390 M67		;POWDER FEED OFF
N6400 M65		;CARRIER OFF
N6410 M79     ;GAS 1 OFF

N6420 M0

N6430 M78     ; GAS 1 ON
N6440 M64		;CARRIER ON
N6450 H2 = R3	;SET POWDER FLOW
N6460 M62		;POWDER MIXER ON
N6470 M66		;POWDER FEED ON
N6480 G4F3

N6500 X49.3422 Y26.9497 F1000
N6510 ID=1 WHEN $AC_TIMER[1]>=0 DO M50
N6520 X49.284 Y27.309 F600
N6530 X49.141 Y27.708
N6540 X48.923 Y28.090
N6550 X48.580 Y28.497
N6560 X44.487 Y32.590
N6570 X44.155 Y32.880
N6580 X43.838 Y33.077
N6590 X43.498 Y33.223
N6600 X43.176 Y33.308
N6610 X42.801 Y33.340
N6620 X22.866 Y33.340
N6630 X22.045 Y33.262
N6640 X21.666 Y33.150
N6650 X21.448 Y33.059
N6660 X21.127 Y32.892
N6670 X20.909 Y32.737
N6680 X20.673 Y32.527
N6690 X20.479 Y32.309
N6700 X20.246 Y31.960
N6710 X20.153 Y31.783
N6720 X19.997 Y31.366
N6730 X19.949 Y31.182
N6740 X19.860 Y30.327
N6750 X19.860 Y9.661
N6760 X19.874 Y9.539
N6770 X19.927 Y9.435
N6780 X20.037 Y9.306
N6790 X22.060 Y7.286
N6800 X22.069 Y19.775
N6810 X22.179 Y20.835
N6820 X22.223 Y21.077
N6830 X22.371 Y21.609
N6840 X22.591 Y22.199
N6850 X22.690 Y22.414
N6860 X23.030 Y23.013
N6870 X23.290 Y23.393
N6880 X23.416 Y23.555
N6890 X23.746 Y23.925
N6900 X23.894 Y24.071
N6910 X24.454 Y24.545
N6920 X24.764 Y24.765
N6930 X24.953 Y24.880
N6940 X25.630 Y25.221
N6950 X26.113 Y25.403
N6960 X26.683 Y25.573
N6970 X26.988 Y25.633
N6980 X28.190 Y25.740
N6990 X48.145 Y25.740
N7000 X48.555 Y25.783
N7010 X48.795 Y25.866
N7020 X48.957 Y25.967
N7030 X49.120 Y26.132
N7040 X49.255 Y26.358
N7050 X49.320 Y26.576
N7060 X49.336 Y26.850
N7070 ID=1 WHEN $AC_TIMER[1]>=0 DO M51
N7080 X44.3843 Y28.62 F1000
N7090 ID=1 WHEN $AC_TIMER[1]>=0 DO M50
N7100 X42.544 Y30.460 F600
N7110 X23.003 Y30.460
N7120 X22.767 Y30.438
N7130 X22.740 Y30.178
N7140 X22.740 Y26.854
N7150 X23.263 Y27.223
N7160 X23.657 Y27.452
N7170 X24.334 Y27.793
N7180 X24.614 Y27.916
N7190 X25.290 Y28.163
N7200 X25.860 Y28.333
N7210 X26.438 Y28.460
N7220 X26.732 Y28.501
N7230 X27.934 Y28.609
N7240 X28.190 Y28.620
N7250 X44.284 Y28.620
N7260 ID=1 WHEN $AC_TIMER[1]>=0 DO M51

; Inicio do trecho do raster
; Final do trecho do raster



; Layer 9
N7380 G1 Z12.960 F1000

N7270 M63		;POWDER MIXER OFF
N7280 M67		;POWDER FEED OFF
N7290 M65		;CARRIER OFF
N7300 M79     ;GAS 1 OFF

N7310 M0

N7320 M78     ; GAS 1 ON
N7330 M64		;CARRIER ON
N7340 H2 = R3	;SET POWDER FLOW
N7350 M62		;POWDER MIXER ON
N7360 M66		;POWDER FEED ON
N7370 G4F3

N7390 X48.6722 Y27.6197 F1000
N7400 ID=1 WHEN $AC_TIMER[1]>=0 DO M50
N7410 X48.614 Y27.979 F600
N7420 X48.471 Y28.378
N7430 X48.253 Y28.760
N7440 X47.910 Y29.167
N7450 X43.823 Y33.254
N7460 X43.451 Y33.571
N7470 X43.168 Y33.747
N7480 X42.817 Y33.897
N7490 X42.529 Y33.977
N7500 X42.116 Y34.020
N7510 X22.211 Y34.020
N7520 X21.340 Y33.926
N7530 X21.185 Y33.884
N7540 X20.772 Y33.732
N7550 X20.466 Y33.560
N7560 X20.228 Y33.398
N7570 X20.013 Y33.205
N7580 X19.754 Y32.906
N7590 X19.644 Y32.749
N7600 X19.455 Y32.398
N7610 X19.379 Y32.203
N7620 X19.277 Y31.839
N7630 X19.190 Y30.997
N7640 X19.190 Y10.359
N7650 X19.217 Y10.181
N7660 X19.261 Y10.094
N7670 X19.367 Y9.966
N7680 X21.390 Y7.947
N7690 X21.399 Y20.445
N7700 X21.509 Y21.505
N7710 X21.563 Y21.786
N7720 X21.794 Y22.554
N7730 X22.013 Y23.072
N7740 X22.273 Y23.552
N7750 X22.631 Y24.080
N7760 X23.076 Y24.595
N7770 X23.224 Y24.741
N7780 X23.664 Y25.121
N7790 X23.836 Y25.250
N7800 X24.404 Y25.615
N7810 X24.734 Y25.795
N7820 X24.949 Y25.892
N7830 X25.683 Y26.155
N7840 X26.053 Y26.255
N7850 X26.303 Y26.301
N7860 X27.520 Y26.420
N7870 X47.474 Y26.420
N7880 X47.905 Y26.466
N7890 X48.098 Y26.523
N7900 X48.294 Y26.647
N7910 X48.513 Y26.891
N7920 X48.585 Y27.031
N7930 X48.650 Y27.253
N7940 X48.666 Y27.520
N7950 ID=1 WHEN $AC_TIMER[1]>=0 DO M51
N7960 X43.7043 Y29.3 F1000
N7970 ID=1 WHEN $AC_TIMER[1]>=0 DO M50
N7980 X41.864 Y31.140 F600
N7990 X22.366 Y31.140
N8000 X22.097 Y31.111
N8010 X22.070 Y30.848
N8020 X22.070 Y27.522
N8030 X22.280 Y27.674
N8040 X23.025 Y28.143
N8050 X23.545 Y28.418
N8060 X23.979 Y28.604
N8070 X24.931 Y28.935
N8080 X25.525 Y29.086
N8090 X26.024 Y29.168
N8100 X27.240 Y29.286
N8110 X27.520 Y29.300
N8120 X43.604 Y29.300
N8130 ID=1 WHEN $AC_TIMER[1]>=0 DO M51

; Inicio do trecho do raster
; Final do trecho do raster



; Layer 10
N8250 G1 Z14.400 F1000

N8140 M63		;POWDER MIXER OFF
N8150 M67		;POWDER FEED OFF
N8160 M65		;CARRIER OFF
N8170 M79     ;GAS 1 OFF

N8180 M0

N8190 M78     ; GAS 1 ON
N8200 M64		;CARRIER ON
N8210 H2 = R3	;SET POWDER FLOW
N8220 M62		;POWDER MIXER ON
N8230 M66		;POWDER FEED ON
N8240 G4F3

N8260 X47.9947 Y28.2892 F1000
N8270 ID=1 WHEN $AC_TIMER[1]>=0 DO M50
N8280 X47.940 Y28.660 F600
N8290 X47.804 Y29.039
N8300 X47.575 Y29.430
N8310 X47.234 Y29.843
N8320 X43.153 Y33.924
N8330 X42.807 Y34.220
N8340 X42.481 Y34.427
N8350 X42.150 Y34.574
N8360 X41.828 Y34.658
N8370 X41.460 Y34.690
N8380 X21.534 Y34.690
N8390 X20.714 Y34.604
N8400 X20.282 Y34.476
N8410 X20.112 Y34.409
N8420 X19.776 Y34.224
N8430 X19.555 Y34.074
N8440 X19.349 Y33.891
N8450 X19.081 Y33.573
N8460 X18.976 Y33.428
N8470 X18.797 Y33.083
N8480 X18.649 Y32.683
N8490 X18.609 Y32.526
N8500 X18.520 Y31.676
N8510 X18.520 Y11.028
N8520 X18.543 Y10.861
N8530 X18.587 Y10.777
N8540 X18.706 Y10.626
N8550 X20.720 Y8.618
N8560 X20.729 Y21.127
N8570 X20.839 Y22.177
N8580 X20.880 Y22.408
N8590 X21.020 Y22.916
N8600 X21.250 Y23.536
N8610 X21.337 Y23.730
N8620 X21.597 Y24.220
N8630 X21.713 Y24.407
N8640 X22.062 Y24.879
N8650 X22.392 Y25.259
N8660 X22.535 Y25.404
N8670 X22.905 Y25.734
N8680 X23.074 Y25.866
N8690 X23.572 Y26.194
N8700 X24.102 Y26.484
N8710 X24.299 Y26.574
N8720 X24.767 Y26.747
N8730 X25.357 Y26.917
N8740 X25.633 Y26.971
N8750 X26.850 Y27.090
N8760 X46.804 Y27.090
N8770 X47.216 Y27.134
N8780 X47.495 Y27.231
N8790 X47.639 Y27.332
N8800 X47.786 Y27.483
N8810 X47.898 Y27.673
N8820 X47.978 Y27.918
N8830 X47.990 Y28.189
N8840 ID=1 WHEN $AC_TIMER[1]>=0 DO M51
N8850 X43.0343 Y29.97 F1000
N8860 ID=1 WHEN $AC_TIMER[1]>=0 DO M50
N8870 X41.194 Y31.810 F600
N8880 X21.684 Y31.810
N8890 X21.427 Y31.783
N8900 X21.400 Y31.526
N8910 X21.400 Y28.204
N8920 X22.190 Y28.720
N8930 X22.894 Y29.098
N8940 X23.301 Y29.276
N8950 X23.970 Y29.515
N8960 X24.806 Y29.744
N8970 X25.354 Y29.838
N8980 X26.570 Y29.956
N8990 X26.850 Y29.970
N9000 X42.934 Y29.970
N9010 ID=1 WHEN $AC_TIMER[1]>=0 DO M51

; Inicio do trecho do raster
; Final do trecho do raster



; Layer 11
N9130 G1 Z15.840 F1000

N9020 M63		;POWDER MIXER OFF
N9030 M67		;POWDER FEED OFF
N9040 M65		;CARRIER OFF
N9050 M79     ;GAS 1 OFF

N9060 M0

N9070 M78     ; GAS 1 ON
N9080 M64		;CARRIER ON
N9090 H2 = R3	;SET POWDER FLOW
N9100 M62		;POWDER MIXER ON
N9110 M66		;POWDER FEED ON
N9120 G4F3

N9140 X47.3247 Y28.9592 F1000
N9150 ID=1 WHEN $AC_TIMER[1]>=0 DO M50
N9160 X47.270 Y29.330 F600
N9170 X47.132 Y29.714
N9180 X46.905 Y30.108
N9190 X46.569 Y30.508
N9200 X42.483 Y34.594
N9210 X42.137 Y34.890
N9220 X41.811 Y35.097
N9230 X41.480 Y35.244
N9240 X41.158 Y35.328
N9250 X40.790 Y35.360
N9260 X20.864 Y35.360
N9270 X20.040 Y35.274
N9280 X19.599 Y35.145
N9290 X19.432 Y35.079
N9300 X19.105 Y34.899
N9310 X18.892 Y34.751
N9320 X18.663 Y34.547
N9330 X18.456 Y34.314
N9340 X18.304 Y34.099
N9350 X18.110 Y33.738
N9360 X18.051 Y33.580
N9370 X17.937 Y33.176
N9380 X17.850 Y32.346
N9390 X17.850 Y11.695
N9400 X17.872 Y11.527
N9410 X17.907 Y11.451
N9420 X18.025 Y11.308
N9430 X20.050 Y9.288
N9440 X20.059 Y21.797
N9450 X20.169 Y22.847
N9460 X20.224 Y23.129
N9470 X20.468 Y23.932
N9480 X20.667 Y24.400
N9490 X20.927 Y24.890
N9500 X21.031 Y25.060
N9510 X21.406 Y25.575
N9520 X21.865 Y26.074
N9530 X22.235 Y26.404
N9540 X22.387 Y26.524
N9550 X22.888 Y26.861
N9560 X23.378 Y27.131
N9570 X23.563 Y27.218
N9580 X24.094 Y27.419
N9590 X24.694 Y27.589
N9600 X24.963 Y27.641
N9610 X26.180 Y27.760
N9620 X46.134 Y27.760
N9630 X46.552 Y27.805
N9640 X46.686 Y27.845
N9650 X46.857 Y27.929
N9660 X46.954 Y27.994
N9670 X47.135 Y28.188
N9680 X47.225 Y28.347
N9690 X47.309 Y28.604
N9700 X47.320 Y28.859
N9710 ID=1 WHEN $AC_TIMER[1]>=0 DO M51
N9720 X42.3643 Y30.64 F1000
N9730 ID=1 WHEN $AC_TIMER[1]>=0 DO M50
N9740 X40.524 Y32.480 F600
N9750 X21.014 Y32.480
N9760 X20.757 Y32.453
N9770 X20.730 Y32.196
N9780 X20.730 Y28.872
N9790 X21.279 Y29.250
N9800 X22.152 Y29.737
N9810 X22.543 Y29.912
N9820 X23.309 Y30.190
N9830 X24.149 Y30.417
N9840 X24.684 Y30.508
N9850 X25.900 Y30.626
N9860 X26.180 Y30.640
N9870 X42.264 Y30.640
N9880 ID=1 WHEN $AC_TIMER[1]>=0 DO M51

; Inicio do trecho do raster
; Final do trecho do raster



; Layer 12
N10000 G1 Z17.280 F1000

N9890 M63		;POWDER MIXER OFF
N9900 M67		;POWDER FEED OFF
N9910 M65		;CARRIER OFF
N9920 M79     ;GAS 1 OFF

N9930 M0

N9940 M78     ; GAS 1 ON
N9950 M64		;CARRIER ON
N9960 H2 = R3	;SET POWDER FLOW
N9970 M62		;POWDER MIXER ON
N9980 M66		;POWDER FEED ON
N9990 G4F3

N10010 X46.653 Y29.6506 F1000
N10020 ID=1 WHEN $AC_TIMER[1]>=0 DO M50
N10030 X46.600 Y30.010 F600
N10040 X46.464 Y30.389
N10050 X46.238 Y30.774
N10060 X45.899 Y31.178
N10070 X41.813 Y35.264
N10080 X41.467 Y35.560
N10090 X41.141 Y35.767
N10100 X40.810 Y35.914
N10110 X40.489 Y35.997
N10120 X40.111 Y36.030
N10130 X20.193 Y36.030
N10140 X19.353 Y35.943
N10150 X18.970 Y35.834
N10160 X18.749 Y35.745
N10170 X18.590 Y35.662
N10180 X18.281 Y35.465
N10190 X17.986 Y35.209
N10200 X17.789 Y34.988
N10210 X17.643 Y34.778
N10220 X17.435 Y34.395
N10230 X17.376 Y34.244
N10240 X17.258 Y33.845
N10250 X17.180 Y33.024
N10260 X17.180 Y12.362
N10270 X17.201 Y12.200
N10280 X17.230 Y12.137
N10290 X17.364 Y11.969
N10300 X19.323 Y10.010
N10310 X19.380 Y9.965
N10320 X19.387 Y22.452
N10330 X19.487 Y23.502
N10340 X19.549 Y23.814
N10350 X19.804 Y24.629
N10360 X20.002 Y25.080
N10370 X20.366 Y25.733
N10380 X20.616 Y26.093
N10390 X20.736 Y26.245
N10400 X21.066 Y26.615
N10410 X21.210 Y26.757
N10420 X21.670 Y27.157
N10430 X21.859 Y27.299
N10440 X22.458 Y27.673
N10450 X22.962 Y27.922
N10460 X23.414 Y28.089
N10470 X24.014 Y28.259
N10480 X24.285 Y28.311
N10490 X25.510 Y28.430
N10500 X45.464 Y28.430
N10510 X45.869 Y28.474
N10520 X46.083 Y28.544
N10530 X46.271 Y28.654
N10540 X46.469 Y28.855
N10550 X46.586 Y29.093
N10560 X46.631 Y29.285
N10570 X46.647 Y29.551
N10580 ID=1 WHEN $AC_TIMER[1]>=0 DO M51
N10590 X41.6943 Y31.31 F1000
N10600 ID=1 WHEN $AC_TIMER[1]>=0 DO M50
N10610 X39.854 Y33.150 F600
N10620 X20.342 Y33.150
N10630 X20.082 Y33.123
N10640 X20.060 Y32.887
N10650 X20.060 Y29.546
N10660 X20.333 Y29.741
N10670 X20.933 Y30.116
N10680 X21.182 Y30.255
N10690 X21.686 Y30.504
N10700 X21.962 Y30.623
N10710 X22.629 Y30.860
N10720 X23.471 Y31.088
N10730 X24.007 Y31.178
N10740 X25.233 Y31.297
N10750 X25.510 Y31.310
N10760 X41.594 Y31.310
N10770 ID=1 WHEN $AC_TIMER[1]>=0 DO M51

; Inicio do trecho do raster
; Final do trecho do raster

3

; Layer 13
N10890 G1 Z18.720 F1000

N10780 M63		;POWDER MIXER OFF
N10790 M67		;POWDER FEED OFF
N10800 M65		;CARRIER OFF
N10810 M79     ;GAS 1 OFF

N10820 M0

N10830 M78     ; GAS 1 ON
N10840 M64		;CARRIER ON
N10850 H2 = R3	;SET POWDER FLOW
N10860 M62		;POWDER MIXER ON
N10870 M66		;POWDER FEED ON
N10880 G4F

N10900 X45.9823 Y30.309 F1000
N10910 ID=1 WHEN $AC_TIMER[1]>=0 DO M50
N10920 X45.924 Y30.669 F600
N10930 X45.781 Y31.068
N10940 X45.566 Y31.444
N10950 X45.225 Y31.842
N10960 X41.127 Y35.940
N10970 X40.787 Y36.237
N10980 X40.463 Y36.444
N10990 X40.146 Y36.583
N11000 X39.819 Y36.667
N11010 X39.441 Y36.700
N11020 X19.523 Y36.700
N11030 X18.664 Y36.611
N11040 X18.261 Y36.487
N11050 X18.089 Y36.419
N11060 X17.758 Y36.240
N11070 X17.560 Y36.098
N11080 X17.330 Y35.893
N11090 X17.069 Y35.594
N11100 X16.865 Y35.267
N11110 X16.782 Y35.113
N11120 X16.705 Y34.919
N11130 X16.586 Y34.510
N11140 X16.500 Y33.689
N11150 X16.500 Y13.052
N11160 X16.528 Y12.870
N11170 X16.554 Y12.814
N11180 X16.683 Y12.660
N11190 X18.700 Y10.644
N11200 X18.709 Y23.137
N11210 X18.819 Y24.187
N11220 X18.873 Y24.466
N11230 X19.104 Y25.234
N11240 X19.244 Y25.584
N11250 X19.334 Y25.772
N11260 X19.671 Y26.366
N11270 X19.841 Y26.626
N11280 X19.974 Y26.802
N11290 X20.384 Y27.272
N11300 X20.525 Y27.414
N11310 X21.030 Y27.852
N11320 X21.380 Y28.102
N11330 X21.554 Y28.210
N11340 X22.114 Y28.510
N11350 X22.341 Y28.610
N11360 X23.070 Y28.859
N11370 X23.380 Y28.939
N11380 X23.615 Y28.981
N11390 X24.840 Y29.100
N11400 X44.785 Y29.100
N11410 X45.206 Y29.145
N11420 X45.361 Y29.192
N11430 X45.494 Y29.257
N11440 X45.623 Y29.346
N11450 X45.762 Y29.484
N11460 X45.899 Y29.736
N11470 X45.960 Y29.934
N11480 X45.976 Y30.209
N11490 ID=1 WHEN $AC_TIMER[1]>=0 DO M51
N11500 X41.0143 Y31.98 F1000
N11510 ID=1 WHEN $AC_TIMER[1]>=0 DO M50
N11520 X39.174 Y33.820 F600
N11530 X19.672 Y33.820
N11540 X19.407 Y33.792
N11550 X19.380 Y33.539
N11560 X19.380 Y30.200
N11570 X19.860 Y30.548
N11580 X20.194 Y30.749
N11590 X20.955 Y31.147
N11600 X21.410 Y31.335
N11610 X22.351 Y31.648
N11620 X22.870 Y31.774
N11630 X23.337 Y31.848
N11640 X24.563 Y31.967
N11650 X24.840 Y31.980
N11660 X40.914 Y31.980
N11670 ID=1 WHEN $AC_TIMER[1]>=0 DO M51

; Inicio do trecho do raster
; Final do trecho do raster

3

; Layer 14
N11790 G1 Z20.160 F1000

N11680 M63		;POWDER MIXER OFF
N11690 M67		;POWDER FEED OFF
N11700 M65		;CARRIER OFF
N11710 M79     ;GAS 1 OFF

N11720 M0

N11730 M78     ; GAS 1 ON
N11740 M64		;CARRIER ON
N11750 H2 = R3	;SET POWDER FLOW
N11760 M62		;POWDER MIXER ON
N11770 M66		;POWDER FEED ON
N11780 G4F

N11800 X45.3122 Y30.9797 F1000
N11810 ID=1 WHEN $AC_TIMER[1]>=0 DO M50
N11820 X45.254 Y31.339 F600
N11830 X45.111 Y31.738
N11840 X44.896 Y32.114
N11850 X44.555 Y32.512
N11860 X40.457 Y36.610
N11870 X40.117 Y36.907
N11880 X39.798 Y37.112
N11890 X39.468 Y37.253
N11900 X39.146 Y37.338
N11910 X38.771 Y37.370
N11920 X18.844 Y37.370
N11930 X18.019 Y37.284
N11940 X17.611 Y37.165
N11950 X17.419 Y37.089
N11960 X17.088 Y36.910
N11970 X16.882 Y36.762
N11980 X16.636 Y36.549
N11990 X16.442 Y36.331
N12000 X16.306 Y36.133
N12010 X16.083 Y35.723
N12020 X16.037 Y35.607
N12030 X15.917 Y35.185
N12040 X15.830 Y34.356
N12050 X15.830 Y13.719
N12060 X15.856 Y13.543
N12070 X15.884 Y13.484
N12080 X16.013 Y13.330
N12090 X18.030 Y11.315
N12100 X18.038 Y23.800
N12110 X18.149 Y24.857
N12120 X18.202 Y25.130
N12130 X18.434 Y25.914
N12140 X18.574 Y26.264
N12150 X18.664 Y26.452
N12160 X19.020 Y27.075
N12170 X19.260 Y27.425
N12180 X19.386 Y27.585
N12190 X19.716 Y27.955
N12200 X19.861 Y28.098
N12210 X20.360 Y28.522
N12220 X20.710 Y28.772
N12230 X20.895 Y28.886
N12240 X21.625 Y29.259
N12250 X22.044 Y29.417
N12260 X22.664 Y29.597
N12270 X22.943 Y29.651
N12280 X24.160 Y29.770
N12290 X44.115 Y29.770
N12300 X44.552 Y29.816
N12310 X44.775 Y29.901
N12320 X45.015 Y30.070
N12330 X45.154 Y30.257
N12340 X45.213 Y30.357
N12350 X45.290 Y30.614
N12360 X45.306 Y30.880
N12370 ID=1 WHEN $AC_TIMER[1]>=0 DO M51
N12380 X40.3443 Y32.65 F1000
N12390 ID=1 WHEN $AC_TIMER[1]>=0 DO M50
N12400 X38.504 Y34.490 F600
N12410 X18.994 Y34.490
N12420 X18.737 Y34.463
N12430 X18.710 Y34.206
N12440 X18.710 Y30.882
N12450 X19.199 Y31.224
N12460 X19.584 Y31.450
N12470 X20.314 Y31.823
N12480 X20.612 Y31.955
N12490 X21.241 Y32.182
N12500 X21.861 Y32.362
N12510 X22.390 Y32.478
N12520 X22.664 Y32.518
N12530 X23.880 Y32.636
N12540 X24.160 Y32.650
N12550 X40.244 Y32.650
N12560 ID=1 WHEN $AC_TIMER[1]>=0 DO M51

; Inicio do trecho do raster
; Final do trecho do raster

3

; Layer 15
N12680 G1 Z21.600 F1000

N12570 M63		;POWDER MIXER OFF
N12580 M67		;POWDER FEED OFF
N12590 M65		;CARRIER OFF
N12600 M79     ;GAS 1 OFF

N12610 M0

N12620 M78     ; GAS 1 ON
N12630 M64		;CARRIER ON
N12640 H2 = R3	;SET POWDER FLOW
N12650 M62		;POWDER MIXER ON
N12660 M66		;POWDER FEED ON
N12670 G4F

N12690 X44.6422 Y31.6497 F1000
N12700 ID=1 WHEN $AC_TIMER[1]>=0 DO M50
N12710 X44.584 Y32.009 F600
N12720 X44.441 Y32.408
N12730 X44.223 Y32.790
N12740 X43.880 Y33.197
N12750 X39.787 Y37.290
N12760 X39.455 Y37.580
N12770 X39.138 Y37.777
N12780 X38.798 Y37.923
N12790 X38.476 Y38.008
N12800 X38.101 Y38.040
N12810 X18.166 Y38.040
N12820 X17.356 Y37.963
N12830 X16.880 Y37.815
N12840 X16.757 Y37.763
N12850 X16.403 Y37.576
N12860 X16.210 Y37.438
N12870 X15.973 Y37.227
N12880 X15.765 Y36.993
N12890 X15.634 Y36.808
N12900 X15.423 Y36.412
N12910 X15.246 Y35.854
N12920 X15.160 Y35.027
N12930 X15.160 Y14.405
N12940 X15.189 Y14.207
N12950 X15.209 Y14.166
N12960 X15.362 Y13.981
N12970 X17.360 Y11.985
N12980 X17.369 Y24.475
N12990 X17.503 Y25.694
N13000 X17.790 Y26.626
N13010 X17.890 Y26.896
N13020 X17.987 Y27.110
N13030 X18.363 Y27.773
N13040 X18.716 Y28.255
N13050 X19.175 Y28.754
N13060 X19.680 Y29.192
N13070 X20.030 Y29.442
N13080 X20.206 Y29.551
N13090 X20.786 Y29.861
N13100 X20.984 Y29.950
N13110 X21.348 Y30.082
N13120 X21.978 Y30.272
N13130 X22.288 Y30.333
N13140 X23.490 Y30.440
N13150 X43.445 Y30.440
N13160 X43.854 Y30.483
N13170 X44.067 Y30.553
N13180 X44.231 Y30.652
N13190 X44.386 Y30.794
N13200 X44.472 Y30.912
N13210 X44.568 Y31.091
N13220 X44.622 Y31.310
N13230 X44.636 Y31.550
N13240 ID=1 WHEN $AC_TIMER[1]>=0 DO M51
N13250 X39.6843 Y33.32 F1000
N13260 ID=1 WHEN $AC_TIMER[1]>=0 DO M50
N13270 X37.844 Y35.160 F600
N13280 X18.303 Y35.160
N13290 X18.067 Y35.138
N13300 X18.040 Y34.878
N13310 X18.040 Y31.547
N13320 X18.511 Y31.889
N13330 X18.848 Y32.091
N13340 X19.604 Y32.488
N13350 X20.005 Y32.659
N13360 X20.516 Y32.839
N13370 X21.146 Y33.029
N13380 X21.733 Y33.159
N13390 X22.032 Y33.201
N13400 X23.234 Y33.309
N13410 X23.490 Y33.320
N13420 X39.584 Y33.320
N13430 ID=1 WHEN $AC_TIMER[1]>=0 DO M51

; Inicio do trecho do raster
; Final do trecho do raster

3

; Layer 16
N13550 G1 Z23.040 F1000

N13440 M63		;POWDER MIXER OFF
N13450 M67		;POWDER FEED OFF
N13460 M65		;CARRIER OFF
N13470 M79     ;GAS 1 OFF

N13480 M0

N13490 M78     ; GAS 1 ON
N13500 M64		;CARRIER ON
N13510 H2 = R3	;SET POWDER FLOW
N13520 M62		;POWDER MIXER ON
N13530 M66		;POWDER FEED ON
N13540 G4F

N13560 X43.9647 Y32.3192 F1000
N13570 ID=1 WHEN $AC_TIMER[1]>=0 DO M50
N13580 X43.910 Y32.690 F600
N13590 X43.771 Y33.078
N13600 X43.553 Y33.460
N13610 X43.210 Y33.867
N13620 X39.123 Y37.954
N13630 X38.777 Y38.250
N13640 X38.451 Y38.457
N13650 X38.120 Y38.604
N13660 X37.798 Y38.688
N13670 X37.430 Y38.720
N13680 X17.504 Y38.720
N13690 X16.656 Y38.631
N13700 X16.271 Y38.513
N13710 X16.081 Y38.439
N13720 X15.743 Y38.253
N13730 X15.540 Y38.108
N13740 X15.303 Y37.897
N13750 X15.095 Y37.663
N13760 X14.959 Y37.471
N13770 X14.771 Y37.129
N13780 X14.704 Y36.958
N13790 X14.576 Y36.527
N13800 X14.490 Y35.697
N13810 X14.490 Y15.064
N13820 X14.521 Y14.873
N13830 X14.541 Y14.831
N13840 X14.681 Y14.652
N13850 X16.623 Y12.710
N13860 X16.690 Y12.659
N13870 X16.699 Y25.145
N13880 X16.809 Y26.205
N13890 X16.870 Y26.508
N13900 X17.134 Y27.354
N13910 X17.317 Y27.780
N13920 X17.693 Y28.443
N13930 X18.046 Y28.925
N13940 X18.505 Y29.424
N13950 X19.010 Y29.862
N13960 X19.360 Y30.112
N13970 X19.536 Y30.221
N13980 X20.116 Y30.531
N13990 X20.636 Y30.742
N14000 X21.098 Y30.889
N14010 X21.368 Y30.959
N14020 X21.628 Y31.004
N14030 X22.162 Y31.051
N14040 X22.626 Y31.108
N14050 X22.820 Y31.120
N14060 X42.774 Y31.120
N14070 X43.231 Y31.169
N14080 X43.399 Y31.230
N14090 X43.638 Y31.386
N14100 X43.753 Y31.517
N14110 X43.881 Y31.740
N14120 X43.950 Y31.991
N14130 X43.960 Y32.219
N14140 ID=1 WHEN $AC_TIMER[1]>=0 DO M51
N14150 X39.0053 Y33.999 F1000
N14160 ID=1 WHEN $AC_TIMER[1]>=0 DO M50
N14170 X37.164 Y35.840 F600
N14180 X17.654 Y35.840
N14190 X17.397 Y35.813
N14200 X17.370 Y35.548
N14210 X17.370 Y32.217
N14220 X17.841 Y32.559
N14230 X18.178 Y32.761
N14240 X18.758 Y33.071
N14250 X19.035 Y33.200
N14260 X19.764 Y33.487
N14270 X20.376 Y33.677
N14280 X20.877 Y33.797
N14290 X21.372 Y33.872
N14300 X22.645 Y33.995
N14310 X38.905 Y33.999
N14320 ID=1 WHEN $AC_TIMER[1]>=0 DO M51

; Inicio do trecho do raster
; Final do trecho do raster

3

; Layer 17
N14440 G1 Z24.480 F1000

N14330 M63		;POWDER MIXER OFF
N14340 M67		;POWDER FEED OFF
N14350 M65		;CARRIER OFF
N14360 M79     ;GAS 1 OFF

N14370 M0

N14380 M78     ; GAS 1 ON
N14390 M64		;CARRIER ON
N14400 H2 = R3	;SET POWDER FLOW
N14410 M62		;POWDER MIXER ON
N14420 M66		;POWDER FEED ON
N14430 G4F

N14450 X43.2947 Y32.9892 F1000
N14460 ID=1 WHEN $AC_TIMER[1]>=0 DO M50
N14470 X43.240 Y33.360 F600
N14480 X43.104 Y33.739
N14490 X42.875 Y34.130
N14500 X42.534 Y34.543
N14510 X38.453 Y38.624
N14520 X38.107 Y38.920
N14530 X37.781 Y39.127
N14540 X37.450 Y39.274
N14550 X37.128 Y39.358
N14560 X36.760 Y39.390
N14570 X16.834 Y39.390
N14580 X16.007 Y39.303
N14590 X15.573 Y39.178
N14600 X15.431 Y39.119
N14610 X15.049 Y38.906
N14620 X14.855 Y38.775
N14630 X14.650 Y38.592
N14640 X14.296 Y38.162
N14650 X14.082 Y37.759
N14660 X13.910 Y37.239
N14670 X13.820 Y36.376
N14680 X13.821 Y15.715
N14690 X13.845 Y15.555
N14700 X13.882 Y15.479
N14710 X14.000 Y15.333
N14720 X16.020 Y13.318
N14730 X16.029 Y25.827
N14740 X16.139 Y26.877
N14750 X16.268 Y27.455
N14760 X16.438 Y27.962
N14770 X16.641 Y28.439
N14780 X16.921 Y28.959
N14790 X17.036 Y29.141
N14800 X17.362 Y29.579
N14810 X17.692 Y29.959
N14820 X17.835 Y30.104
N14830 X18.205 Y30.434
N14840 X18.374 Y30.565
N14850 X18.831 Y30.867
N14860 X19.511 Y31.236
N14870 X19.997 Y31.428
N14880 X20.657 Y31.618
N14890 X20.933 Y31.671
N14900 X22.150 Y31.790
N14910 X42.104 Y31.790
N14920 X42.557 Y31.839
N14930 X42.701 Y31.887
N14940 X42.950 Y32.047
N14950 X43.072 Y32.172
N14960 X43.227 Y32.452
N14970 X43.279 Y32.651
N14980 X43.290 Y32.889
N14990 ID=1 WHEN $AC_TIMER[1]>=0 DO M51
N15000 X38.3343 Y34.67 F1000
N15010 ID=1 WHEN $AC_TIMER[1]>=0 DO M50
N15020 X36.494 Y36.510 F600
N15030 X16.984 Y36.510
N15040 X16.727 Y36.483
N15050 X16.700 Y36.226
N15060 X16.700 Y32.904
N15070 X17.460 Y33.401
N15080 X18.141 Y33.769
N15090 X18.453 Y33.914
N15100 X18.939 Y34.106
N15110 X19.201 Y34.195
N15120 X19.861 Y34.385
N15130 X20.383 Y34.498
N15140 X20.654 Y34.538
N15150 X21.870 Y34.656
N15160 X22.150 Y34.670
N15170 X38.234 Y34.670
N15180 ID=1 WHEN $AC_TIMER[1]>=0 DO M51

; Inicio do trecho do raster
; Final do trecho do raster

3

; Layer 18
N15300 G1 Z25.920 F1000

N15190 M63		;POWDER MIXER OFF
N15200 M67		;POWDER FEED OFF
N15210 M65		;CARRIER OFF
N15220 M79     ;GAS 1 OFF

N15230 M0

N15240 M78     ; GAS 1 ON
N15250 M64		;CARRIER ON
N15260 H2 = R3	;SET POWDER FLOW
N15270 M62		;POWDER MIXER ON
N15280 M66		;POWDER FEED ON
N15290 G4F

N15310 X42.6248 Y33.6687 F1000
N15320 ID=1 WHEN $AC_TIMER[1]>=0 DO M50
N15330 X42.571 Y34.036 F600
N15340 X42.434 Y34.411
N15350 X42.205 Y34.808
N15360 X41.869 Y35.208
N15370 X37.783 Y39.294
N15380 X37.437 Y39.590
N15390 X37.111 Y39.797
N15400 X36.780 Y39.944
N15410 X36.459 Y40.027
N15420 X36.081 Y40.060
N15430 X16.164 Y40.060
N15440 X15.309 Y39.970
N15450 X14.734 Y39.780
N15460 X14.379 Y39.582
N15470 X14.193 Y39.452
N15480 X13.963 Y39.247
N15490 X13.755 Y39.013
N15500 X13.628 Y38.833
N15510 X13.364 Y38.314
N15520 X13.237 Y37.873
N15530 X13.150 Y37.046
N15540 X13.159 Y16.348
N15550 X13.174 Y16.229
N15560 X13.204 Y16.165
N15570 X13.338 Y15.994
N15580 X15.350 Y13.988
N15590 X15.359 Y26.497
N15600 X15.469 Y27.547
N15610 X15.522 Y27.823
N15620 X15.712 Y28.483
N15630 X15.904 Y28.969
N15640 X16.251 Y29.629
N15650 X16.593 Y30.133
N15660 X17.036 Y30.645
N15670 X17.535 Y31.104
N15680 X18.015 Y31.453
N15690 X18.169 Y31.547
N15700 X18.779 Y31.877
N15710 X19.027 Y31.986
N15720 X19.802 Y32.242
N15730 X20.042 Y32.302
N15740 X20.263 Y32.341
N15750 X21.480 Y32.460
N15760 X41.434 Y32.460
N15770 X41.857 Y32.506
N15780 X42.078 Y32.589
N15790 X42.283 Y32.719
N15800 X42.425 Y32.875
N15810 X42.516 Y33.031
N15820 X42.610 Y33.332
N15830 X42.620 Y33.569
N15840 ID=1 WHEN $AC_TIMER[1]>=0 DO M51
N15850 X37.6643 Y35.34 F1000
N15860 ID=1 WHEN $AC_TIMER[1]>=0 DO M50
N15870 X35.824 Y37.180 F600
N15880 X16.314 Y37.180
N15890 X16.057 Y37.153
N15900 X16.030 Y36.897
N15910 X16.032 Y33.569
N15920 X16.504 Y33.904
N15930 X16.798 Y34.080
N15940 X17.628 Y34.517
N15950 X18.121 Y34.719
N15960 X19.103 Y35.036
N15970 X19.541 Y35.138
N15980 X19.984 Y35.208
N15990 X21.200 Y35.326
N16000 X21.480 Y35.340
N16010 X37.564 Y35.340
N16020 ID=1 WHEN $AC_TIMER[1]>=0 DO M51

; Inicio do trecho do raster
; Final do trecho do raster

3

; Layer 19
N16140 G1 Z27.360 F1000

N16030 M63		;POWDER MIXER OFF
N16040 M67		;POWDER FEED OFF
N16050 M65		;CARRIER OFF
N16060 M79     ;GAS 1 OFF

N16070 M0

N16080 M78     ; GAS 1 ON
N16090 M64		;CARRIER ON
N16100 H2 = R3	;SET POWDER FLOW
N16110 M62		;POWDER MIXER ON
N16120 M66		;POWDER FEED ON
N16130 G4F

N16150 X41.953 Y34.3506 F1000
N16160 ID=1 WHEN $AC_TIMER[1]>=0 DO M50
N16170 X41.900 Y34.710 F600
N16180 X41.764 Y35.089
N16190 X41.538 Y35.474
N16200 X41.199 Y35.878
N16210 X37.113 Y39.964
N16220 X36.767 Y40.260
N16230 X36.441 Y40.467
N16240 X36.110 Y40.614
N16250 X35.789 Y40.697
N16260 X35.411 Y40.730
N16270 X15.493 Y40.730
N16280 X14.664 Y40.644
N16290 X14.207 Y40.508
N16300 X14.070 Y40.453
N16310 X13.709 Y40.252
N16320 X13.523 Y40.122
N16330 X13.293 Y39.917
N16340 X13.077 Y39.674
N16350 X12.956 Y39.508
N16360 X12.687 Y38.974
N16370 X12.558 Y38.542
N16380 X12.480 Y37.724
N16390 X12.488 Y17.003
N16400 X12.501 Y16.899
N16410 X12.528 Y16.840
N16420 X12.666 Y16.667
N16430 X14.680 Y14.662
N16440 X14.687 Y27.152
N16450 X14.787 Y28.202
N16460 X14.847 Y28.508
N16470 X15.047 Y29.178
N16480 X15.126 Y29.389
N16490 X15.405 Y29.986
N16500 X15.585 Y30.316
N16510 X15.696 Y30.491
N16520 X16.036 Y30.945
N16530 X16.495 Y31.444
N16540 X16.865 Y31.774
N16550 X17.345 Y32.123
N16560 X17.499 Y32.217
N16570 X18.109 Y32.547
N16580 X18.622 Y32.753
N16590 X19.292 Y32.953
N16600 X19.585 Y33.011
N16610 X20.810 Y33.130
N16620 X40.764 Y33.130
N16630 X41.168 Y33.173
N16640 X41.353 Y33.233
N16650 X41.592 Y33.380
N16660 X41.758 Y33.554
N16670 X41.878 Y33.779
N16680 X41.932 Y33.994
N16690 X41.947 Y34.251
N16700 ID=1 WHEN $AC_TIMER[1]>=0 DO M51
N16710 X36.9943 Y36.01 F1000
N16720 ID=1 WHEN $AC_TIMER[1]>=0 DO M50
N16730 X35.154 Y37.850 F600
N16740 X15.642 Y37.850
N16750 X15.382 Y37.823
N16760 X15.360 Y37.588
N16770 X15.361 Y34.239
N16780 X15.834 Y34.574
N16790 X16.128 Y34.750
N16800 X16.738 Y35.080
N16810 X17.037 Y35.221
N16820 X17.551 Y35.426
N16830 X17.799 Y35.513
N16840 X18.469 Y35.713
N16850 X19.022 Y35.836
N16860 X19.307 Y35.878
N16870 X20.533 Y35.997
N16880 X20.810 Y36.010
N16890 X36.894 Y36.010
N16900 ID=1 WHEN $AC_TIMER[1]>=0 DO M51

; Inicio do trecho do raster
; Final do trecho do raster

3

; Layer 20
N17020 G1 Z28.800 F1000

N16910 M63		;POWDER MIXER OFF
N16920 M67		;POWDER FEED OFF
N16930 M65		;CARRIER OFF
N16940 M79     ;GAS 1 OFF

N16950 M0

N16960 M78     ; GAS 1 ON
N16970 M64		;CARRIER ON
N16980 H2 = R3	;SET POWDER FLOW
N16990 M62		;POWDER MIXER ON
N17000 M66		;POWDER FEED ON
N17010 G4F

N17030 X41.2823 Y35.0089 F1000
N17040 ID=1 WHEN $AC_TIMER[1]>=0 DO M50
N17050 X41.224 Y35.369 F600
N17060 X41.081 Y35.768
N17070 X40.866 Y36.144
N17080 X40.525 Y36.542
N17090 X36.427 Y40.640
N17100 X36.087 Y40.937
N17110 X35.763 Y41.144
N17120 X35.446 Y41.283
N17130 X35.119 Y41.367
N17140 X34.741 Y41.400
N17150 X14.823 Y41.400
N17160 X13.924 Y41.302
N17170 X13.485 Y41.158
N17180 X13.262 Y41.056
N17190 X13.046 Y40.932
N17200 X12.862 Y40.800
N17210 X12.623 Y40.587
N17220 X12.418 Y40.357
N17230 X12.285 Y40.167
N17240 X12.083 Y39.808
N17250 X11.885 Y39.198
N17260 X11.800 Y38.386
N17270 X11.806 Y17.701
N17280 X11.846 Y17.532
N17290 X11.984 Y17.359
N17300 X14.000 Y15.352
N17310 X14.009 Y27.837
N17320 X14.146 Y29.056
N17330 X14.511 Y30.191
N17340 X14.638 Y30.478
N17350 X15.017 Y31.135
N17360 X15.366 Y31.615
N17370 X15.825 Y32.114
N17380 X16.326 Y32.549
N17390 X16.812 Y32.884
N17400 X17.498 Y33.248
N17410 X17.923 Y33.417
N17420 X18.492 Y33.592
N17430 X18.915 Y33.681
N17440 X20.140 Y33.800
N17450 X40.085 Y33.800
N17460 X40.477 Y33.841
N17470 X40.728 Y33.929
N17480 X40.949 Y34.070
N17490 X41.098 Y34.237
N17500 X41.184 Y34.402
N17510 X41.263 Y34.685
N17520 X41.276 Y34.909
N17530 ID=1 WHEN $AC_TIMER[1]>=0 DO M51
N17540 X36.3143 Y36.68 F1000
N17550 ID=1 WHEN $AC_TIMER[1]>=0 DO M50
N17560 X34.474 Y38.520 F600
N17570 X14.980 Y38.520
N17580 X14.707 Y38.490
N17590 X14.680 Y38.236
N17600 X14.681 Y34.912
N17610 X15.179 Y35.256
N17620 X15.460 Y35.427
N17630 X16.146 Y35.791
N17640 X16.434 Y35.925
N17650 X17.076 Y36.170
N17660 X17.645 Y36.345
N17670 X18.320 Y36.499
N17680 X18.637 Y36.548
N17690 X19.863 Y36.667
N17700 X20.140 Y36.680
N17710 X36.214 Y36.680
N17720 ID=1 WHEN $AC_TIMER[1]>=0 DO M51

; Inicio do trecho do raster
; Final do trecho do raster

3

; Layer 21
N17840 G1 Z30.240 F1000

N17730 M63		;POWDER MIXER OFF
N17740 M67		;POWDER FEED OFF
N17750 M65		;CARRIER OFF
N17760 M79     ;GAS 1 OFF

N17770 M0

N17780 M78     ; GAS 1 ON
N17790 M64		;CARRIER ON
N17800 H2 = R3	;SET POWDER FLOW
N17810 M62		;POWDER MIXER ON
N17820 M66		;POWDER FEED ON
N17830 G4F

N17850 X40.6122 Y35.6797 F1000
N17860 ID=1 WHEN $AC_TIMER[1]>=0 DO M50
N17870 X40.554 Y36.039 F600
N17880 X40.411 Y36.438
N17890 X40.196 Y36.814
N17900 X39.855 Y37.212
N17910 X35.757 Y41.310
N17920 X35.417 Y41.607
N17930 X35.098 Y41.812
N17940 X34.768 Y41.953
N17950 X34.446 Y42.038
N17960 X34.071 Y42.070
N17970 X14.144 Y42.070
N17980 X13.318 Y41.984
N17990 X12.860 Y41.851
N18000 X12.741 Y41.800
N18010 X12.364 Y41.593
N18020 X12.184 Y41.464
N18030 X11.936 Y41.249
N18040 X11.741 Y41.030
N18050 X11.618 Y40.851
N18060 X11.408 Y40.480
N18070 X11.363 Y40.367
N18080 X11.216 Y39.874
N18090 X11.130 Y39.056
N18100 X11.130 Y18.421
N18110 X11.157 Y18.242
N18120 X11.182 Y18.189
N18130 X11.315 Y18.028
N18140 X13.330 Y16.022
N18150 X13.338 Y28.500
N18160 X13.449 Y29.557
N18170 X13.507 Y29.850
N18180 X13.761 Y30.675
N18190 X13.871 Y30.955
N18200 X13.968 Y31.158
N18210 X14.342 Y31.806
N18220 X14.562 Y32.126
N18230 X14.686 Y32.285
N18240 X15.016 Y32.655
N18250 X15.161 Y32.798
N18260 X15.656 Y33.219
N18270 X15.976 Y33.449
N18280 X16.150 Y33.558
N18290 X16.780 Y33.898
N18300 X17.275 Y34.097
N18310 X17.965 Y34.297
N18320 X18.212 Y34.348
N18330 X18.663 Y34.403
N18340 X19.460 Y34.470
N18350 X39.415 Y34.470
N18360 X39.807 Y34.511
N18370 X40.066 Y34.602
N18380 X40.275 Y34.740
N18390 X40.419 Y34.900
N18400 X40.525 Y35.095
N18410 X40.592 Y35.352
N18420 X40.606 Y35.580
N18430 ID=1 WHEN $AC_TIMER[1]>=0 DO M51
N18440 X35.6443 Y37.35 F1000
N18450 ID=1 WHEN $AC_TIMER[1]>=0 DO M50
N18460 X33.804 Y39.190 F600
N18470 X14.294 Y39.190
N18480 X14.037 Y39.163
N18490 X14.010 Y38.906
N18500 X14.010 Y35.582
N18510 X14.449 Y35.891
N18520 X14.782 Y36.093
N18530 X15.412 Y36.433
N18540 X15.706 Y36.570
N18550 X16.201 Y36.769
N18560 X16.473 Y36.863
N18570 X17.383 Y37.117
N18580 X17.860 Y37.206
N18590 X18.423 Y37.273
N18600 X19.460 Y37.350
N18610 X35.544 Y37.350
N18620 ID=1 WHEN $AC_TIMER[1]>=0 DO M51

; Inicio do trecho do raster
; Final do trecho do raster

3

; Layer 22
N18740 G1 Z31.680 F1000

N18630 M63		;POWDER MIXER OFF
N18640 M67		;POWDER FEED OFF
N18650 M65		;CARRIER OFF
N18660 M79     ;GAS 1 OFF

N18670 M0

N18680 M78     ; GAS 1 ON
N18690 M64		;CARRIER ON
N18700 H2 = R3	;SET POWDER FLOW
N18710 M62		;POWDER MIXER ON
N18720 M66		;POWDER FEED ON
N18730 G4F

N18750 X39.9422 Y36.3497 F1000
N18760 ID=1 WHEN $AC_TIMER[1]>=0 DO M50
N18770 X39.884 Y36.709 F600
N18780 X39.741 Y37.108
N18790 X39.523 Y37.490
N18800 X39.180 Y37.897
N18810 X35.087 Y41.990
N18820 X34.755 Y42.280
N18830 X34.438 Y42.477
N18840 X34.098 Y42.623
N18850 X33.776 Y42.708
N18860 X33.401 Y42.740
N18870 X13.473 Y42.750
N18880 X12.656 Y42.664
N18890 X12.210 Y42.531
N18900 X11.935 Y42.403
N18910 X11.687 Y42.265
N18920 X11.512 Y42.140
N18930 X11.273 Y41.927
N18940 X11.063 Y41.691
N18950 X10.946 Y41.526
N18960 X10.735 Y41.147
N18970 X10.691 Y41.037
N18980 X10.546 Y40.555
N18990 X10.460 Y39.727
N19000 X10.460 Y19.126
N19010 X10.504 Y18.886
N19020 X10.662 Y18.681
N19030 X12.660 Y16.692
N19040 X12.669 Y29.175
N19050 X12.779 Y30.235
N19060 X12.837 Y30.530
N19070 X13.047 Y31.230
N19080 X13.291 Y31.817
N19090 X13.685 Y32.506
N19100 X14.016 Y32.955
N19110 X14.475 Y33.454
N19120 X14.976 Y33.889
N19130 X15.296 Y34.119
N19140 X15.488 Y34.238
N19150 X16.239 Y34.626
N19160 X16.580 Y34.763
N19170 X17.444 Y35.012
N19180 X18.603 Y35.139
N19190 X18.790 Y35.150
N19200 X38.756 Y35.150
N19210 X39.141 Y35.186
N19220 X39.395 Y35.273
N19230 X39.580 Y35.389
N19240 X39.726 Y35.552
N19250 X39.858 Y35.783
N19260 X39.921 Y35.995
N19270 X39.936 Y36.250
N19280 ID=1 WHEN $AC_TIMER[1]>=0 DO M51
N19290 X34.9753 Y38.0291 F1000
N19300 ID=1 WHEN $AC_TIMER[1]>=0 DO M50
N19310 X33.144 Y39.860 F600
N19320 X13.623 Y39.870
N19330 X13.367 Y39.843
N19340 X13.340 Y39.578
N19350 X13.340 Y36.252
N19360 X13.615 Y36.458
N19370 X14.165 Y36.796
N19380 X14.916 Y37.184
N19390 X15.510 Y37.436
N19400 X15.780 Y37.529
N19410 X16.644 Y37.779
N19420 X16.885 Y37.838
N19430 X17.131 Y37.875
N19440 X18.622 Y38.025
N19450 X34.875 Y38.029
N19460 ID=1 WHEN $AC_TIMER[1]>=0 DO M51

; Inicio do trecho do raster
; Final do trecho do raster

3

; Layer 23
N19580 G1 Z33.120 F1000

N19470 M63		;POWDER MIXER OFF
N19480 M67		;POWDER FEED OFF
N19490 M65		;CARRIER OFF
N19500 M79     ;GAS 1 OFF

N19510 M0

N19520 M78     ; GAS 1 ON
N19530 M64		;CARRIER ON
N19540 H2 = R3	;SET POWDER FLOW
N19550 M62		;POWDER MIXER ON
N19560 M66		;POWDER FEED ON
N19570 G4F

N19590 X39.2647 Y37.0192 F1000
N19600 ID=1 WHEN $AC_TIMER[1]>=0 DO M50
N19610 X39.210 Y37.390 F600
N19620 X39.074 Y37.769
N19630 X38.845 Y38.160
N19640 X38.504 Y38.573
N19650 X34.423 Y42.654
N19660 X34.077 Y42.950
N19670 X33.751 Y43.157
N19680 X33.444 Y43.294
N19690 X33.080 Y43.389
N19700 X32.730 Y43.420
N19710 X12.804 Y43.420
N19720 X11.998 Y43.336
N19730 X11.383 Y43.140
N19740 X11.014 Y42.939
N19750 X10.851 Y42.818
N19760 X10.603 Y42.597
N19770 X10.393 Y42.361
N19780 X10.276 Y42.196
N19790 X10.060 Y41.808
N19800 X10.019 Y41.710
N19810 X9.876 Y41.227
N19820 X9.790 Y40.406
N19830 X9.790 Y19.771
N19840 X9.823 Y19.578
N19850 X9.992 Y19.341
N19860 X11.917 Y17.416
N19870 X11.990 Y17.362
N19880 X11.999 Y29.857
N19890 X12.109 Y30.907
N19900 X12.166 Y31.194
N19910 X12.376 Y31.904
N19920 X12.451 Y32.107
N19930 X12.703 Y32.648
N19940 X13.015 Y33.176
N19950 X13.346 Y33.625
N19960 X13.805 Y34.124
N19970 X14.287 Y34.545
N19980 X14.597 Y34.775
N19990 X14.800 Y34.904
N20000 X15.460 Y35.254
N20010 X15.731 Y35.367
N20020 X16.591 Y35.637
N20030 X16.903 Y35.701
N20040 X18.120 Y35.820
N20050 X38.064 Y35.820
N20060 X38.539 Y35.877
N20070 X38.698 Y35.934
N20080 X38.921 Y36.077
N20090 X39.069 Y36.229
N20100 X39.188 Y36.457
N20110 X39.250 Y36.687
N20120 X39.260 Y36.919
N20130 ID=1 WHEN $AC_TIMER[1]>=0 DO M51
N20140 X34.3043 Y38.7 F1000
N20150 ID=1 WHEN $AC_TIMER[1]>=0 DO M50
N20160 X32.464 Y40.540 F600
N20170 X12.954 Y40.540
N20180 X12.697 Y40.513
N20190 X12.670 Y40.256
N20200 X12.670 Y36.930
N20210 X13.060 Y37.211
N20220 X13.451 Y37.448
N20230 X14.111 Y37.798
N20240 X14.620 Y38.024
N20250 X14.868 Y38.114
N20260 X15.728 Y38.384
N20270 X16.319 Y38.521
N20280 X16.624 Y38.568
N20290 X17.840 Y38.686
N20300 X18.120 Y38.700
N20310 X34.204 Y38.700
N20320 ID=1 WHEN $AC_TIMER[1]>=0 DO M51

; Inicio do trecho do raster
; Final do trecho do raster

3

; Layer 24
N20440 G1 Z34.560 F1000

N20330 M63		;POWDER MIXER OFF
N20340 M67		;POWDER FEED OFF
N20350 M65		;CARRIER OFF
N20360 M79     ;GAS 1 OFF

N20370 M0

N20380 M78     ; GAS 1 ON
N20390 M64		;CARRIER ON
N20400 H2 = R3	;SET POWDER FLOW
N20410 M62		;POWDER MIXER ON
N20420 M66		;POWDER FEED ON
N20430 G4F

N20450 X38.5947 Y37.6892 F1000
N20460 ID=1 WHEN $AC_TIMER[1]>=0 DO M50
N20470 X38.540 Y38.060 F600
N20480 X38.404 Y38.439
N20490 X38.175 Y38.830
N20500 X37.834 Y39.243
N20510 X33.753 Y43.324
N20520 X33.407 Y43.620
N20530 X33.081 Y43.827
N20540 X32.750 Y43.974
N20550 X32.428 Y44.058
N20560 X32.060 Y44.090
N20570 X12.134 Y44.090
N20580 X11.320 Y44.005
N20590 X10.723 Y43.814
N20600 X10.323 Y43.588
N20610 X10.156 Y43.475
N20620 X9.941 Y43.284
N20630 X9.721 Y43.031
N20640 X9.603 Y42.870
N20650 X9.347 Y42.381
N20660 X9.206 Y41.900
N20670 X9.120 Y41.076
N20680 X9.120 Y20.457
N20690 X9.160 Y20.227
N20700 X9.322 Y20.011
N20710 X11.249 Y18.084
N20720 X11.320 Y18.031
N20730 X11.329 Y30.527
N20740 X11.439 Y31.577
N20750 X11.494 Y31.858
N20760 X11.704 Y32.578
N20770 X11.794 Y32.815
N20780 X12.017 Y33.278
N20790 X12.247 Y33.699
N20800 X12.360 Y33.876
N20810 X12.662 Y34.279
N20820 X12.992 Y34.659
N20830 X13.162 Y34.828
N20840 X13.673 Y35.265
N20850 X14.094 Y35.544
N20860 X14.644 Y35.854
N20870 X15.212 Y36.090
N20880 X15.932 Y36.310
N20890 X16.233 Y36.371
N20900 X17.450 Y36.490
N20910 X37.404 Y36.490
N20920 X37.831 Y36.536
N20930 X38.032 Y36.607
N20940 X38.237 Y36.738
N20950 X38.387 Y36.898
N20960 X38.504 Y37.109
N20970 X38.580 Y37.373
N20980 X38.590 Y37.589
N20990 ID=1 WHEN $AC_TIMER[1]>=0 DO M51
N21000 X33.6343 Y39.37 F1000
N21010 ID=1 WHEN $AC_TIMER[1]>=0 DO M50
N21020 X31.794 Y41.210 F600
N21030 X12.284 Y41.210
N21040 X12.027 Y41.183
N21050 X12.000 Y40.926
N21060 X12.000 Y37.604
N21070 X12.680 Y38.053
N21080 X13.230 Y38.363
N21090 X13.538 Y38.513
N21100 X14.106 Y38.749
N21110 X14.371 Y38.844
N21120 X15.091 Y39.064
N21130 X15.660 Y39.194
N21140 X15.954 Y39.238
N21150 X17.170 Y39.356
N21160 X17.450 Y39.370
N21170 X33.534 Y39.370
N21180 ID=1 WHEN $AC_TIMER[1]>=0 DO M51

; Inicio do trecho do raster
; Final do trecho do raster

3

; Layer 25
N21300 G1 Z36.000 F1000

N21190 M63		;POWDER MIXER OFF
N21200 M67		;POWDER FEED OFF
N21210 M65		;CARRIER OFF
N21220 M79     ;GAS 1 OFF

N21230 M0

N21240 M78     ; GAS 1 ON
N21250 M64		;CARRIER ON
N21260 H2 = R3	;SET POWDER FLOW
N21270 M62		;POWDER MIXER ON
N21280 M66		;POWDER FEED ON
N21290 G4F

N21310 X37.9248 Y38.3687 F1000
N21320 ID=1 WHEN $AC_TIMER[1]>=0 DO M50
N21330 X37.874 Y38.712 F600
N21340 X37.728 Y39.130
N21350 X37.508 Y39.504
N21360 X37.169 Y39.908
N21370 X33.083 Y43.994
N21380 X32.737 Y44.290
N21390 X32.411 Y44.497
N21400 X32.080 Y44.644
N21410 X31.759 Y44.727
N21420 X31.381 Y44.760
N21430 X11.464 Y44.760
N21440 X10.610 Y44.671
N21450 X10.067 Y44.492
N21460 X9.656 Y44.266
N21470 X9.495 Y44.153
N21480 X9.263 Y43.947
N21490 X9.053 Y43.711
N21500 X8.942 Y43.555
N21510 X8.699 Y43.103
N21520 X8.540 Y42.603
N21530 X8.450 Y41.746
N21540 X8.450 Y21.104
N21550 X8.474 Y20.935
N21560 X8.514 Y20.854
N21570 X8.639 Y20.695
N21580 X10.650 Y18.697
N21590 X10.659 Y31.197
N21600 X10.769 Y32.247
N21610 X10.865 Y32.693
N21620 X11.118 Y33.460
N21630 X11.352 Y33.967
N21640 X11.662 Y34.507
N21650 X12.006 Y34.975
N21660 X12.465 Y35.474
N21670 X12.835 Y35.804
N21680 X13.282 Y36.131
N21690 X13.964 Y36.524
N21700 X14.517 Y36.755
N21710 X15.240 Y36.979
N21720 X15.563 Y37.041
N21730 X16.780 Y37.160
N21740 X36.734 Y37.160
N21750 X37.132 Y37.203
N21760 X37.326 Y37.266
N21770 X37.558 Y37.404
N21780 X37.728 Y37.583
N21790 X37.833 Y37.766
N21800 X37.910 Y38.037
N21810 X37.920 Y38.269
N21820 ID=1 WHEN $AC_TIMER[1]>=0 DO M51
N21830 X32.9643 Y40.04 F1000
N21840 ID=1 WHEN $AC_TIMER[1]>=0 DO M50
N21850 X31.124 Y41.880 F600
N21860 X11.614 Y41.880
N21870 X11.357 Y41.853
N21880 X11.330 Y41.596
N21890 X11.330 Y38.271
N21900 X11.584 Y38.457
N21910 X11.844 Y38.626
N21920 X12.526 Y39.019
N21930 X12.852 Y39.180
N21940 X13.404 Y39.412
N21950 X13.666 Y39.507
N21960 X14.389 Y39.730
N21970 X14.695 Y39.807
N21980 X15.284 Y39.908
N21990 X16.500 Y40.026
N22000 X16.780 Y40.040
N22010 X32.864 Y40.040
N22020 ID=1 WHEN $AC_TIMER[1]>=0 DO M51

; Inicio do trecho do raster
; Final do trecho do raster

3

; Layer 26
N22140 G1 Z37.440 F1000

N22030 M63		;POWDER MIXER OFF
N22040 M67		;POWDER FEED OFF
N22050 M65		;CARRIER OFF
N22060 M79     ;GAS 1 OFF

N22070 M0

N22080 M78     ; GAS 1 ON
N22090 M64		;CARRIER ON
N22100 H2 = R3	;SET POWDER FLOW
N22110 M62		;POWDER MIXER ON
N22120 M66		;POWDER FEED ON
N22130 G4F

N22150 X37.253 Y39.0506 F1000
N22160 ID=1 WHEN $AC_TIMER[1]>=0 DO M50
N22170 X37.200 Y39.410 F600
N22180 X37.064 Y39.789
N22190 X36.842 Y40.167
N22200 X36.495 Y40.572
N22210 X32.300 Y44.767
N22220 X32.075 Y44.955
N22230 X31.741 Y45.167
N22240 X31.410 Y45.314
N22250 X31.089 Y45.397
N22260 X30.711 Y45.430
N22270 X10.793 Y45.430
N22280 X9.966 Y45.344
N22290 X9.476 Y45.196
N22300 X9.307 Y45.122
N22310 X8.915 Y44.894
N22320 X8.593 Y44.617
N22330 X8.375 Y44.372
N22340 X8.269 Y44.228
N22350 X8.031 Y43.779
N22360 X7.857 Y43.228
N22370 X7.780 Y42.424
N22380 X7.780 Y21.768
N22390 X7.800 Y21.619
N22400 X7.844 Y21.527
N22410 X7.962 Y21.381
N22420 X9.980 Y19.369
N22430 X9.987 Y31.852
N22440 X10.087 Y32.902
N22450 X10.113 Y33.073
N22460 X10.437 Y34.110
N22470 X10.546 Y34.370
N22480 X10.896 Y35.030
N22490 X11.020 Y35.226
N22500 X11.336 Y35.645
N22510 X11.795 Y36.144
N22520 X12.270 Y36.560
N22530 X12.638 Y36.821
N22540 X13.288 Y37.191
N22550 X13.705 Y37.377
N22560 X14.588 Y37.652
N22570 X14.885 Y37.711
N22580 X16.110 Y37.830
N22590 X36.064 Y37.830
N22600 X36.440 Y37.870
N22610 X36.735 Y37.976
N22620 X36.927 Y38.108
N22630 X37.035 Y38.225
N22640 X37.179 Y38.495
N22650 X37.232 Y38.701
N22660 X37.247 Y38.951
N22670 ID=1 WHEN $AC_TIMER[1]>=0 DO M51
N22680 X32.2843 Y40.71 F1000
N22690 ID=1 WHEN $AC_TIMER[1]>=0 DO M50
N22700 X30.444 Y42.550 F600
N22710 X10.942 Y42.550
N22720 X10.682 Y42.523
N22730 X10.660 Y42.287
N22740 X10.660 Y38.949
N22750 X11.214 Y39.323
N22760 X11.864 Y39.693
N22770 X12.111 Y39.819
N22780 X12.527 Y40.005
N22790 X12.849 Y40.127
N22800 X13.733 Y40.402
N22810 X14.318 Y40.535
N22820 X14.607 Y40.578
N22830 X15.833 Y40.697
N22840 X16.110 Y40.710
N22850 X32.184 Y40.710
N22860 ID=1 WHEN $AC_TIMER[1]>=0 DO M51

; Inicio do trecho do raster
; Final do trecho do raster

3

; Layer 27
N22980 G1 Z38.880 F1000

N22870 M63		;POWDER MIXER OFF
N22880 M67		;POWDER FEED OFF
N22890 M65		;CARRIER OFF
N22900 M79     ;GAS 1 OFF

N22910 M0

N22920 M78     ; GAS 1 ON
N22930 M64		;CARRIER ON
N22940 H2 = R3	;SET POWDER FLOW
N22950 M62		;POWDER MIXER ON
N22960 M66		;POWDER FEED ON
N22970 G4F

N22990 X36.5812 Y39.716 F1000
N23000 ID=1 WHEN $AC_TIMER[1]>=0 DO M50
N23010 X36.524 Y40.069 F600
N23020 X36.381 Y40.468
N23030 X36.166 Y40.844
N23040 X35.826 Y41.241
N23050 X31.630 Y45.427
N23060 X31.390 Y45.635
N23070 X31.068 Y45.842
N23080 X30.738 Y45.983
N23090 X30.416 Y46.068
N23100 X30.041 Y46.100
N23110 X10.123 Y46.100
N23120 X9.251 Y46.009
N23130 X8.801 Y45.869
N23140 X8.645 Y45.801
N23150 X8.261 Y45.577
N23160 X7.923 Y45.287
N23170 X7.708 Y45.046
N23180 X7.596 Y44.891
N23190 X7.377 Y44.508
N23200 X7.185 Y43.899
N23210 X7.100 Y43.086
N23220 X7.100 Y22.469
N23230 X7.137 Y22.259
N23240 X7.158 Y22.216
N23250 X7.290 Y22.052
N23260 X9.300 Y20.047
N23270 X9.309 Y32.537
N23280 X9.419 Y33.587
N23290 X9.480 Y33.889
N23300 X9.710 Y34.639
N23310 X9.863 Y35.040
N23320 X9.950 Y35.210
N23330 X10.406 Y35.971
N23340 X10.666 Y36.315
N23350 X11.125 Y36.814
N23360 X11.622 Y37.246
N23370 X12.053 Y37.547
N23380 X12.679 Y37.896
N23390 X13.163 Y38.097
N23400 X13.803 Y38.297
N23410 X14.025 Y38.350
N23420 X14.440 Y38.413
N23430 X15.440 Y38.500
N23440 X35.385 Y38.500
N23450 X35.789 Y38.543
N23460 X36.026 Y38.622
N23470 X36.213 Y38.744
N23480 X36.370 Y38.912
N23490 X36.495 Y39.135
N23500 X36.556 Y39.341
N23510 X36.574 Y39.616
N23520 ID=1 WHEN $AC_TIMER[1]>=0 DO M51
N23530 X31.6091 Y41.38 F1000
N23540 ID=1 WHEN $AC_TIMER[1]>=0 DO M50
N23550 X29.765 Y43.220 F600
N23560 X10.272 Y43.220
N23570 X10.007 Y43.193
N23580 X9.980 Y42.936
N23590 X9.980 Y39.612
N23600 X10.403 Y39.908
N23610 X10.652 Y40.063
N23620 X11.277 Y40.412
N23630 X11.573 Y40.555
N23640 X12.304 Y40.846
N23650 X13.142 Y41.100
N23660 X13.590 Y41.197
N23670 X14.190 Y41.282
N23680 X15.190 Y41.369
N23690 X15.440 Y41.380
N23700 X31.509 Y41.380
N23710 ID=1 WHEN $AC_TIMER[1]>=0 DO M51

; Inicio do trecho do raster
; Final do trecho do raster

3

; Layer 28
N23830 G1 Z40.320 F1000

N23720 M63		;POWDER MIXER OFF
N23730 M67		;POWDER FEED OFF
N23740 M65		;CARRIER OFF
N23750 M79     ;GAS 1 OFF

N23760 M0

N23770 M78     ; GAS 1 ON
N23780 M64		;CARRIER ON
N23790 H2 = R3	;SET POWDER FLOW
N23800 M62		;POWDER MIXER ON
N23810 M66		;POWDER FEED ON
N23820 G4F

N23840 X35.9122 Y40.3797 F1000
N23850 ID=1 WHEN $AC_TIMER[1]>=0 DO M50
N23860 X35.854 Y40.739 F600
N23870 X35.711 Y41.138
N23880 X35.493 Y41.520
N23890 X35.151 Y41.926
N23900 X30.970 Y46.088
N23910 X30.718 Y46.306
N23920 X30.398 Y46.512
N23930 X30.068 Y46.653
N23940 X29.746 Y46.738
N23950 X29.371 Y46.770
N23960 X9.316 Y46.765
N23970 X8.636 Y46.687
N23980 X8.121 Y46.531
N23990 X7.635 Y46.279
N24000 X7.496 Y46.174
N24010 X7.236 Y45.949
N24020 X7.040 Y45.729
N24030 X6.936 Y45.577
N24040 X6.680 Y45.114
N24050 X6.515 Y44.572
N24060 X6.430 Y43.756
N24070 X6.430 Y23.139
N24080 X6.481 Y22.892
N24090 X6.618 Y22.725
N24100 X8.630 Y20.721
N24110 X8.639 Y33.207
N24120 X8.749 Y34.257
N24130 X8.809 Y34.553
N24140 X9.039 Y35.313
N24150 X9.240 Y35.794
N24160 X9.631 Y36.494
N24170 X9.886 Y36.861
N24180 X10.316 Y37.355
N24190 X10.461 Y37.498
N24200 X10.930 Y37.900
N24210 X11.210 Y38.110
N24220 X11.406 Y38.236
N24230 X12.110 Y38.611
N24240 X12.487 Y38.761
N24250 X13.247 Y38.991
N24260 X13.543 Y39.051
N24270 X14.760 Y39.170
N24280 X34.715 Y39.170
N24290 X35.107 Y39.211
N24300 X35.344 Y39.295
N24310 X35.584 Y39.453
N24320 X35.672 Y39.546
N24330 X35.835 Y39.836
N24340 X35.892 Y40.054
N24350 X35.906 Y40.280
N24360 ID=1 WHEN $AC_TIMER[1]>=0 DO M51
N24370 X30.9439 Y42.05 F1000
N24380 ID=1 WHEN $AC_TIMER[1]>=0 DO M50
N24390 X29.095 Y43.890 F600
N24400 X9.481 Y43.885
N24410 X9.338 Y43.869
N24420 X9.310 Y43.606
N24430 X9.310 Y40.283
N24440 X9.654 Y40.533
N24450 X10.052 Y40.778
N24460 X10.756 Y41.153
N24470 X11.040 Y41.285
N24480 X11.652 Y41.518
N24490 X12.412 Y41.748
N24500 X12.974 Y41.874
N24510 X13.264 Y41.918
N24520 X14.480 Y42.036
N24530 X14.760 Y42.050
N24540 X30.844 Y42.050
N24550 ID=1 WHEN $AC_TIMER[1]>=0 DO M51

; Inicio do trecho do raster
; Final do trecho do raster

3

; Layer 29
N24670 G1 Z41.760 F1000

N24560 M63		;POWDER MIXER OFF
N24570 M67		;POWDER FEED OFF
N24580 M65		;CARRIER OFF
N24590 M79     ;GAS 1 OFF

N24600 M0

N24610 M78     ; GAS 1 ON
N24620 M64		;CARRIER ON
N24630 H2 = R3	;SET POWDER FLOW
N24640 M62		;POWDER MIXER ON
N24650 M66		;POWDER FEED ON
N24660 G4F

N24680 X35.2422 Y41.0497 F1000
N24690 ID=1 WHEN $AC_TIMER[1]>=0 DO M50
N24700 X35.184 Y41.409 F600
N24710 X35.041 Y41.808
N24720 X34.823 Y42.190
N24730 X34.480 Y42.597
N24740 X30.387 Y46.690
N24750 X30.055 Y46.980
N24760 X29.745 Y47.173
N24770 X29.342 Y47.340
N24780 X29.000 Y47.418
N24790 X28.689 Y47.450
N24800 X8.774 Y47.450
N24810 X7.965 Y47.365
N24820 X7.367 Y47.176
N24830 X6.915 Y46.917
N24840 X6.820 Y46.847
N24850 X6.573 Y46.627
N24860 X6.362 Y46.390
N24870 X6.263 Y46.251
N24880 X6.006 Y45.781
N24890 X5.846 Y45.253
N24900 X5.760 Y44.427
N24910 X5.760 Y23.796
N24920 X5.786 Y23.615
N24930 X5.812 Y23.561
N24940 X5.949 Y23.394
N24950 X7.960 Y21.393
N24960 X7.969 Y33.875
N24970 X8.079 Y34.935
N24980 X8.139 Y35.233
N24990 X8.369 Y35.993
N25000 X8.469 Y36.246
N25010 X8.629 Y36.591
N25020 X9.008 Y37.240
N25030 X9.316 Y37.655
N25040 X9.775 Y38.154
N25050 X10.272 Y38.586
N25060 X10.717 Y38.895
N25070 X11.287 Y39.215
N25080 X11.794 Y39.428
N25090 X12.564 Y39.668
N25100 X12.873 Y39.731
N25110 X14.090 Y39.850
N25120 X34.056 Y39.850
N25130 X34.434 Y39.885
N25140 X34.698 Y39.978
N25150 X34.883 Y40.105
N25160 X35.054 Y40.293
N25170 X35.149 Y40.461
N25180 X35.223 Y40.733
N25190 X35.236 Y40.950
N25200 ID=1 WHEN $AC_TIMER[1]>=0 DO M51
N25210 X30.2743 Y42.73 F1000
N25220 ID=1 WHEN $AC_TIMER[1]>=0 DO M50
N25230 X28.434 Y44.570 F600
N25240 X8.924 Y44.570
N25250 X8.667 Y44.543
N25260 X8.640 Y44.278
N25270 X8.640 Y40.959
N25280 X9.074 Y41.260
N25290 X9.307 Y41.406
N25300 X9.877 Y41.726
N25310 X10.174 Y41.872
N25320 X10.682 Y42.084
N25330 X10.937 Y42.177
N25340 X11.707 Y42.417
N25350 X12.292 Y42.552
N25360 X12.594 Y42.598
N25370 X13.810 Y42.716
N25380 X14.090 Y42.730
N25390 X30.174 Y42.730
N25400 ID=1 WHEN $AC_TIMER[1]>=0 DO M51

; Inicio do trecho do raster
; Final do trecho do raster

3

; Layer 30
N25520 G1 Z43.200 F1000

N25410 M63		;POWDER MIXER OFF
N25420 M67		;POWDER FEED OFF
N25430 M65		;CARRIER OFF
N25440 M79     ;GAS 1 OFF

N25450 M0

N25460 M78     ; GAS 1 ON
N25470 M64		;CARRIER ON
N25480 H2 = R3	;SET POWDER FLOW
N25490 M62		;POWDER MIXER ON
N25500 M66		;POWDER FEED ON
N25510 G4F

N25530 X34.5647 Y41.7192 F1000
N25540 ID=1 WHEN $AC_TIMER[1]>=0 DO M50
N25550 X34.510 Y42.090 F600
N25560 X34.376 Y42.465
N25570 X34.112 Y42.909
N25580 X33.811 Y43.267
N25590 X29.730 Y47.347
N25600 X29.327 Y47.683
N25610 X29.053 Y47.856
N25620 X28.720 Y48.004
N25630 X28.398 Y48.088
N25640 X28.030 Y48.120
N25650 X8.104 Y48.120
N25660 X7.292 Y48.035
N25670 X6.761 Y47.872
N25680 X6.255 Y47.597
N25690 X5.903 Y47.305
N25700 X5.698 Y47.068
N25710 X5.593 Y46.921
N25720 X5.347 Y46.483
N25730 X5.175 Y45.920
N25740 X5.090 Y45.106
N25750 X5.090 Y24.461
N25760 X5.112 Y24.304
N25770 X5.160 Y24.207
N25780 X5.281 Y24.052
N25790 X7.244 Y22.099
N25800 X7.290 Y22.065
N25810 X7.290 Y34.390
N25820 X7.299 Y34.556
N25830 X7.445 Y35.822
N25840 X7.754 Y36.804
N25850 X7.854 Y37.054
N25860 X7.962 Y37.272
N25870 X8.364 Y37.945
N25880 X8.632 Y38.309
N25890 X8.962 Y38.689
N25900 X9.123 Y38.850
N25910 X9.580 Y39.240
N25920 X9.860 Y39.450
N25930 X10.047 Y39.571
N25940 X10.779 Y39.965
N25950 X11.119 Y40.099
N25960 X11.899 Y40.339
N25970 X12.203 Y40.401
N25980 X13.420 Y40.520
N25990 X33.427 Y40.520
N26000 X33.779 Y40.565
N26010 X34.031 Y40.653
N26020 X34.210 Y40.773
N26030 X34.368 Y40.946
N26040 X34.487 Y41.164
N26050 X34.550 Y41.392
N26060 X34.560 Y41.619
N26070 ID=1 WHEN $AC_TIMER[1]>=0 DO M51
N26080 X29.6043 Y43.4 F1000
N26090 ID=1 WHEN $AC_TIMER[1]>=0 DO M50
N26100 X27.760 Y45.240 F600
N26110 X8.254 Y45.240
N26120 X7.997 Y45.213
N26130 X7.970 Y44.956
N26140 X7.970 Y41.630
N26150 X8.297 Y41.869
N26160 X8.683 Y42.107
N26170 X9.415 Y42.501
N26180 X9.720 Y42.643
N26190 X10.272 Y42.852
N26200 X11.052 Y43.092
N26210 X11.627 Y43.223
N26220 X11.924 Y43.268
N26230 X13.140 Y43.386
N26240 X13.420 Y43.400
N26250 X29.504 Y43.400
N26260 ID=1 WHEN $AC_TIMER[1]>=0 DO M51

; Inicio do trecho do raster
; Final do trecho do raster

3

; Layer 31
N26380 G1 Z44.640 F1000

N26270 M63		;POWDER MIXER OFF
N26280 M67		;POWDER FEED OFF
N26290 M65		;CARRIER OFF
N26300 M79     ;GAS 1 OFF

N26310 M0

N26320 M78     ; GAS 1 ON
N26330 M64		;CARRIER ON
N26340 H2 = R3	;SET POWDER FLOW
N26350 M62		;POWDER MIXER ON
N26360 M66		;POWDER FEED ON
N26370 G4F

N26390 X33.8947 Y42.3909 F1000
N26400 ID=1 WHEN $AC_TIMER[1]>=0 DO M50
N26410 X33.840 Y42.768 F600
N26420 X33.704 Y43.141
N26430 X33.475 Y43.538
N26440 X33.140 Y43.937
N26450 X29.002 Y48.066
N26460 X28.711 Y48.316
N26470 X28.332 Y48.551
N26480 X28.054 Y48.673
N26490 X27.728 Y48.758
N26500 X27.360 Y48.790
N26510 X7.438 Y48.790
N26520 X6.585 Y48.696
N26530 X6.078 Y48.541
N26540 X5.582 Y48.269
N26550 X5.473 Y48.190
N26560 X5.233 Y47.977
N26570 X5.022 Y47.740
N26580 X4.926 Y47.606
N26590 X4.676 Y47.143
N26600 X4.505 Y46.588
N26610 X4.420 Y45.776
N26620 X4.420 Y25.129
N26630 X4.443 Y24.963
N26640 X4.471 Y24.902
N26650 X4.612 Y24.721
N26660 X6.560 Y22.782
N26670 X6.620 Y22.739
N26680 X6.620 Y35.060
N26690 X6.629 Y35.228
N26700 X6.750 Y36.325
N26710 X6.812 Y36.625
N26720 X7.042 Y37.365
N26730 X7.269 Y37.883
N26740 X7.589 Y38.463
N26750 X7.872 Y38.875
N26760 X8.306 Y39.375
N26770 X8.805 Y39.834
N26780 X9.220 Y40.142
N26790 X9.377 Y40.241
N26800 X10.080 Y40.622
N26810 X10.445 Y40.771
N26820 X11.235 Y41.011
N26830 X11.533 Y41.071
N26840 X12.750 Y41.190
N26850 X32.739 Y41.190
N26860 X33.117 Y41.238
N26870 X33.324 Y41.306
N26880 X33.546 Y41.450
N26890 X33.688 Y41.605
N26900 X33.811 Y41.832
N26910 X33.880 Y42.071
N26920 X33.890 Y42.291
N26930 ID=1 WHEN $AC_TIMER[1]>=0 DO M51
N26940 X28.9291 Y44.07 F1000
N26950 ID=1 WHEN $AC_TIMER[1]>=0 DO M50
N26960 X27.085 Y45.910 F600
N26970 X7.596 Y45.910
N26980 X7.327 Y45.880
N26990 X7.300 Y45.626
N27000 X7.300 Y42.300
N27010 X7.685 Y42.579
N27020 X8.004 Y42.773
N27030 X8.708 Y43.154
N27040 X8.992 Y43.289
N27050 X9.608 Y43.527
N27060 X10.398 Y43.767
N27070 X10.962 Y43.894
N27080 X11.254 Y43.938
N27090 X12.470 Y44.056
N27100 X12.750 Y44.070
N27110 X28.829 Y44.070
N27120 ID=1 WHEN $AC_TIMER[1]>=0 DO M51

; Inicio do trecho do raster
; Final do trecho do raster

3

; Layer 32
N27240 G1 Z46.080 F1000

N27130 M63		;POWDER MIXER OFF
N27140 M67		;POWDER FEED OFF
N27150 M65		;CARRIER OFF
N27160 M79     ;GAS 1 OFF

N27170 M0

N27180 M78     ; GAS 1 ON
N27190 M64		;CARRIER ON
N27200 H2 = R3	;SET POWDER FLOW
N27210 M62		;POWDER MIXER ON
N27220 M66		;POWDER FEED ON
N27230 G4F

N27250 X33.2245 Y43.0855 F1000
N27260 ID=1 WHEN $AC_TIMER[1]>=0 DO M50
N27270 X33.164 Y43.458 F600
N27280 X33.034 Y43.820
N27290 X32.800 Y44.220
N27300 X32.474 Y44.603
N27310 X28.341 Y48.727
N27320 X28.037 Y48.989
N27330 X27.686 Y49.208
N27340 X27.361 Y49.348
N27350 X27.035 Y49.427
N27360 X26.677 Y49.460
N27370 X6.769 Y49.460
N27380 X5.920 Y49.366
N27390 X5.355 Y49.192
N27400 X4.916 Y48.942
N27410 X4.803 Y48.860
N27420 X4.563 Y48.647
N27430 X4.352 Y48.410
N27440 X4.256 Y48.276
N27450 X4.000 Y47.810
N27460 X3.827 Y47.222
N27470 X3.750 Y46.450
N27480 X3.750 Y25.796
N27490 X3.771 Y25.642
N27500 X3.807 Y25.567
N27510 X3.945 Y25.388
N27520 X5.877 Y23.456
N27530 X5.950 Y23.404
N27540 X5.950 Y35.780
N27550 X6.069 Y36.972
N27560 X6.131 Y37.271
N27570 X6.371 Y38.051
N27580 X6.589 Y38.543
N27590 X6.909 Y39.123
N27600 X7.208 Y39.554
N27610 X7.636 Y40.045
N27620 X8.135 Y40.504
N27630 X8.549 Y40.808
N27640 X9.400 Y41.292
N27650 X9.774 Y41.444
N27660 X10.614 Y41.694
N27670 X10.912 Y41.752
N27680 X12.080 Y41.860
N27690 X32.063 Y41.860
N27700 X32.422 Y41.899
N27710 X32.678 Y41.993
N27720 X32.872 Y42.117
N27730 X33.022 Y42.281
N27740 X33.141 Y42.495
N27750 X33.209 Y42.736
N27760 X33.220 Y42.986
N27770 ID=1 WHEN $AC_TIMER[1]>=0 DO M51
N27780 X28.2591 Y44.74 F1000
N27790 ID=1 WHEN $AC_TIMER[1]>=0 DO M50
N27800 X26.415 Y46.580 F600
N27810 X6.928 Y46.580
N27820 X6.654 Y46.550
N27830 X6.630 Y46.307
N27840 X6.630 Y42.972
N27850 X6.844 Y43.129
N27860 X7.126 Y43.312
N27870 X7.977 Y43.796
N27880 X8.318 Y43.961
N27890 X8.952 Y44.204
N27900 X9.792 Y44.454
N27910 X10.357 Y44.578
N27920 X10.648 Y44.620
N27930 X11.815 Y44.728
N27940 X12.080 Y44.740
N27950 X28.159 Y44.740
N27960 ID=1 WHEN $AC_TIMER[1]>=0 DO M51

; Inicio do trecho do raster
; Final do trecho do raster

3

; Layer 33
N28080 G1 Z47.520 F1000

N27970 M63		;POWDER MIXER OFF
N27980 M67		;POWDER FEED OFF
N27990 M65		;CARRIER OFF
N28000 M79     ;GAS 1 OFF

N28010 M0

N28020 M78     ; GAS 1 ON
N28030 M64		;CARRIER ON
N28040 H2 = R3	;SET POWDER FLOW
N28050 M62		;POWDER MIXER ON
N28060 M66		;POWDER FEED ON
N28070 G4F

N28090 X32.5522 Y43.7497 F1000
N28100 ID=1 WHEN $AC_TIMER[1]>=0 DO M50
N28110 X32.495 Y44.105 F600
N28120 X32.353 Y44.495
N28130 X32.131 Y44.883
N28140 X31.809 Y45.268
N28150 X27.678 Y49.389
N28160 X27.343 Y49.682
N28170 X27.050 Y49.866
N28180 X26.707 Y50.010
N28190 X26.367 Y50.098
N28200 X26.009 Y50.130
N28210 X6.065 Y50.130
N28220 X5.277 Y50.046
N28230 X4.678 Y49.857
N28240 X4.256 Y49.621
N28250 X4.137 Y49.534
N28260 X3.893 Y49.317
N28270 X3.685 Y49.084
N28280 X3.564 Y48.911
N28290 X3.315 Y48.444
N28300 X3.155 Y47.920
N28310 X3.070 Y47.116
N28320 X3.070 Y26.478
N28330 X3.092 Y26.333
N28340 X3.129 Y26.251
N28350 X3.331 Y26.002
N28360 X5.201 Y24.132
N28370 X5.270 Y24.082
N28380 X5.278 Y36.560
N28390 X5.389 Y37.617
N28400 X5.451 Y37.922
N28410 X5.701 Y38.732
N28420 X5.834 Y39.061
N28430 X6.234 Y39.791
N28440 X6.636 Y40.345
N28450 X7.095 Y40.844
N28460 X7.609 Y41.288
N28470 X8.009 Y41.561
N28480 X8.589 Y41.891
N28490 X8.941 Y42.049
N28500 X9.903 Y42.350
N28510 X10.202 Y42.411
N28520 X11.410 Y42.530
N28530 X31.374 Y42.530
N28540 X31.755 Y42.571
N28550 X31.997 Y42.656
N28560 X32.192 Y42.783
N28570 X32.342 Y42.944
N28580 X32.456 Y43.153
N28590 X32.533 Y43.433
N28600 X32.546 Y43.650
N28610 ID=1 WHEN $AC_TIMER[1]>=0 DO M51
N28620 X27.589 Y45.41 F1000
N28630 ID=1 WHEN $AC_TIMER[1]>=0 DO M50
N28640 X25.745 Y47.250 F600
N28650 X6.219 Y47.250
N28660 X5.978 Y47.224
N28670 X5.950 Y46.964
N28680 X5.950 Y43.640
N28690 X6.585 Y44.064
N28700 X7.165 Y44.394
N28710 X7.756 Y44.675
N28720 X8.081 Y44.798
N28730 X9.044 Y45.099
N28740 X9.628 Y45.233
N28750 X9.920 Y45.277
N28760 X11.128 Y45.396
N28770 X11.410 Y45.410
N28780 X27.489 Y45.410
N28790 ID=1 WHEN $AC_TIMER[1]>=0 DO M51

; Inicio do trecho do raster
; Final do trecho do raster

3

; Layer 34
N28910 G1 Z48.960 F1000

N28800 M63		;POWDER MIXER OFF
N28810 M67		;POWDER FEED OFF
N28820 M65		;CARRIER OFF
N28830 M79     ;GAS 1 OFF

N28840 M0

N28850 M78     ; GAS 1 ON
N28860 M64		;CARRIER ON
N28870 H2 = R3	;SET POWDER FLOW
N28880 M62		;POWDER MIXER ON
N28890 M66		;POWDER FEED ON
N28900 G4F

N28920 X31.9133 Y44.3987 F1000
N28930 ID=1 WHEN $AC_TIMER[1]>=0 DO M50
N28940 X31.878 Y44.735 F600
N28950 X31.737 Y45.150
N28960 X31.592 Y45.420
N28970 X31.319 Y45.758
N28980 X27.018 Y50.050
N28990 X26.680 Y50.344
N29000 X26.371 Y50.540
N29010 X26.038 Y50.683
N29020 X25.761 Y50.756
N29030 X25.457 Y50.780
N29040 X5.588 Y50.780
N29050 X4.907 Y50.705
N29060 X4.322 Y50.532
N29070 X3.803 Y50.254
N29080 X3.337 Y49.873
N29090 X2.959 Y49.410
N29100 X2.674 Y48.872
N29110 X2.496 Y48.301
N29120 X2.430 Y47.631
N29130 X2.440 Y27.080
N29140 X2.466 Y26.916
N29150 X2.610 Y26.732
N29160 X4.620 Y24.716
N29170 X4.630 Y36.911
N29180 X4.728 Y37.977
N29190 X4.752 Y38.138
N29200 X5.062 Y39.164
N29210 X5.177 Y39.440
N29220 X5.607 Y40.250
N29230 X5.781 Y40.512
N29240 X6.469 Y41.341
N29250 X7.298 Y42.029
N29260 X7.552 Y42.199
N29270 X8.501 Y42.700
N29280 X9.537 Y43.014
N29290 X9.815 Y43.070
N29300 X10.725 Y43.170
N29310 X10.901 Y43.180
N29320 X30.628 Y43.170
N29330 X31.080 Y43.222
N29340 X31.292 Y43.302
N29350 X31.505 Y43.445
N29360 X31.679 Y43.632
N29370 X31.811 Y43.857
N29380 X31.890 Y44.103
N29390 X31.905 Y44.299
N29400 ID=1 WHEN $AC_TIMER[1]>=0 DO M51
N29410 X26.9478 Y46.0511 F1000
N29420 ID=1 WHEN $AC_TIMER[1]>=0 DO M50
N29430 X25.095 Y47.900 F600
N29440 X5.745 Y47.900
N29450 X5.476 Y47.870
N29460 X5.411 Y47.848
N29470 X5.369 Y47.808
N29480 X5.333 Y47.726
N29490 X5.310 Y47.490
N29500 X5.312 Y44.124
N29510 X5.459 Y44.246
N29520 X5.952 Y44.594
N29530 X6.209 Y44.747
N29540 X7.158 Y45.247
N29550 X7.406 Y45.363
N29560 X7.664 Y45.455
N29570 X8.699 Y45.770
N29580 X9.248 Y45.894
N29590 X9.501 Y45.933
N29600 X10.744 Y46.056
N29610 X26.848 Y46.051
N29620 ID=1 WHEN $AC_TIMER[1]>=0 DO M51

; Inicio do trecho do raster
; Final do trecho do raster

3

; Layer 35
N29740 G1 Z50.400 F1000

N29630 M63		;POWDER MIXER OFF
N29640 M67		;POWDER FEED OFF
N29650 M65		;CARRIER OFF
N29660 M79     ;GAS 1 OFF

N29670 M0

N29680 M78     ; GAS 1 ON
N29690 M64		;CARRIER ON
N29700 H2 = R3	;SET POWDER FLOW
N29710 M62		;POWDER MIXER ON
N29720 M66		;POWDER FEED ON
N29730 G4F

N29750 X31.5857 Y44.7938 F1000
N29760 ID=1 WHEN $AC_TIMER[1]>=0 DO M50
N29770 X31.576 Y45.095 F600
N29780 X31.503 Y45.383
N29790 X31.368 Y45.648
N29800 X31.126 Y45.951
N29810 X26.458 Y50.619
N29820 X26.228 Y50.812
N29830 X26.038 Y50.931
N29840 X25.838 Y51.013
N29850 X25.616 Y51.066
N29860 X25.323 Y51.090
N29870 X5.561 Y51.090
N29880 X4.864 Y51.009
N29890 X4.214 Y50.814
N29900 X3.636 Y50.505
N29910 X3.126 Y50.084
N29920 X2.705 Y49.574
N29930 X2.396 Y48.996
N29940 X2.201 Y48.349
N29950 X2.110 Y47.612
N29960 X2.127 Y27.226
N29970 X4.310 Y25.023
N29980 X4.310 Y36.910
N29990 X4.322 Y37.106
N30000 X4.442 Y38.076
N30010 X4.498 Y38.341
N30020 X4.778 Y39.271
N30030 X4.899 Y39.565
N30040 X5.359 Y40.425
N30050 X5.537 Y40.689
N30060 X6.157 Y41.439
N30070 X6.371 Y41.653
N30080 X7.121 Y42.273
N30090 X7.385 Y42.451
N30100 X8.245 Y42.911
N30110 X8.539 Y43.032
N30120 X9.469 Y43.312
N30130 X9.729 Y43.367
N30140 X10.517 Y43.465
N30150 X10.900 Y43.490
N30160 X30.123 Y43.490
N30170 X30.498 Y43.531
N30180 X30.791 Y43.632
N30190 X31.049 Y43.782
N30200 X31.257 Y43.976
N30210 X31.422 Y44.219
N30220 X31.533 Y44.494
N30230 X31.568 Y44.695
N30240 ID=1 WHEN $AC_TIMER[1]>=0 DO M51
N30250 X26.6343 Y46.37 F1000
N30260 ID=1 WHEN $AC_TIMER[1]>=0 DO M50
N30270 X24.794 Y48.210 F600
N30280 X5.727 Y48.210
N30290 X5.448 Y48.178
N30300 X5.319 Y48.139
N30310 X5.249 Y48.101
N30320 X5.172 Y48.038
N30330 X5.109 Y47.961
N30340 X5.071 Y47.891
N30350 X5.029 Y47.753
N30360 X4.990 Y47.436
N30370 X4.993 Y44.251
N30380 X5.286 Y44.493
N30390 X5.781 Y44.842
N30400 X6.027 Y44.990
N30410 X6.887 Y45.450
N30420 X7.439 Y45.694
N30430 X7.708 Y45.790
N30440 X8.638 Y46.070
N30450 X9.131 Y46.184
N30460 X9.374 Y46.225
N30470 X10.332 Y46.339
N30480 X10.900 Y46.370
N30490 X26.534 Y46.370
N30500 ID=1 WHEN $AC_TIMER[1]>=0 DO M51

; Inicio do trecho do raster
; Final do trecho do raster

3

; Layer 36
N30620 G1 Z51.840 F1000

N30510 M63		;POWDER MIXER OFF
N30520 M67		;POWDER FEED OFF
N30530 M65		;CARRIER OFF
N30540 M79     ;GAS 1 OFF

N30550 M0

N30560 M78     ; GAS 1 ON
N30570 M64		;CARRIER ON
N30580 H2 = R3	;SET POWDER FLOW
N30590 M62		;POWDER MIXER ON
N30600 M66		;POWDER FEED ON
N30610 G4F

N30630 X31.7111 Y44.6414 F1000
N30640 ID=1 WHEN $AC_TIMER[1]>=0 DO M50
N30650 X31.686 Y44.957 F600
N30660 X31.600 Y45.277
N30670 X31.456 Y45.556
N30680 X31.202 Y45.865
N30690 X26.742 Y50.335
N30700 X26.399 Y50.628
N30710 X26.151 Y50.784
N30720 X25.852 Y50.908
N30730 X25.681 Y50.952
N30740 X25.391 Y50.970
N30750 X5.576 Y50.980
N30760 X4.890 Y50.902
N30770 X4.252 Y50.713
N30780 X3.695 Y50.415
N30790 X3.197 Y50.004
N30800 X2.796 Y49.516
N30810 X2.495 Y48.953
N30820 X2.305 Y48.330
N30830 X2.230 Y47.625
N30840 X2.230 Y27.224
N30850 X2.254 Y27.100
N30860 X2.325 Y27.008
N30870 X4.430 Y24.903
N30880 X4.430 Y36.910
N30890 X4.539 Y38.019
N30900 X4.599 Y38.316
N30910 X4.879 Y39.236
N30920 X5.000 Y39.526
N30930 X5.450 Y40.366
N30940 X5.624 Y40.626
N30950 X6.224 Y41.356
N30960 X6.442 Y41.575
N30970 X7.182 Y42.185
N30980 X7.444 Y42.360
N30990 X8.432 Y42.880
N31000 X9.495 Y43.204
N31010 X9.729 Y43.255
N31020 X10.227 Y43.323
N31030 X10.900 Y43.380
N31040 X30.315 Y43.380
N31050 X30.715 Y43.422
N31060 X31.004 Y43.520
N31070 X31.238 Y43.661
N31080 X31.417 Y43.839
N31090 X31.558 Y44.060
N31100 X31.673 Y44.372
N31110 X31.697 Y44.542
N31120 ID=1 WHEN $AC_TIMER[1]>=0 DO M51
N31130 X26.7398 Y46.26 F1000
N31140 ID=1 WHEN $AC_TIMER[1]>=0 DO M50
N31150 X24.914 Y48.090 F600
N31160 X5.739 Y48.100
N31170 X5.467 Y48.069
N31180 X5.307 Y48.011
N31190 X5.201 Y47.906
N31200 X5.140 Y47.753
N31210 X5.110 Y47.472
N31220 X5.110 Y44.209
N31230 X5.350 Y44.407
N31240 X5.841 Y44.753
N31250 X6.103 Y44.909
N31260 X7.090 Y45.428
N31270 X7.336 Y45.543
N31280 X7.592 Y45.635
N31290 X8.655 Y45.959
N31300 X9.119 Y46.069
N31310 X9.982 Y46.192
N31320 X10.900 Y46.260
N31330 X26.640 Y46.260
N31340 ID=1 WHEN $AC_TIMER[1]>=0 DO M51

; Inicio do trecho do raster
; Final do trecho do raster

3

; Layer 37
N31460 G1 Z53.280 F1000

N31350 M63		;POWDER MIXER OFF
N31360 M67		;POWDER FEED OFF
N31370 M65		;CARRIER OFF
N31380 M79     ;GAS 1 OFF

N31390 M0

N31400 M78     ; GAS 1 ON
N31410 M64		;CARRIER ON
N31420 H2 = R3	;SET POWDER FLOW
N31430 M62		;POWDER MIXER ON
N31440 M66		;POWDER FEED ON
N31450 G4F

N31470 X32.2548 Y44.0387 F1000
N31480 ID=1 WHEN $AC_TIMER[1]>=0 DO M50
N31490 X32.200 Y44.413 F600
N31500 X32.073 Y44.771
N31510 X31.816 Y45.208
N31520 X31.556 Y45.521
N31530 X27.413 Y49.664
N31540 X27.067 Y49.960
N31550 X26.741 Y50.167
N31560 X26.410 Y50.314
N31570 X26.089 Y50.397
N31580 X25.711 Y50.430
N31590 X5.793 Y50.430
N31600 X4.977 Y50.345
N31610 X4.426 Y50.171
N31620 X4.020 Y49.941
N31630 X3.616 Y49.600
N31640 X3.292 Y49.221
N31650 X3.012 Y48.721
N31660 X2.866 Y48.234
N31670 X2.780 Y47.416
N31680 X2.780 Y26.776
N31690 X2.807 Y26.588
N31700 X2.826 Y26.547
N31710 X2.970 Y26.363
N31720 X4.922 Y24.420
N31730 X4.980 Y24.378
N31740 X4.989 Y36.867
N31750 X5.099 Y37.917
N31760 X5.157 Y38.210
N31770 X5.397 Y39.010
N31780 X5.499 Y39.266
N31790 X5.661 Y39.581
N31800 X6.038 Y40.210
N31810 X6.293 Y40.551
N31820 X6.683 Y40.991
N31830 X6.848 Y41.153
N31840 X7.488 Y41.693
N31850 X7.731 Y41.862
N31860 X8.331 Y42.202
N31870 X8.542 Y42.302
N31880 X8.968 Y42.462
N31890 X9.598 Y42.652
N31900 X9.893 Y42.711
N31910 X11.110 Y42.830
N31920 X31.064 Y42.830
N31930 X31.457 Y42.872
N31940 X31.694 Y42.951
N31950 X31.890 Y43.081
N31960 X32.047 Y43.248
N31970 X32.160 Y43.452
N31980 X32.242 Y43.747
N31990 X32.250 Y43.939
N32000 ID=1 WHEN $AC_TIMER[1]>=0 DO M51
N32010 X27.2943 Y45.71 F1000
N32020 ID=1 WHEN $AC_TIMER[1]>=0 DO M50
N32030 X25.454 Y47.550 F600
N32040 X5.942 Y47.550
N32050 X5.687 Y47.524
N32060 X5.660 Y47.266
N32070 X5.660 Y43.915
N32080 X6.086 Y44.226
N32090 X6.311 Y44.368
N32100 X7.098 Y44.805
N32110 X7.530 Y44.998
N32120 X8.136 Y45.219
N32130 X8.766 Y45.409
N32140 X9.325 Y45.535
N32150 X9.614 Y45.578
N32160 X10.830 Y45.696
N32170 X11.110 Y45.710
N32180 X27.194 Y45.710
N32190 ID=1 WHEN $AC_TIMER[1]>=0 DO M51

; Inicio do trecho do raster
; Final do trecho do raster

3

; Layer 38
N32310 G1 Z54.720 F1000

N32200 M63		;POWDER MIXER OFF
N32210 M67		;POWDER FEED OFF
N32220 M65		;CARRIER OFF
N32230 M79     ;GAS 1 OFF

N32240 M0

N32250 M78     ; GAS 1 ON
N32260 M64		;CARRIER ON
N32270 H2 = R3	;SET POWDER FLOW
N32280 M62		;POWDER MIXER ON
N32290 M66		;POWDER FEED ON
N32300 G4F

N32320 X32.9247 Y43.3592 F1000
N32330 ID=1 WHEN $AC_TIMER[1]>=0 DO M50
N32340 X32.870 Y43.730 F600
N32350 X32.734 Y44.109
N32360 X32.505 Y44.500
N32370 X32.164 Y44.913
N32380 X28.083 Y48.994
N32390 X27.737 Y49.290
N32400 X27.411 Y49.497
N32410 X27.080 Y49.644
N32420 X26.758 Y49.728
N32430 X26.390 Y49.760
N32440 X6.469 Y49.760
N32450 X5.632 Y49.666
N32460 X5.077 Y49.499
N32470 X4.618 Y49.237
N32480 X4.486 Y49.145
N32490 X4.262 Y48.945
N32500 X4.050 Y48.699
N32510 X3.947 Y48.560
N32520 X3.705 Y48.127
N32530 X3.536 Y47.564
N32540 X3.450 Y46.746
N32550 X3.450 Y26.096
N32560 X3.474 Y25.931
N32570 X3.502 Y25.872
N32580 X3.643 Y25.690
N32590 X5.566 Y23.767
N32600 X5.650 Y23.707
N32610 X5.658 Y36.186
N32620 X5.793 Y37.425
N32630 X6.085 Y38.373
N32640 X6.284 Y38.823
N32650 X6.604 Y39.413
N32660 X6.742 Y39.626
N32670 X7.016 Y39.975
N32680 X7.459 Y40.459
N32690 X7.819 Y40.789
N32700 X7.979 Y40.918
N32710 X8.399 Y41.202
N32720 X9.129 Y41.596
N32730 X9.453 Y41.727
N32740 X10.253 Y41.977
N32750 X10.563 Y42.041
N32760 X11.780 Y42.160
N32770 X31.735 Y42.160
N32780 X32.131 Y42.202
N32790 X32.381 Y42.288
N32800 X32.572 Y42.413
N32810 X32.722 Y42.574
N32820 X32.839 Y42.789
N32830 X32.910 Y43.038
N32840 X32.920 Y43.259
N32850 ID=1 WHEN $AC_TIMER[1]>=0 DO M51
N32860 X27.9643 Y45.04 F1000
N32870 ID=1 WHEN $AC_TIMER[1]>=0 DO M50
N32880 X26.124 Y46.880 F600
N32890 X6.630 Y46.880
N32900 X6.357 Y46.849
N32910 X6.330 Y46.596
N32920 X6.330 Y43.276
N32930 X6.787 Y43.589
N32940 X7.031 Y43.736
N32950 X7.761 Y44.130
N32960 X8.047 Y44.265
N32970 X8.594 Y44.476
N32980 X9.394 Y44.726
N32990 X9.981 Y44.862
N33000 X10.284 Y44.908
N33010 X11.500 Y45.026
N33020 X11.780 Y45.040
N33030 X27.864 Y45.040
N33040 ID=1 WHEN $AC_TIMER[1]>=0 DO M51

; Inicio do trecho do raster
; Final do trecho do raster

3

; Layer 39
N33160 G1 Z56.160 F1000

N33050 M63		;POWDER MIXER OFF
N33060 M67		;POWDER FEED OFF
N33070 M65		;CARRIER OFF
N33080 M79     ;GAS 1 OFF

N33090 M0

N33100 M78     ; GAS 1 ON
N33110 M64		;CARRIER ON
N33120 H2 = R3	;SET POWDER FLOW
N33130 M62		;POWDER MIXER ON
N33140 M66		;POWDER FEED ON
N33150 G4F

N33170 X33.5947 Y42.6892 F1000
N33180 ID=1 WHEN $AC_TIMER[1]>=0 DO M50
N33190 X33.540 Y43.060 F600
N33200 X33.404 Y43.439
N33210 X33.175 Y43.830
N33220 X32.834 Y44.243
N33230 X28.753 Y48.324
N33240 X28.407 Y48.620
N33250 X28.081 Y48.827
N33260 X27.750 Y48.974
N33270 X27.428 Y49.058
N33280 X27.060 Y49.090
N33290 X7.139 Y49.090
N33300 X6.303 Y48.997
N33310 X5.713 Y48.806
N33320 X5.286 Y48.571
N33330 X5.170 Y48.485
N33340 X4.923 Y48.258
N33350 X4.714 Y48.021
N33360 X4.629 Y47.906
N33370 X4.357 Y47.389
N33380 X4.205 Y46.891
N33390 X4.120 Y46.076
N33400 X4.120 Y25.418
N33410 X4.140 Y25.283
N33420 X4.182 Y25.188
N33430 X4.313 Y25.020
N33440 X6.236 Y23.097
N33450 X6.320 Y23.037
N33460 X6.320 Y35.360
N33470 X6.330 Y35.537
N33480 X6.450 Y36.617
N33490 X6.511 Y36.911
N33500 X6.805 Y37.841
N33510 X6.975 Y38.212
N33520 X7.404 Y38.932
N33530 X7.696 Y39.315
N33540 X8.026 Y39.685
N33550 X8.602 Y40.204
N33560 X8.852 Y40.394
N33570 X9.052 Y40.524
N33580 X9.692 Y40.874
N33590 X10.127 Y41.055
N33600 X11.074 Y41.346
N33610 X12.283 Y41.481
N33620 X12.450 Y41.490
N33630 X32.408 Y41.490
N33640 X32.819 Y41.532
N33650 X33.054 Y41.615
N33660 X33.223 Y41.726
N33670 X33.388 Y41.907
N33680 X33.511 Y42.132
N33690 X33.580 Y42.371
N33700 X33.590 Y42.589
N33710 ID=1 WHEN $AC_TIMER[1]>=0 DO M51
N33720 X28.6343 Y44.37 F1000
N33730 ID=1 WHEN $AC_TIMER[1]>=0 DO M50
N33740 X26.794 Y46.210 F600
N33750 X7.298 Y46.210
N33760 X7.027 Y46.180
N33770 X7.000 Y45.926
N33780 X7.000 Y42.600
N33790 X7.285 Y42.810
N33800 X7.670 Y43.051
N33810 X8.310 Y43.401
N33820 X8.582 Y43.531
N33830 X9.017 Y43.713
N33840 X9.281 Y43.808
N33850 X10.227 Y44.099
N33860 X10.488 Y44.166
N33870 X10.754 Y44.209
N33880 X12.133 Y44.357
N33890 X12.450 Y44.370
N33900 X28.534 Y44.370
N33910 ID=1 WHEN $AC_TIMER[1]>=0 DO M51

; Inicio do trecho do raster
; Final do trecho do raster

3

; Layer 40
N34030 G1 Z57.600 F1000

N33920 M63		;POWDER MIXER OFF
N33930 M67		;POWDER FEED OFF
N33940 M65		;CARRIER OFF
N33950 M79     ;GAS 1 OFF

N33960 M0

N33970 M78     ; GAS 1 ON
N33980 M64		;CARRIER ON
N33990 H2 = R3	;SET POWDER FLOW
N34000 M62		;POWDER MIXER ON
N34010 M66		;POWDER FEED ON
N34020 G4F

N34040 X34.2722 Y42.0197 F1000
N34050 ID=1 WHEN $AC_TIMER[1]>=0 DO M50
N34060 X34.214 Y42.379 F600
N34070 X34.071 Y42.778
N34080 X33.853 Y43.160
N34090 X33.510 Y43.567
N34100 X29.417 Y47.660
N34110 X29.085 Y47.950
N34120 X28.768 Y48.147
N34130 X28.428 Y48.293
N34140 X28.092 Y48.381
N34150 X27.717 Y48.420
N34160 X7.804 Y48.420
N34170 X6.998 Y48.336
N34180 X6.395 Y48.138
N34190 X5.965 Y47.897
N34200 X5.824 Y47.791
N34210 X5.576 Y47.570
N34220 X5.394 Y47.363
N34230 X5.294 Y47.223
N34240 X5.049 Y46.783
N34250 X4.875 Y46.219
N34260 X4.790 Y45.397
N34270 X4.790 Y24.738
N34280 X4.808 Y24.617
N34290 X4.849 Y24.528
N34300 X4.986 Y24.357
N34310 X6.928 Y22.415
N34320 X6.990 Y22.369
N34330 X6.990 Y34.680
N34340 X6.999 Y34.854
N34350 X7.145 Y36.113
N34360 X7.485 Y37.181
N34370 X7.655 Y37.552
N34380 X8.084 Y38.272
N34390 X8.370 Y38.649
N34400 X8.670 Y38.989
N34410 X8.805 Y39.124
N34420 X9.310 Y39.562
N34430 X9.751 Y39.863
N34440 X10.463 Y40.250
N34450 X10.819 Y40.399
N34460 X11.758 Y40.679
N34470 X13.120 Y40.820
N34480 X33.079 Y40.820
N34490 X33.500 Y40.863
N34500 X33.700 Y40.933
N34510 X33.910 Y41.073
N34520 X34.072 Y41.251
N34530 X34.187 Y41.457
N34540 X34.253 Y41.700
N34550 X34.266 Y41.920
N34560 ID=1 WHEN $AC_TIMER[1]>=0 DO M51
N34570 X29.3043 Y43.7 F1000
N34580 ID=1 WHEN $AC_TIMER[1]>=0 DO M50
N34590 X27.464 Y45.540 F600
N34600 X7.954 Y45.540
N34610 X7.697 Y45.513
N34620 X7.670 Y45.248
N34630 X7.670 Y41.928
N34640 X8.126 Y42.241
N34650 X8.376 Y42.394
N34660 X9.089 Y42.781
N34670 X9.349 Y42.906
N34680 X9.705 Y43.055
N34690 X9.996 Y43.159
N34700 X10.934 Y43.439
N34710 X11.195 Y43.504
N34720 X11.462 Y43.544
N34730 X12.824 Y43.685
N34740 X13.120 Y43.700
N34750 X29.204 Y43.700
N34760 ID=1 WHEN $AC_TIMER[1]>=0 DO M51

; Inicio do trecho do raster
; Final do trecho do raster

3

; Layer 41
N34880 G1 Z59.040 F1000

N34770 M63		;POWDER MIXER OFF
N34780 M67		;POWDER FEED OFF
N34790 M65		;CARRIER OFF
N34800 M79     ;GAS 1 OFF

N34810 M0

N34820 M78     ; GAS 1 ON
N34830 M64		;CARRIER ON
N34840 H2 = R3	;SET POWDER FLOW
N34850 M62		;POWDER MIXER ON
N34860 M66		;POWDER FEED ON
N34870 G4F

N34890 X34.9422 Y41.3497 F1000
N34900 ID=1 WHEN $AC_TIMER[1]>=0 DO M50
N34910 X34.884 Y41.709 F600
N34920 X34.741 Y42.108
N34930 X34.526 Y42.484
N34940 X34.185 Y42.882
N34950 X30.087 Y46.980
N34960 X29.747 Y47.277
N34970 X29.428 Y47.482
N34980 X29.098 Y47.623
N34990 X28.776 Y47.708
N35000 X28.401 Y47.740
N35010 X8.476 Y47.740
N35020 X7.607 Y47.646
N35030 X7.131 Y47.498
N35040 X6.666 Y47.249
N35050 X6.483 Y47.110
N35060 X6.269 Y46.922
N35070 X6.062 Y46.690
N35080 X5.963 Y46.551
N35090 X5.723 Y46.107
N35100 X5.545 Y45.535
N35110 X5.460 Y44.726
N35120 X5.460 Y24.109
N35130 X5.512 Y23.861
N35140 X5.649 Y23.694
N35150 X7.593 Y21.750
N35160 X7.660 Y21.701
N35170 X7.669 Y34.177
N35180 X7.779 Y35.227
N35190 X7.843 Y35.538
N35200 X8.103 Y36.368
N35210 X8.325 Y36.873
N35220 X8.645 Y37.443
N35230 X8.777 Y37.642
N35240 X9.048 Y37.986
N35250 X9.338 Y38.316
N35260 X9.491 Y38.468
N35270 X9.960 Y38.870
N35280 X10.240 Y39.080
N35290 X10.440 Y39.208
N35300 X11.200 Y39.611
N35310 X11.512 Y39.733
N35320 X12.282 Y39.963
N35330 X12.573 Y40.021
N35340 X13.790 Y40.140
N35350 X33.739 Y40.140
N35360 X34.165 Y40.189
N35370 X34.385 Y40.267
N35380 X34.588 Y40.396
N35390 X34.734 Y40.550
N35400 X34.847 Y40.755
N35410 X34.923 Y41.033
N35420 X34.936 Y41.250
N35430 ID=1 WHEN $AC_TIMER[1]>=0 DO M51
N35440 X29.9743 Y43.02 F1000
N35450 ID=1 WHEN $AC_TIMER[1]>=0 DO M50
N35460 X28.134 Y44.860 F600
N35470 X8.631 Y44.860
N35480 X8.367 Y44.831
N35490 X8.340 Y44.576
N35500 X8.340 Y41.253
N35510 X8.688 Y41.506
N35520 X9.091 Y41.753
N35530 X9.851 Y42.155
N35540 X10.149 Y42.292
N35550 X10.688 Y42.493
N35560 X11.458 Y42.723
N35570 X12.009 Y42.845
N35580 X12.294 Y42.888
N35590 X13.510 Y43.006
N35600 X13.790 Y43.020
N35610 X29.874 Y43.020
N35620 ID=1 WHEN $AC_TIMER[1]>=0 DO M51

; Inicio do trecho do raster
; Final do trecho do raster

3

; Layer 42
N35740 G1 Z60.480 F1000

N35630 M63		;POWDER MIXER OFF
N35640 M67		;POWDER FEED OFF
N35650 M65		;CARRIER OFF
N35660 M79     ;GAS 1 OFF

N35670 M0

N35680 M78     ; GAS 1 ON
N35690 M64		;CARRIER ON
N35700 H2 = R3	;SET POWDER FLOW
N35710 M62		;POWDER MIXER ON
N35720 M66		;POWDER FEED ON
N35730 G4F

N35750 X35.6123 Y40.6789 F1000
N35760 ID=1 WHEN $AC_TIMER[1]>=0 DO M50
N35770 X35.554 Y41.039 F600
N35780 X35.411 Y41.438
N35790 X35.196 Y41.814
N35800 X34.855 Y42.212
N35810 X30.757 Y46.310
N35820 X30.417 Y46.607
N35830 X30.093 Y46.814
N35840 X29.776 Y46.953
N35850 X29.449 Y47.037
N35860 X29.071 Y47.070
N35870 X9.153 Y47.070
N35880 X8.335 Y46.985
N35890 X7.678 Y46.773
N35900 X7.351 Y46.590
N35910 X7.159 Y46.442
N35920 X6.916 Y46.220
N35930 X6.743 Y46.022
N35940 X6.630 Y45.866
N35950 X6.392 Y45.424
N35960 X6.214 Y44.862
N35970 X6.130 Y44.056
N35980 X6.130 Y23.439
N35990 X6.166 Y23.237
N36000 X6.188 Y23.192
N36010 X6.328 Y23.015
N36020 X8.263 Y21.080
N36030 X8.330 Y21.031
N36040 X8.339 Y33.507
N36050 X8.449 Y34.557
N36060 X8.512 Y34.863
N36070 X8.828 Y35.857
N36080 X9.320 Y36.764
N36090 X9.603 Y37.171
N36100 X10.084 Y37.713
N36110 X10.630 Y38.200
N36120 X10.910 Y38.410
N36130 X11.119 Y38.543
N36140 X11.880 Y38.941
N36150 X12.187 Y39.061
N36160 X12.947 Y39.291
N36170 X13.245 Y39.351
N36180 X14.470 Y39.470
N36190 X34.415 Y39.470
N36200 X34.800 Y39.511
N36210 X35.086 Y39.614
N36220 X35.246 Y39.717
N36230 X35.394 Y39.876
N36240 X35.535 Y40.131
N36250 X35.593 Y40.347
N36260 X35.606 Y40.579
N36270 ID=1 WHEN $AC_TIMER[1]>=0 DO M51
N36280 X30.6443 Y42.35 F1000
N36290 ID=1 WHEN $AC_TIMER[1]>=0 DO M50
N36300 X28.804 Y44.190 F600
N36310 X9.302 Y44.190
N36320 X9.037 Y44.163
N36330 X9.010 Y43.906
N36340 X9.010 Y40.582
N36350 X9.366 Y40.841
N36360 X9.785 Y41.095
N36370 X10.545 Y41.493
N36380 X10.825 Y41.621
N36390 X11.352 Y41.818
N36400 X12.112 Y42.048
N36410 X12.677 Y42.175
N36420 X12.967 Y42.218
N36430 X14.193 Y42.337
N36440 X14.470 Y42.350
N36450 X30.544 Y42.350
N36460 ID=1 WHEN $AC_TIMER[1]>=0 DO M51

; Inicio do trecho do raster
; Final do trecho do raster

3

; Layer 43
N36580 G1 Z61.920 F1000

N36470 M63		;POWDER MIXER OFF
N36480 M67		;POWDER FEED OFF
N36490 M65		;CARRIER OFF
N36500 M79     ;GAS 1 OFF

N36510 M0

N36520 M78     ; GAS 1 ON
N36530 M64		;CARRIER ON
N36540 H2 = R3	;SET POWDER FLOW
N36550 M62		;POWDER MIXER ON
N36560 M66		;POWDER FEED ON
N36570 G4F

N36590 X36.2826 Y40.0145 F1000
N36600 ID=1 WHEN $AC_TIMER[1]>=0 DO M50
N36610 X36.223 Y40.400 F600
N36620 X36.094 Y40.759
N36630 X35.868 Y41.144
N36640 X35.529 Y41.548
N36650 X31.443 Y45.634
N36660 X31.097 Y45.930
N36670 X30.771 Y46.137
N36680 X30.440 Y46.284
N36690 X30.119 Y46.367
N36700 X29.741 Y46.400
N36710 X9.823 Y46.400
N36720 X9.005 Y46.315
N36730 X8.365 Y46.107
N36740 X7.969 Y45.876
N36750 X7.810 Y45.756
N36760 X7.626 Y45.589
N36770 X7.408 Y45.346
N36780 X7.308 Y45.208
N36790 X7.044 Y44.717
N36800 X6.887 Y44.206
N36810 X6.810 Y43.394
N36820 X6.810 Y22.704
N36830 X6.827 Y22.595
N36840 X6.875 Y22.491
N36850 X6.996 Y22.337
N36860 X8.941 Y20.401
N36870 X9.010 Y20.349
N36880 X9.017 Y32.822
N36890 X9.141 Y34.032
N36900 X9.410 Y34.939
N36910 X9.490 Y35.147
N36920 X9.679 Y35.542
N36930 X9.949 Y36.032
N36940 X10.264 Y36.488
N36950 X10.765 Y37.055
N36960 X11.322 Y37.546
N36970 X11.775 Y37.860
N36980 X12.335 Y38.170
N36990 X12.861 Y38.390
N37000 X13.611 Y38.620
N37010 X13.915 Y38.681
N37020 X15.140 Y38.800
N37030 X35.094 Y38.800
N37040 X35.487 Y38.842
N37050 X35.678 Y38.906
N37060 X35.967 Y39.090
N37070 X36.071 Y39.201
N37080 X36.188 Y39.416
N37090 X36.263 Y39.685
N37100 X36.277 Y39.915
N37110 ID=1 WHEN $AC_TIMER[1]>=0 DO M51
N37120 X31.3243 Y41.68 F1000
N37130 ID=1 WHEN $AC_TIMER[1]>=0 DO M50
N37140 X29.484 Y43.520 F600
N37150 X9.972 Y43.520
N37160 X9.712 Y43.493
N37170 X9.690 Y43.257
N37180 X9.690 Y39.919
N37190 X10.136 Y40.228
N37200 X10.380 Y40.380
N37210 X10.940 Y40.690
N37220 X11.224 Y40.827
N37230 X11.750 Y41.047
N37240 X12.017 Y41.143
N37250 X12.767 Y41.373
N37260 X13.341 Y41.504
N37270 X13.637 Y41.548
N37280 X14.863 Y41.667
N37290 X15.140 Y41.680
N37300 X31.224 Y41.680
N37310 ID=1 WHEN $AC_TIMER[1]>=0 DO M51

; Inicio do trecho do raster
; Final do trecho do raster

3

; Layer 44
N37430 G1 Z63.360 F1000

N37320 M63		;POWDER MIXER OFF
N37330 M67		;POWDER FEED OFF
N37340 M65		;CARRIER OFF
N37350 M79     ;GAS 1 OFF

N37360 M0

N37370 M78     ; GAS 1 ON
N37380 M64		;CARRIER ON
N37390 H2 = R3	;SET POWDER FLOW
N37400 M62		;POWDER MIXER ON
N37410 M66		;POWDER FEED ON
N37420 G4F

N37440 X36.9548 Y39.3387 F1000
N37450 ID=1 WHEN $AC_TIMER[1]>=0 DO M50
N37460 X36.901 Y39.706 F600
N37470 X36.764 Y40.081
N37480 X36.535 Y40.478
N37490 X36.199 Y40.878
N37500 X32.113 Y44.964
N37510 X31.767 Y45.260
N37520 X31.441 Y45.467
N37530 X31.110 Y45.614
N37540 X30.789 Y45.697
N37550 X30.411 Y45.730
N37560 X10.494 Y45.730
N37570 X9.671 Y45.644
N37580 X9.178 Y45.499
N37590 X9.033 Y45.431
N37600 X8.629 Y45.196
N37610 X8.469 Y45.075
N37620 X8.295 Y44.918
N37630 X8.087 Y44.685
N37640 X7.979 Y44.531
N37650 X7.710 Y44.027
N37660 X7.583 Y43.626
N37670 X7.480 Y42.711
N37680 X7.480 Y22.026
N37690 X7.496 Y21.923
N37700 X7.546 Y21.821
N37710 X7.670 Y21.663
N37720 X9.605 Y19.727
N37730 X9.680 Y19.673
N37740 X9.680 Y32.000
N37750 X9.690 Y32.178
N37760 X9.847 Y33.501
N37770 X10.130 Y34.390
N37780 X10.377 Y34.925
N37790 X10.778 Y35.600
N37800 X11.036 Y35.945
N37810 X11.495 Y36.444
N37820 X12.012 Y36.891
N37830 X12.444 Y37.184
N37840 X13.142 Y37.567
N37850 X13.560 Y37.735
N37860 X14.310 Y37.955
N37870 X14.593 Y38.011
N37880 X15.810 Y38.130
N37890 X35.764 Y38.130
N37900 X36.157 Y38.172
N37910 X36.388 Y38.249
N37920 X36.632 Y38.413
N37930 X36.739 Y38.529
N37940 X36.885 Y38.799
N37950 X36.940 Y38.999
N37960 X36.950 Y39.239
N37970 ID=1 WHEN $AC_TIMER[1]>=0 DO M51
N37980 X31.9943 Y41.01 F1000
N37990 ID=1 WHEN $AC_TIMER[1]>=0 DO M50
N38000 X30.154 Y42.850 F600
N38010 X10.644 Y42.850
N38020 X10.391 Y42.823
N38030 X10.360 Y42.550
N38040 X10.360 Y39.247
N38050 X10.827 Y39.567
N38060 X11.057 Y39.708
N38070 X11.755 Y40.091
N38080 X12.067 Y40.239
N38090 X12.485 Y40.407
N38100 X12.749 Y40.499
N38110 X13.499 Y40.719
N38120 X14.036 Y40.837
N38130 X14.314 Y40.878
N38140 X15.530 Y40.996
N38150 X15.810 Y41.010
N38160 X31.894 Y41.010
N38170 ID=1 WHEN $AC_TIMER[1]>=0 DO M51

; Inicio do trecho do raster
; Final do trecho do raster

3

; Layer 45
N38290 G1 Z64.800 F1000

N38180 M63		;POWDER MIXER OFF
N38190 M67		;POWDER FEED OFF
N38200 M65		;CARRIER OFF
N38210 M79     ;GAS 1 OFF

N38220 M0

N38230 M78     ; GAS 1 ON
N38240 M64		;CARRIER ON
N38250 H2 = R3	;SET POWDER FLOW
N38260 M62		;POWDER MIXER ON
N38270 M66		;POWDER FEED ON
N38280 G4F

N38300 X37.6247 Y38.6592 F1000
N38310 ID=1 WHEN $AC_TIMER[1]>=0 DO M50
N38320 X37.570 Y39.030 F600
N38330 X37.434 Y39.409
N38340 X37.205 Y39.800
N38350 X36.864 Y40.213
N38360 X32.783 Y44.294
N38370 X32.437 Y44.590
N38380 X32.111 Y44.797
N38390 X31.780 Y44.944
N38400 X31.458 Y45.028
N38410 X31.090 Y45.060
N38420 X11.164 Y45.060
N38430 X10.344 Y44.974
N38440 X9.862 Y44.831
N38450 X9.680 Y44.745
N38460 X9.350 Y44.562
N38470 X9.195 Y44.453
N38480 X8.971 Y44.254
N38490 X8.691 Y43.921
N38500 X8.419 Y43.444
N38510 X8.236 Y42.863
N38520 X8.150 Y42.046
N38530 X8.150 Y21.375
N38540 X8.180 Y21.223
N38550 X8.214 Y21.154
N38560 X8.340 Y20.993
N38570 X10.268 Y19.065
N38580 X10.350 Y19.006
N38590 X10.359 Y31.497
N38600 X10.469 Y32.547
N38610 X10.530 Y32.848
N38620 X10.848 Y33.858
N38630 X11.353 Y34.780
N38640 X11.517 Y35.020
N38650 X11.997 Y35.600
N38660 X12.165 Y35.774
N38670 X12.535 Y36.104
N38680 X12.982 Y36.431
N38690 X13.822 Y36.897
N38700 X14.234 Y37.064
N38710 X14.974 Y37.284
N38720 X15.263 Y37.341
N38730 X16.480 Y37.460
N38740 X36.434 Y37.460
N38750 X36.827 Y37.502
N38760 X37.074 Y37.585
N38770 X37.267 Y37.708
N38780 X37.417 Y37.868
N38790 X37.534 Y38.079
N38800 X37.610 Y38.343
N38810 X37.620 Y38.559
N38820 ID=1 WHEN $AC_TIMER[1]>=0 DO M51
N38830 X32.6643 Y40.34 F1000
N38840 ID=1 WHEN $AC_TIMER[1]>=0 DO M50
N38850 X30.824 Y42.180 F600
N38860 X11.314 Y42.180
N38870 X11.057 Y42.153
N38880 X11.030 Y41.896
N38890 X11.030 Y38.571
N38900 X11.284 Y38.757
N38910 X11.584 Y38.948
N38920 X12.423 Y39.415
N38930 X12.744 Y39.568
N38940 X13.156 Y39.734
N38950 X13.413 Y39.824
N38960 X14.153 Y40.044
N38970 X14.700 Y40.166
N38980 X14.984 Y40.208
N38990 X16.200 Y40.326
N39000 X16.480 Y40.340
N39010 X32.564 Y40.340
N39020 ID=1 WHEN $AC_TIMER[1]>=0 DO M51

; Inicio do trecho do raster
; Final do trecho do raster

3

; Layer 46
N39140 G1 Z66.240 F1000

N39030 M63		;POWDER MIXER OFF
N39040 M67		;POWDER FEED OFF
N39050 M65		;CARRIER OFF
N39060 M79     ;GAS 1 OFF

N39070 M0

N39080 M78     ; GAS 1 ON
N39090 M64		;CARRIER ON
N39100 H2 = R3	;SET POWDER FLOW
N39110 M62		;POWDER MIXER ON
N39120 M66		;POWDER FEED ON
N39130 G4F

N39150 X38.2947 Y37.9892 F1000
N39160 ID=1 WHEN $AC_TIMER[1]>=0 DO M50
N39170 X38.240 Y38.360 F600
N39180 X38.101 Y38.748
N39190 X37.883 Y39.130
N39200 X37.540 Y39.537
N39210 X33.447 Y43.630
N39220 X33.115 Y43.920
N39230 X32.798 Y44.117
N39240 X32.450 Y44.267
N39250 X32.115 Y44.359
N39260 X31.760 Y44.390
N39270 X11.834 Y44.390
N39280 X11.020 Y44.305
N39290 X10.423 Y44.114
N39300 X10.038 Y43.897
N39310 X9.869 Y43.777
N39320 X9.633 Y43.567
N39330 X9.415 Y43.322
N39340 X9.303 Y43.170
N39350 X9.100 Y42.797
N39360 X8.905 Y42.191
N39370 X8.820 Y41.367
N39380 X8.820 Y20.757
N39390 X8.857 Y20.544
N39400 X8.890 Y20.477
N39410 X9.012 Y20.321
N39420 X10.938 Y18.395
N39430 X11.020 Y18.336
N39440 X11.029 Y30.815
N39450 X11.139 Y31.875
N39460 X11.200 Y32.178
N39470 X11.420 Y32.898
N39480 X11.641 Y33.435
N39490 X11.953 Y34.010
N39500 X12.280 Y34.476
N39510 X12.706 Y34.965
N39520 X13.205 Y35.424
N39530 X13.654 Y35.755
N39540 X14.344 Y36.154
N39550 X14.912 Y36.390
N39560 X15.632 Y36.610
N39570 X15.933 Y36.671
N39580 X17.150 Y36.790
N39590 X37.104 Y36.790
N39600 X37.535 Y36.836
N39610 X37.740 Y36.907
N39620 X37.932 Y37.033
N39630 X38.094 Y37.207
N39640 X38.211 Y37.410
N39650 X38.280 Y37.661
N39660 X38.290 Y37.889
N39670 ID=1 WHEN $AC_TIMER[1]>=0 DO M51
N39680 X33.3343 Y39.67 F1000
N39690 ID=1 WHEN $AC_TIMER[1]>=0 DO M50
N39700 X31.494 Y41.510 F600
N39710 X11.984 Y41.510
N39720 X11.727 Y41.483
N39730 X11.700 Y41.218
N39740 X11.700 Y37.892
N39750 X11.946 Y38.074
N39760 X12.213 Y38.248
N39770 X12.903 Y38.647
N39780 X13.238 Y38.813
N39790 X13.806 Y39.049
N39800 X14.071 Y39.144
N39810 X14.791 Y39.364
N39820 X15.360 Y39.494
N39830 X15.654 Y39.538
N39840 X16.870 Y39.656
N39850 X17.150 Y39.670
N39860 X33.234 Y39.670
N39870 ID=1 WHEN $AC_TIMER[1]>=0 DO M51

; Inicio do trecho do raster
; Final do trecho do raster

3

; Layer 47
N39990 G1 Z67.680 F1000

N39880 M63		;POWDER MIXER OFF
N39890 M67		;POWDER FEED OFF
N39900 M65		;CARRIER OFF
N39910 M79     ;GAS 1 OFF

N39920 M0

N39930 M78     ; GAS 1 ON
N39940 M64		;CARRIER ON
N39950 H2 = R3	;SET POWDER FLOW
N39960 M62		;POWDER MIXER ON
N39970 M66		;POWDER FEED ON
N39980 G4F

N40000 X38.9722 Y37.3197 F1000
N40010 ID=1 WHEN $AC_TIMER[1]>=0 DO M50
N40020 X38.914 Y37.679 F600
N40030 X38.771 Y38.078
N40040 X38.553 Y38.460
N40050 X38.210 Y38.867
N40060 X34.117 Y42.960
N40070 X33.785 Y43.250
N40080 X33.468 Y43.447
N40090 X33.128 Y43.593
N40100 X32.806 Y43.678
N40110 X32.431 Y43.710
N40120 X12.496 Y43.710
N40130 X11.686 Y43.633
N40140 X11.227 Y43.491
N40150 X10.981 Y43.380
N40160 X10.707 Y43.226
N40170 X10.539 Y43.107
N40180 X10.303 Y42.897
N40190 X10.093 Y42.661
N40200 X9.976 Y42.496
N40210 X9.716 Y42.000
N40220 X9.576 Y41.528
N40230 X9.490 Y40.697
N40240 X9.490 Y20.065
N40250 X9.516 Y19.900
N40260 X9.574 Y19.781
N40270 X9.619 Y19.724
N40280 X11.631 Y17.712
N40290 X11.690 Y17.667
N40300 X11.699 Y30.145
N40310 X11.809 Y31.205
N40320 X11.866 Y31.494
N40330 X12.076 Y32.204
N40340 X12.246 Y32.633
N40350 X12.621 Y33.327
N40360 X12.935 Y33.786
N40370 X13.376 Y34.295
N40380 X13.875 Y34.754
N40390 X14.324 Y35.085
N40400 X14.484 Y35.185
N40410 X15.177 Y35.554
N40420 X15.586 Y35.718
N40430 X16.456 Y35.979
N40440 X17.820 Y36.110
N40450 X37.775 Y36.110
